( pcb2gcode 1.3.2 )
( Software-independent Gcode )

G94 ( Millimeters per minute feed rate. )
G21 ( Units == Millimeters. )

G90 ( Absolute coordinates. )
S2 ( RPM spindle speed. )
G64 P0.05080 ( set maximum deviation from commanded toolpath )
F500.00000 ( Feedrate. )

F500.00000 ( Feedrate. )
M3 ( Spindle on clockwise. )
G04 P0 ( dwell for no time -- G64 should not smooth over this point )
G00 Z3.00000 ( retract )

G00 X6.01139 Y34.58640 ( rapid move to begin. )
F254.00000
G01 Z-0.10000
G04 P0 ( dwell for no time -- G64 should not smooth over this point )
F500.00000
X6.01139 Y34.58640
X6.08759 Y34.43400
X6.08759 Y34.33240
X6.18919 Y34.20540
X6.23999 Y34.05300
X6.36699 Y33.95140
X6.36699 Y33.90060
X6.46859 Y33.79900
X6.51939 Y33.79900
X6.62099 Y33.67200
X6.77339 Y33.62120
X6.79879 Y33.57040
X7.33219 Y33.41800
X8.06879 Y33.41800
X8.50059 Y33.51960
X8.62759 Y33.62120
X8.77999 Y33.67200
X8.88159 Y33.79900
X8.93239 Y33.79900
X9.03399 Y33.90060
X9.03399 Y33.95140
X9.16099 Y34.05300
X9.21179 Y34.20540
X9.26259 Y34.23080
X9.38959 Y34.66260
X14.64739 Y34.66260
X14.72359 Y34.33240
X14.82519 Y34.20540
X14.87599 Y34.05300
X15.25699 Y33.67200
X15.40939 Y33.62120
X15.53639 Y33.51960
X15.96819 Y33.41800
X16.70479 Y33.41800
X17.06039 Y33.49420
X17.13659 Y33.54500
X21.02279 Y29.63340
X21.12439 Y29.58260
X24.52799 Y29.58260
X24.52799 Y28.59200
X27.44899 Y28.59200
X27.44899 Y31.51300
X26.45839 Y31.51300
X26.45839 Y37.83760
X26.53459 Y37.83760
X26.61079 Y37.91380
X26.71239 Y37.93920
X26.94099 Y38.21860
X26.99179 Y38.37100
X26.99179 Y38.72660
X27.52519 Y38.72660
X27.52519 Y38.37100
X27.57599 Y38.21860
X27.80459 Y37.93920
X27.90619 Y37.91380
X27.98239 Y37.83760
X28.21099 Y37.78680
X28.84599 Y37.78680
X29.07459 Y37.83760
X29.15079 Y37.91380
X29.25239 Y37.93920
X29.48099 Y38.21860
X29.53179 Y38.37100
X29.53179 Y40.02200
X29.48099 Y40.17440
X29.25239 Y40.45380
X29.15079 Y40.47920
X29.07459 Y40.55540
X28.84599 Y40.60620
X28.21099 Y40.60620
X27.98239 Y40.55540
X27.90619 Y40.47920
X27.80459 Y40.45380
X27.57599 Y40.17440
X27.52519 Y40.02200
X27.52519 Y39.66640
X26.99179 Y39.66640
X26.99179 Y40.02200
X26.94099 Y40.17440
X26.71239 Y40.45380
X26.45839 Y40.58080
X25.51859 Y40.58080
X25.26459 Y40.45380
X25.03599 Y40.17440
X24.98519 Y40.02200
X24.98519 Y38.37100
X25.03599 Y38.21860
X25.21379 Y37.99000
X25.44239 Y37.83760
X25.51859 Y37.83760
X25.51859 Y31.51300
X24.52799 Y31.51300
X24.52799 Y30.52240
X21.73399 Y30.52240
X17.92399 Y34.33240
X17.97479 Y34.40860
X18.05099 Y34.76420
X18.05099 Y35.50080
X17.94939 Y35.93260
X17.84779 Y36.05960
X17.79699 Y36.21200
X17.66999 Y36.31360
X17.66999 Y36.36440
X17.56839 Y36.46600
X17.51759 Y36.46600
X17.41599 Y36.59300
X17.26359 Y36.64380
X17.23819 Y36.69460
X16.88259 Y36.82160
X15.99359 Y36.84700
X15.79039 Y36.82160
X15.43479 Y36.69460
X15.40939 Y36.64380
X15.25699 Y36.59300
X15.15539 Y36.46600
X15.10459 Y36.46600
X15.00299 Y36.36440
X15.00299 Y36.31360
X14.87599 Y36.21200
X14.82519 Y36.05960
X14.72359 Y35.93260
X14.64739 Y35.60240
X9.38959 Y35.60240
X9.31339 Y35.93260
X9.21179 Y36.05960
X9.16099 Y36.21200
X9.03399 Y36.31360
X9.03399 Y36.36440
X8.93239 Y36.46600
X8.88159 Y36.46600
X8.77999 Y36.59300
X8.62759 Y36.64380
X8.60219 Y36.69460
X8.24659 Y36.82160
X8.04339 Y36.84700
X7.15439 Y36.82160
X7.00199 Y36.74540
X6.90039 Y36.74540
X6.77339 Y36.64380
X6.62099 Y36.59300
X6.51939 Y36.46600
X6.46859 Y36.46600
X6.36699 Y36.36440
X6.36699 Y36.31360
X6.23999 Y36.21200
X6.18919 Y36.05960
X6.13839 Y36.03420
X6.01139 Y35.67860
X5.98599 Y35.47540
X6.01139 Y34.58640
G04 P0 ( dwell for no time -- G64 should not smooth over this point )
G00 Z3.00000 ( retract )

G00 X6.11299 Y34.68800 ( rapid move to begin. )
F254.00000
G01 Z-0.10000
G04 P0 ( dwell for no time -- G64 should not smooth over this point )
F500.00000
X6.11299 Y34.68800
X6.18919 Y34.53560
X6.18919 Y34.43400
X6.29079 Y34.30700
X6.34159 Y34.15460
X6.72259 Y33.77360
X6.87499 Y33.72280
X7.00199 Y33.62120
X7.10359 Y33.62120
X7.25599 Y33.54500
X7.96719 Y33.51960
X8.39899 Y33.62120
X8.52599 Y33.72280
X8.67839 Y33.77360
X8.77999 Y33.90060
X8.83079 Y33.90060
X8.93239 Y34.00220
X8.93239 Y34.05300
X9.05939 Y34.15460
X9.11019 Y34.30700
X9.16099 Y34.33240
X9.28799 Y34.76420
X14.74899 Y34.76420
X14.82519 Y34.43400
X14.92679 Y34.30700
X14.97759 Y34.15460
X15.35859 Y33.77360
X15.51099 Y33.72280
X15.63799 Y33.62120
X16.06979 Y33.51960
X16.60319 Y33.51960
X17.03499 Y33.62120
X17.16199 Y33.72280
X21.12439 Y29.73500
X21.22599 Y29.68420
X24.62959 Y29.68420
X24.62959 Y28.69360
X27.34739 Y28.69360
X27.34739 Y31.41140
X26.35679 Y31.41140
X26.35679 Y37.93920
X26.43299 Y37.93920
X26.50919 Y38.01540
X26.61079 Y38.04080
X26.83939 Y38.32020
X26.89019 Y38.47260
X26.89019 Y38.82820
X27.62679 Y38.82820
X27.62679 Y38.47260
X27.67759 Y38.32020
X27.90619 Y38.04080
X28.00779 Y38.01540
X28.08399 Y37.93920
X28.31259 Y37.88840
X28.74439 Y37.88840
X28.97299 Y37.93920
X29.04919 Y38.01540
X29.15079 Y38.04080
X29.37939 Y38.32020
X29.43019 Y38.47260
X29.43019 Y39.92040
X29.37939 Y40.07280
X29.15079 Y40.35220
X29.04919 Y40.37760
X28.97299 Y40.45380
X28.74439 Y40.50460
X28.16019 Y40.47920
X27.90619 Y40.35220
X27.67759 Y40.07280
X27.62679 Y39.92040
X27.62679 Y39.56480
X26.89019 Y39.56480
X26.89019 Y39.92040
X26.83939 Y40.07280
X26.61079 Y40.35220
X26.35679 Y40.47920
X25.62019 Y40.47920
X25.36619 Y40.35220
X25.13759 Y40.07280
X25.08679 Y39.92040
X25.08679 Y38.47260
X25.13759 Y38.32020
X25.28999 Y38.11700
X25.36619 Y38.04080
X25.46779 Y38.01540
X25.49319 Y37.96460
X25.62019 Y37.93920
X25.62019 Y31.41140
X24.62959 Y31.41140
X24.62959 Y30.42080
X21.63239 Y30.42080
X17.74619 Y34.30700
X17.84779 Y34.43400
X17.94939 Y34.86580
X17.94939 Y35.39920
X17.84779 Y35.83100
X17.74619 Y35.95800
X17.69539 Y36.11040
X17.56839 Y36.21200
X17.56839 Y36.26280
X17.46679 Y36.36440
X17.41599 Y36.36440
X17.31439 Y36.49140
X17.16199 Y36.54220
X17.13659 Y36.59300
X16.78099 Y36.72000
X15.89199 Y36.72000
X15.73959 Y36.64380
X15.63799 Y36.64380
X15.51099 Y36.54220
X15.35859 Y36.49140
X14.97759 Y36.11040
X14.92679 Y35.95800
X14.82519 Y35.83100
X14.74899 Y35.50080
X9.28799 Y35.50080
X9.21179 Y35.83100
X9.11019 Y35.95800
X9.05939 Y36.11040
X8.67839 Y36.49140
X8.52599 Y36.54220
X8.39899 Y36.64380
X8.29739 Y36.64380
X8.14499 Y36.72000
X7.25599 Y36.72000
X7.10359 Y36.64380
X7.00199 Y36.64380
X6.87499 Y36.54220
X6.72259 Y36.49140
X6.62099 Y36.36440
X6.57019 Y36.36440
X6.46859 Y36.26280
X6.46859 Y36.21200
X6.34159 Y36.11040
X6.29079 Y35.95800
X6.23999 Y35.93260
X6.11299 Y35.57700
X6.08759 Y35.37380
X6.11299 Y34.68800
G04 P0 ( dwell for no time -- G64 should not smooth over this point )
G00 Z3.00000 ( retract )

G00 X19.85439 Y24.12160 ( rapid move to begin. )
F254.00000
G01 Z-0.10000
G04 P0 ( dwell for no time -- G64 should not smooth over this point )
F500.00000
X19.85439 Y24.12160
X20.23539 Y24.50260
X20.28619 Y24.65500
X20.38779 Y24.78200
X20.41319 Y24.95980
X20.46399 Y25.03600
X20.48939 Y25.74720
X20.38779 Y26.17900
X20.28619 Y26.30600
X20.23539 Y26.45840
X19.85439 Y26.83940
X19.70199 Y26.89020
X19.57499 Y26.99180
X19.24479 Y27.06800
X19.24479 Y27.16960
X19.16859 Y27.32200
X17.23819 Y29.22700
X17.33979 Y29.35400
X17.36519 Y29.53180
X17.41599 Y29.60800
X17.44139 Y30.31920
X17.33979 Y30.75100
X17.23819 Y30.87800
X17.18739 Y31.03040
X16.80639 Y31.41140
X16.65399 Y31.46220
X16.52699 Y31.56380
X16.42539 Y31.56380
X16.27299 Y31.64000
X16.06979 Y31.66540
X15.38399 Y31.64000
X15.23159 Y31.56380
X15.12999 Y31.56380
X15.00299 Y31.46220
X14.85059 Y31.41140
X14.46959 Y31.03040
X14.41879 Y30.87800
X14.31719 Y30.75100
X14.31719 Y30.64940
X14.24099 Y30.49700
X14.21559 Y30.29380
X14.24099 Y29.60800
X14.31719 Y29.45560
X14.31719 Y29.35400
X14.41879 Y29.22700
X14.46959 Y29.07460
X14.85059 Y28.69360
X15.00299 Y28.64280
X15.12999 Y28.54120
X15.23159 Y28.54120
X15.38399 Y28.46500
X16.09519 Y28.43960
X16.52699 Y28.54120
X16.65399 Y28.64280
X18.27959 Y27.01720
X18.07639 Y26.94100
X18.05099 Y26.89020
X17.89859 Y26.83940
X17.79699 Y26.71240
X17.74619 Y26.71240
X17.64459 Y26.61080
X17.64459 Y26.56000
X17.51759 Y26.45840
X17.46679 Y26.30600
X17.36519 Y26.17900
X17.26359 Y25.72180
X17.26359 Y25.23920
X17.36519 Y24.78200
X17.46679 Y24.65500
X17.51759 Y24.50260
X17.89859 Y24.12160
X18.05099 Y24.07080
X18.17799 Y23.96920
X18.27959 Y23.96920
X18.43199 Y23.89300
X18.60979 Y23.86760
X19.32099 Y23.89300
X19.39719 Y23.94380
X19.57499 Y23.96920
X19.70199 Y24.07080
X19.85439 Y24.12160
G04 P0 ( dwell for no time -- G64 should not smooth over this point )
G00 Z3.00000 ( retract )

G00 X19.95599 Y24.02000 ( rapid move to begin. )
F254.00000
G01 Z-0.10000
G04 P0 ( dwell for no time -- G64 should not smooth over this point )
F500.00000
X19.95599 Y24.02000
X20.33699 Y24.40100
X20.38779 Y24.55340
X20.48939 Y24.68040
X20.51479 Y24.85820
X20.56559 Y24.93440
X20.59099 Y25.84880
X20.48939 Y26.28060
X20.38779 Y26.40760
X20.33699 Y26.56000
X19.95599 Y26.94100
X19.80359 Y26.99180
X19.67659 Y27.09340
X19.34639 Y27.16960
X19.34639 Y27.27120
X19.27019 Y27.42360
X17.41599 Y29.25240
X17.46679 Y29.32860
X17.54299 Y29.68420
X17.54299 Y30.42080
X17.44139 Y30.85260
X17.33979 Y30.97960
X17.28899 Y31.13200
X16.90799 Y31.51300
X16.75559 Y31.56380
X16.62859 Y31.66540
X16.52699 Y31.66540
X16.37459 Y31.74160
X16.17139 Y31.76700
X15.28239 Y31.74160
X15.12999 Y31.66540
X15.02839 Y31.66540
X14.90139 Y31.56380
X14.74899 Y31.51300
X14.36799 Y31.13200
X14.31719 Y30.97960
X14.21559 Y30.85260
X14.21559 Y30.75100
X14.13939 Y30.59860
X14.13939 Y29.50640
X14.21559 Y29.35400
X14.21559 Y29.25240
X14.31719 Y29.12540
X14.36799 Y28.97300
X14.74899 Y28.59200
X14.90139 Y28.54120
X15.02839 Y28.43960
X15.12999 Y28.43960
X15.28239 Y28.36340
X16.19679 Y28.33800
X16.55239 Y28.41420
X16.62859 Y28.46500
X18.02559 Y27.06800
X17.94939 Y26.99180
X17.79699 Y26.94100
X17.69539 Y26.81400
X17.64459 Y26.81400
X17.54299 Y26.71240
X17.54299 Y26.66160
X17.41599 Y26.56000
X17.36519 Y26.40760
X17.26359 Y26.28060
X17.26359 Y26.17900
X17.18739 Y26.02660
X17.18739 Y24.93440
X17.26359 Y24.78200
X17.26359 Y24.68040
X17.36519 Y24.55340
X17.41599 Y24.40100
X17.79699 Y24.02000
X17.94939 Y23.96920
X18.07639 Y23.86760
X18.17799 Y23.86760
X18.33039 Y23.79140
X19.24479 Y23.76600
X19.67659 Y23.86760
X19.80359 Y23.96920
X19.95599 Y24.02000
G04 P0 ( dwell for no time -- G64 should not smooth over this point )
G00 Z3.00000 ( retract )

G00 X23.99459 Y32.93540 ( rapid move to begin. )
F254.00000
G01 Z-0.10000
G04 P0 ( dwell for no time -- G64 should not smooth over this point )
F500.00000
X23.99459 Y32.93540
X24.07079 Y32.98620
X24.24859 Y33.01160
X24.37559 Y33.11320
X24.52799 Y33.16400
X24.62959 Y33.29100
X24.68039 Y33.29100
X24.78199 Y33.39260
X24.78199 Y33.44340
X24.90899 Y33.54500
X24.95979 Y33.69740
X25.01059 Y33.72280
X25.16299 Y34.25620
X25.16299 Y34.99280
X25.06139 Y35.42460
X24.95979 Y35.55160
X24.90899 Y35.70400
X24.78199 Y35.80560
X24.78199 Y35.85640
X24.68039 Y35.95800
X24.62959 Y35.95800
X24.52799 Y36.08500
X24.37559 Y36.13580
X24.35019 Y36.18660
X23.91839 Y36.31360
X23.91839 Y37.83760
X23.99459 Y37.83760
X24.07079 Y37.91380
X24.17239 Y37.93920
X24.40099 Y38.21860
X24.45179 Y38.37100
X24.45179 Y40.02200
X24.40099 Y40.17440
X24.17239 Y40.45380
X24.07079 Y40.47920
X23.99459 Y40.55540
X23.76599 Y40.60620
X23.13099 Y40.60620
X22.90239 Y40.55540
X22.82619 Y40.47920
X22.72459 Y40.45380
X22.49599 Y40.17440
X22.44519 Y40.02200
X22.44519 Y38.37100
X22.49599 Y38.21860
X22.72459 Y37.93920
X22.82619 Y37.91380
X22.90239 Y37.83760
X22.97859 Y37.83760
X22.97859 Y36.31360
X22.64839 Y36.23740
X22.52139 Y36.13580
X22.36899 Y36.08500
X21.98799 Y35.70400
X21.93719 Y35.55160
X21.83559 Y35.42460
X21.83559 Y35.32300
X21.75939 Y35.17060
X21.73399 Y34.28160
X21.75939 Y34.07840
X21.88639 Y33.72280
X21.93719 Y33.69740
X21.98799 Y33.54500
X22.11499 Y33.44340
X22.11499 Y33.39260
X22.21659 Y33.29100
X22.26739 Y33.29100
X22.36899 Y33.16400
X22.52139 Y33.11320
X22.64839 Y33.01160
X23.08019 Y32.91000
X23.99459 Y32.93540
G04 P0 ( dwell for no time -- G64 should not smooth over this point )
G00 Z3.00000 ( retract )

G00 X23.71519 Y33.01160 ( rapid move to begin. )
F254.00000
G01 Z-0.10000
G04 P0 ( dwell for no time -- G64 should not smooth over this point )
F500.00000
X23.71519 Y33.01160
X24.14699 Y33.11320
X24.27399 Y33.21480
X24.42639 Y33.26560
X24.80739 Y33.64660
X24.85819 Y33.79900
X24.95979 Y33.92600
X24.98519 Y34.10380
X25.03599 Y34.18000
X25.06139 Y34.89120
X24.95979 Y35.32300
X24.85819 Y35.45000
X24.80739 Y35.60240
X24.68039 Y35.70400
X24.68039 Y35.75480
X24.57879 Y35.85640
X24.52799 Y35.85640
X24.42639 Y35.98340
X24.27399 Y36.03420
X24.24859 Y36.08500
X23.81679 Y36.21200
X23.81679 Y37.93920
X23.89299 Y37.93920
X24.12159 Y38.09160
X24.29939 Y38.32020
X24.35019 Y38.47260
X24.35019 Y39.92040
X24.29939 Y40.07280
X24.17239 Y40.19980
X24.17239 Y40.25060
X23.94379 Y40.42840
X23.66439 Y40.50460
X23.23259 Y40.50460
X23.00399 Y40.45380
X22.92779 Y40.37760
X22.82619 Y40.35220
X22.59759 Y40.07280
X22.54679 Y39.92040
X22.54679 Y38.47260
X22.59759 Y38.32020
X22.72459 Y38.19320
X22.72459 Y38.14240
X22.95319 Y37.96460
X23.08019 Y37.93920
X23.08019 Y36.21200
X22.74999 Y36.13580
X22.62299 Y36.03420
X22.47059 Y35.98340
X22.08959 Y35.60240
X22.03879 Y35.45000
X21.93719 Y35.32300
X21.93719 Y35.22140
X21.86099 Y35.06900
X21.83559 Y34.38320
X21.86099 Y34.18000
X21.98799 Y33.82440
X22.03879 Y33.79900
X22.08959 Y33.64660
X22.21659 Y33.54500
X22.21659 Y33.49420
X22.31819 Y33.39260
X22.36899 Y33.39260
X22.47059 Y33.26560
X22.62299 Y33.21480
X22.74999 Y33.11320
X22.85159 Y33.11320
X23.00399 Y33.03700
X23.71519 Y33.01160
G04 P0 ( dwell for no time -- G64 should not smooth over this point )
G00 Z3.00000 ( retract )

G00 X31.84319 Y23.86760 ( rapid move to begin. )
F254.00000
G01 Z-0.10000
G04 P0 ( dwell for no time -- G64 should not smooth over this point )
F500.00000
X31.84319 Y23.86760
X32.27499 Y23.96920
X32.40199 Y24.07080
X32.55439 Y24.12160
X32.93539 Y24.50260
X32.98619 Y24.65500
X33.08779 Y24.78200
X33.11319 Y24.95980
X33.16399 Y25.03600
X33.18939 Y25.74720
X33.08779 Y26.17900
X32.98619 Y26.30600
X32.93539 Y26.45840
X32.55439 Y26.83940
X32.40199 Y26.89020
X32.27499 Y26.99180
X32.17339 Y26.99180
X32.02099 Y27.06800
X31.43679 Y27.09340
X31.43679 Y37.93920
X31.51299 Y37.93920
X31.58919 Y38.01540
X31.69079 Y38.04080
X31.91939 Y38.32020
X31.97019 Y38.47260
X31.97019 Y39.92040
X31.91939 Y40.07280
X31.79239 Y40.19980
X31.79239 Y40.25060
X31.56379 Y40.42840
X31.28439 Y40.50460
X30.85259 Y40.50460
X30.62399 Y40.45380
X30.54779 Y40.37760
X30.44619 Y40.35220
X30.21759 Y40.07280
X30.16679 Y39.92040
X30.16679 Y38.47260
X30.21759 Y38.32020
X30.34459 Y38.19320
X30.34459 Y38.14240
X30.57319 Y37.96460
X30.70019 Y37.93920
X30.70019 Y26.86480
X30.59859 Y26.83940
X30.49699 Y26.71240
X30.44619 Y26.71240
X30.34459 Y26.61080
X30.34459 Y26.56000
X30.21759 Y26.45840
X30.16679 Y26.30600
X30.06519 Y26.17900
X29.96359 Y25.72180
X29.96359 Y25.23920
X29.98899 Y25.03600
X30.11599 Y24.68040
X30.16679 Y24.65500
X30.21759 Y24.50260
X30.34459 Y24.40100
X30.34459 Y24.35020
X30.44619 Y24.24860
X30.49699 Y24.24860
X30.59859 Y24.12160
X30.75099 Y24.07080
X30.87799 Y23.96920
X30.97959 Y23.96920
X31.13199 Y23.89300
X31.84319 Y23.86760
G04 P0 ( dwell for no time -- G64 should not smooth over this point )
G00 Z3.00000 ( retract )

G00 X31.94479 Y23.76600 ( rapid move to begin. )
F254.00000
G01 Z-0.10000
G04 P0 ( dwell for no time -- G64 should not smooth over this point )
F500.00000
X31.94479 Y23.76600
X32.37659 Y23.86760
X32.50359 Y23.96920
X32.65599 Y24.02000
X33.03699 Y24.40100
X33.08779 Y24.55340
X33.18939 Y24.68040
X33.21479 Y24.85820
X33.26559 Y24.93440
X33.29099 Y25.84880
X33.18939 Y26.28060
X33.08779 Y26.40760
X33.03699 Y26.56000
X32.65599 Y26.94100
X32.50359 Y26.99180
X32.37659 Y27.09340
X32.27499 Y27.09340
X32.12259 Y27.16960
X31.53839 Y27.19500
X31.53839 Y37.83760
X31.61459 Y37.83760
X31.81779 Y37.96460
X32.02099 Y38.21860
X32.07179 Y38.37100
X32.07179 Y40.02200
X32.02099 Y40.17440
X31.89399 Y40.30140
X31.89399 Y40.35220
X31.61459 Y40.55540
X31.38599 Y40.60620
X30.75099 Y40.60620
X30.52239 Y40.55540
X30.44619 Y40.47920
X30.34459 Y40.45380
X30.11599 Y40.17440
X30.06519 Y40.02200
X30.06519 Y38.37100
X30.11599 Y38.21860
X30.29379 Y37.99000
X30.52239 Y37.83760
X30.59859 Y37.83760
X30.59859 Y26.96640
X30.49699 Y26.94100
X30.39539 Y26.81400
X30.34459 Y26.81400
X30.24299 Y26.71240
X30.24299 Y26.66160
X30.11599 Y26.56000
X30.06519 Y26.40760
X29.96359 Y26.28060
X29.86199 Y25.82340
X29.86199 Y25.13760
X29.88739 Y24.93440
X30.01439 Y24.57880
X30.06519 Y24.55340
X30.11599 Y24.40100
X30.24299 Y24.29940
X30.24299 Y24.24860
X30.34459 Y24.14700
X30.39539 Y24.14700
X30.49699 Y24.02000
X30.64939 Y23.96920
X30.77639 Y23.86760
X30.87799 Y23.86760
X31.03039 Y23.79140
X31.94479 Y23.76600
G04 P0 ( dwell for no time -- G64 should not smooth over this point )
G00 Z3.00000 ( retract )

G00 X41.52059 Y35.55160 ( rapid move to begin. )
F254.00000
G01 Z-0.10000
G04 P0 ( dwell for no time -- G64 should not smooth over this point )
F500.00000
X41.52059 Y35.55160
X41.64759 Y35.65320
X41.79999 Y35.70400
X41.90159 Y35.83100
X41.95239 Y35.83100
X42.05399 Y35.93260
X42.05399 Y35.98340
X42.18099 Y36.08500
X42.23179 Y36.23740
X42.33339 Y36.36440
X42.43499 Y36.79620
X42.43499 Y37.53280
X42.33339 Y37.96460
X42.23179 Y38.09160
X42.18099 Y38.24400
X42.05399 Y38.34560
X42.05399 Y38.39640
X41.95239 Y38.49800
X41.90159 Y38.49800
X41.79999 Y38.62500
X41.64759 Y38.67580
X41.62219 Y38.72660
X41.19039 Y38.85360
X41.19039 Y46.06720
X41.11419 Y46.21960
X40.09819 Y47.23560
X39.99659 Y47.28640
X37.15179 Y47.28640
X37.15179 Y47.64200
X37.10099 Y47.79440
X36.87239 Y48.07380
X36.61839 Y48.20080
X35.83099 Y48.22620
X35.60239 Y48.17540
X35.52619 Y48.09920
X35.42459 Y48.07380
X35.19599 Y47.79440
X35.14519 Y47.64200
X35.14519 Y47.28640
X34.61179 Y47.28640
X34.61179 Y47.64200
X34.51019 Y47.87060
X34.33239 Y48.07380
X34.23079 Y48.09920
X34.15459 Y48.17540
X33.92599 Y48.22620
X33.29099 Y48.22620
X33.06239 Y48.17540
X32.98619 Y48.09920
X32.88459 Y48.07380
X32.65599 Y47.79440
X32.60519 Y47.64200
X32.60519 Y47.28640
X32.07179 Y47.28640
X32.07179 Y47.64200
X32.02099 Y47.79440
X31.79239 Y48.07380
X31.69079 Y48.09920
X31.61459 Y48.17540
X31.38599 Y48.22620
X30.75099 Y48.22620
X30.52239 Y48.17540
X30.44619 Y48.09920
X30.34459 Y48.07380
X30.11599 Y47.79440
X30.06519 Y47.64200
X30.06519 Y45.99100
X30.11599 Y45.83860
X30.24299 Y45.71160
X30.24299 Y45.66080
X30.34459 Y45.55920
X30.59859 Y45.43220
X31.38599 Y45.40680
X31.61459 Y45.45760
X31.69079 Y45.53380
X31.79239 Y45.55920
X32.02099 Y45.83860
X32.07179 Y45.99100
X32.07179 Y46.34660
X32.60519 Y46.34660
X32.60519 Y45.99100
X32.70679 Y45.76240
X32.88459 Y45.55920
X32.98619 Y45.53380
X33.06239 Y45.45760
X33.29099 Y45.40680
X33.92599 Y45.40680
X34.15459 Y45.45760
X34.23079 Y45.53380
X34.33239 Y45.55920
X34.56099 Y45.83860
X34.61179 Y45.99100
X34.61179 Y46.34660
X35.14519 Y46.34660
X35.14519 Y45.99100
X35.24679 Y45.76240
X35.42459 Y45.55920
X35.52619 Y45.53380
X35.60239 Y45.45760
X35.83099 Y45.40680
X36.46599 Y45.40680
X36.69459 Y45.45760
X36.77079 Y45.53380
X36.87239 Y45.55920
X37.10099 Y45.83860
X37.15179 Y45.99100
X37.15179 Y46.34660
X39.38699 Y46.34660
X40.25059 Y45.48300
X40.25059 Y38.85360
X39.92039 Y38.77740
X39.79339 Y38.67580
X39.64099 Y38.62500
X39.53939 Y38.49800
X39.48859 Y38.49800
X39.38699 Y38.39640
X39.38699 Y38.34560
X39.25999 Y38.24400
X39.20919 Y38.09160
X39.15839 Y38.06620
X39.03139 Y37.71060
X39.00599 Y37.50740
X39.03139 Y36.61840
X39.15839 Y36.26280
X39.20919 Y36.23740
X39.25999 Y36.08500
X39.38699 Y35.98340
X39.38699 Y35.93260
X39.48859 Y35.83100
X39.53939 Y35.83100
X39.64099 Y35.70400
X39.79339 Y35.65320
X39.92039 Y35.55160
X40.35219 Y35.45000
X41.08879 Y35.45000
X41.52059 Y35.55160
G04 P0 ( dwell for no time -- G64 should not smooth over this point )
G00 Z3.00000 ( retract )

G00 X41.41899 Y35.65320 ( rapid move to begin. )
F254.00000
G01 Z-0.10000
G04 P0 ( dwell for no time -- G64 should not smooth over this point )
F500.00000
X41.41899 Y35.65320
X41.54599 Y35.75480
X41.69839 Y35.80560
X41.79999 Y35.93260
X41.85079 Y35.93260
X41.95239 Y36.03420
X41.95239 Y36.08500
X42.07939 Y36.18660
X42.13019 Y36.33900
X42.18099 Y36.36440
X42.30799 Y36.72000
X42.33339 Y37.43120
X42.23179 Y37.86300
X42.13019 Y37.99000
X42.07939 Y38.14240
X41.95239 Y38.24400
X41.95239 Y38.29480
X41.85079 Y38.39640
X41.79999 Y38.39640
X41.69839 Y38.52340
X41.54599 Y38.57420
X41.52059 Y38.62500
X41.08879 Y38.75200
X41.08879 Y45.96560
X41.01259 Y46.11800
X39.99659 Y47.13400
X39.89499 Y47.18480
X37.05019 Y47.18480
X37.05019 Y47.54040
X36.99939 Y47.69280
X36.77079 Y47.97220
X36.51679 Y48.09920
X35.93259 Y48.12460
X35.70399 Y48.07380
X35.62779 Y47.99760
X35.52619 Y47.97220
X35.29759 Y47.69280
X35.24679 Y47.54040
X35.24679 Y47.18480
X34.51019 Y47.18480
X34.51019 Y47.54040
X34.40859 Y47.76900
X34.23079 Y47.97220
X34.12919 Y47.99760
X34.05299 Y48.07380
X33.82439 Y48.12460
X33.24019 Y48.09920
X32.98619 Y47.97220
X32.75759 Y47.69280
X32.70679 Y47.54040
X32.70679 Y47.18480
X31.97019 Y47.18480
X31.97019 Y47.54040
X31.91939 Y47.69280
X31.69079 Y47.97220
X31.58919 Y47.99760
X31.51299 Y48.07380
X31.28439 Y48.12460
X30.85259 Y48.12460
X30.62399 Y48.07380
X30.54779 Y47.99760
X30.44619 Y47.97220
X30.21759 Y47.69280
X30.16679 Y47.54040
X30.16679 Y46.09260
X30.21759 Y45.94020
X30.34459 Y45.81320
X30.34459 Y45.76240
X30.44619 Y45.66080
X30.70019 Y45.53380
X31.28439 Y45.50840
X31.51299 Y45.55920
X31.58919 Y45.63540
X31.69079 Y45.66080
X31.91939 Y45.94020
X31.97019 Y46.09260
X31.97019 Y46.44820
X32.70679 Y46.44820
X32.70679 Y46.09260
X32.80839 Y45.86400
X32.98619 Y45.66080
X33.08779 Y45.63540
X33.16399 Y45.55920
X33.39259 Y45.50840
X33.97679 Y45.53380
X34.23079 Y45.66080
X34.45939 Y45.94020
X34.51019 Y46.09260
X34.51019 Y46.44820
X35.24679 Y46.44820
X35.24679 Y46.09260
X35.34839 Y45.86400
X35.52619 Y45.66080
X35.62779 Y45.63540
X35.70399 Y45.55920
X35.93259 Y45.50840
X36.51679 Y45.53380
X36.77079 Y45.66080
X36.99939 Y45.94020
X37.05019 Y46.09260
X37.05019 Y46.44820
X39.48859 Y46.44820
X40.35219 Y45.58460
X40.35219 Y38.75200
X40.02199 Y38.67580
X39.89499 Y38.57420
X39.74259 Y38.52340
X39.36159 Y38.14240
X39.31079 Y37.99000
X39.20919 Y37.86300
X39.20919 Y37.76140
X39.13299 Y37.60900
X39.10759 Y36.92320
X39.20919 Y36.46600
X39.31079 Y36.33900
X39.36159 Y36.18660
X39.48859 Y36.08500
X39.48859 Y36.03420
X39.59019 Y35.93260
X39.64099 Y35.93260
X39.74259 Y35.80560
X39.89499 Y35.75480
X39.92039 Y35.70400
X40.45379 Y35.55160
X40.98719 Y35.55160
X41.41899 Y35.65320
G04 P0 ( dwell for no time -- G64 should not smooth over this point )
G00 Z3.00000 ( retract )

G00 X50.63919 Y29.93820 ( rapid move to begin. )
F254.00000
G01 Z-0.10000
G04 P0 ( dwell for no time -- G64 should not smooth over this point )
F500.00000
X50.63919 Y29.93820
X50.71539 Y30.26840
X50.68999 Y31.00500
X50.53759 Y31.38600
X50.28359 Y31.66540
X50.23279 Y31.66540
X50.02959 Y31.81780
X49.69939 Y31.91940
X49.01359 Y31.91940
X48.68339 Y31.81780
X45.58459 Y34.94200
X45.48299 Y34.99280
X37.73599 Y34.99280
X37.60899 Y35.42460
X37.55819 Y35.45000
X37.50739 Y35.60240
X37.38039 Y35.70400
X37.38039 Y35.75480
X37.27879 Y35.85640
X37.22799 Y35.85640
X37.12639 Y35.98340
X36.97399 Y36.03420
X36.84699 Y36.13580
X36.38979 Y36.23740
X35.70399 Y36.21200
X35.34839 Y36.08500
X35.32299 Y36.03420
X35.17059 Y35.98340
X35.06899 Y35.85640
X35.01819 Y35.85640
X34.91659 Y35.75480
X34.91659 Y35.70400
X34.78959 Y35.60240
X34.73879 Y35.45000
X34.63719 Y35.32300
X34.53559 Y34.86580
X34.53559 Y34.38320
X34.56099 Y34.18000
X34.68799 Y33.82440
X34.73879 Y33.79900
X34.78959 Y33.64660
X34.91659 Y33.54500
X34.91659 Y33.49420
X35.01819 Y33.39260
X35.06899 Y33.39260
X35.17059 Y33.26560
X35.32299 Y33.21480
X35.44999 Y33.11320
X35.88179 Y33.01160
X36.59299 Y33.03700
X36.66919 Y33.08780
X36.84699 Y33.11320
X36.97399 Y33.21480
X37.12639 Y33.26560
X37.50739 Y33.64660
X37.55819 Y33.79900
X37.65979 Y33.92600
X37.73599 Y34.25620
X45.07659 Y34.25620
X48.09919 Y31.23360
X47.99759 Y30.85260
X48.02299 Y30.11600
X48.17539 Y29.73500
X48.42939 Y29.45560
X48.48019 Y29.45560
X48.68339 Y29.30320
X49.03899 Y29.20160
X49.80099 Y29.22700
X50.02959 Y29.30320
X50.23279 Y29.45560
X50.28359 Y29.45560
X50.48679 Y29.65880
X50.63919 Y29.93820
G04 P0 ( dwell for no time -- G64 should not smooth over this point )
G00 Z3.00000 ( retract )

G00 X50.74079 Y29.83660 ( rapid move to begin. )
F254.00000
G01 Z-0.10000
G04 P0 ( dwell for no time -- G64 should not smooth over this point )
F500.00000
X50.74079 Y29.83660
X50.81699 Y30.16680
X50.81699 Y30.95420
X50.74079 Y31.28440
X50.58839 Y31.56380
X50.23279 Y31.86860
X49.80099 Y32.02100
X48.91199 Y32.02100
X48.73419 Y31.97020
X45.68619 Y35.04360
X45.58459 Y35.09440
X37.83759 Y35.09440
X37.71059 Y35.52620
X37.65979 Y35.55160
X37.60899 Y35.70400
X37.48199 Y35.80560
X37.48199 Y35.85640
X37.38039 Y35.95800
X37.32959 Y35.95800
X37.22799 Y36.08500
X37.07559 Y36.13580
X36.94859 Y36.23740
X36.49139 Y36.33900
X35.80559 Y36.33900
X35.34839 Y36.23740
X35.22139 Y36.13580
X35.06899 Y36.08500
X34.96739 Y35.95800
X34.91659 Y35.95800
X34.81499 Y35.85640
X34.81499 Y35.80560
X34.68799 Y35.70400
X34.63719 Y35.55160
X34.53559 Y35.42460
X34.43399 Y34.96740
X34.43399 Y34.28160
X34.53559 Y33.82440
X34.63719 Y33.69740
X34.68799 Y33.54500
X35.06899 Y33.16400
X35.22139 Y33.11320
X35.34839 Y33.01160
X35.78019 Y32.91000
X36.69459 Y32.93540
X36.77079 Y32.98620
X36.94859 Y33.01160
X37.07559 Y33.11320
X37.22799 Y33.16400
X37.60899 Y33.54500
X37.65979 Y33.69740
X37.76139 Y33.82440
X37.83759 Y34.15460
X44.97499 Y34.15460
X47.94679 Y31.18280
X47.89599 Y30.95420
X47.92139 Y30.01440
X48.07379 Y29.63340
X48.32779 Y29.35400
X48.37859 Y29.35400
X48.40399 Y29.30320
X48.58179 Y29.20160
X48.93739 Y29.10000
X49.77559 Y29.10000
X50.13119 Y29.20160
X50.33439 Y29.35400
X50.38519 Y29.35400
X50.58839 Y29.55720
X50.74079 Y29.83660
G04 P0 ( dwell for no time -- G64 should not smooth over this point )
G00 Z3.00000 ( retract )

G00 X50.63919 Y26.68700 ( rapid move to begin. )
F254.00000
G01 Z-0.10000
G04 P0 ( dwell for no time -- G64 should not smooth over this point )
F500.00000
X50.63919 Y26.68700
X50.68999 Y26.68700
X50.79159 Y26.58540
X50.91859 Y26.58540
X51.02019 Y26.53460
X52.77279 Y26.53460
X53.07759 Y26.61080
X53.30619 Y26.83940
X53.38239 Y27.14420
X53.38239 Y28.89680
X53.33159 Y28.99840
X53.33159 Y29.12540
X53.25539 Y29.17620
X53.25539 Y29.22700
X53.07759 Y29.40480
X52.87439 Y29.45560
X54.52539 Y31.10660
X55.51599 Y31.10660
X55.51599 Y30.92880
X55.59219 Y30.59860
X55.66839 Y30.44620
X55.71919 Y30.42080
X55.74459 Y30.31920
X56.02399 Y30.06520
X56.35419 Y29.91280
X56.58279 Y29.86200
X57.37019 Y29.86200
X57.67499 Y29.93820
X58.03059 Y30.14140
X58.28459 Y30.44620
X58.38619 Y30.67480
X58.43699 Y30.92880
X58.43699 Y32.22420
X58.36079 Y32.55440
X58.28459 Y32.70680
X58.23379 Y32.73220
X58.20839 Y32.83380
X57.92899 Y33.08780
X57.59879 Y33.24020
X57.37019 Y33.29100
X56.58279 Y33.29100
X56.10019 Y33.13860
X55.74459 Y32.83380
X55.71919 Y32.73220
X55.66839 Y32.70680
X55.59219 Y32.55440
X55.51599 Y32.22420
X55.51599 Y32.04640
X53.91579 Y32.04640
X53.81419 Y31.99560
X51.50279 Y29.68420
X51.42659 Y29.48100
X50.86779 Y29.45560
X50.63919 Y29.32860
X50.58839 Y29.22700
X50.51219 Y29.17620
X50.43599 Y28.94760
X50.43599 Y27.09340
X50.51219 Y26.83940
X50.63919 Y26.68700
G04 P0 ( dwell for no time -- G64 should not smooth over this point )
G00 Z3.00000 ( retract )

G00 X50.74079 Y26.78860 ( rapid move to begin. )
F254.00000
G01 Z-0.10000
G04 P0 ( dwell for no time -- G64 should not smooth over this point )
F500.00000
X50.74079 Y26.78860
X50.79159 Y26.78860
X50.89319 Y26.68700
X51.02019 Y26.68700
X51.12179 Y26.63620
X52.67119 Y26.63620
X52.97599 Y26.71240
X53.20459 Y26.94100
X53.28079 Y27.24580
X53.28079 Y28.79520
X53.22999 Y28.89680
X53.22999 Y29.02380
X52.97599 Y29.30320
X52.59499 Y29.37940
X54.42379 Y31.20820
X55.61759 Y31.20820
X55.61759 Y31.03040
X55.69379 Y30.70020
X55.76999 Y30.54780
X55.82079 Y30.52240
X55.84619 Y30.42080
X56.20179 Y30.11600
X56.27799 Y30.11600
X56.45579 Y30.01440
X56.68439 Y29.96360
X57.26859 Y29.96360
X57.57339 Y30.03980
X57.92899 Y30.24300
X58.18299 Y30.54780
X58.28459 Y30.77640
X58.33539 Y31.03040
X58.33539 Y32.12260
X58.25919 Y32.45280
X58.18299 Y32.60520
X58.13219 Y32.63060
X58.10679 Y32.73220
X57.75119 Y33.03700
X57.67499 Y33.03700
X57.49719 Y33.13860
X57.26859 Y33.18940
X56.68439 Y33.18940
X56.20179 Y33.03700
X55.84619 Y32.73220
X55.82079 Y32.63060
X55.76999 Y32.60520
X55.69379 Y32.45280
X55.61759 Y32.12260
X55.61759 Y31.94480
X54.01739 Y31.94480
X53.91579 Y31.89400
X51.60439 Y29.58260
X51.52819 Y29.37940
X50.96939 Y29.35400
X50.74079 Y29.22700
X50.68999 Y29.12540
X50.61379 Y29.07460
X50.53759 Y28.84600
X50.53759 Y27.19500
X50.61379 Y26.94100
X50.74079 Y26.78860
G04 P0 ( dwell for no time -- G64 should not smooth over this point )
G00 Z3.00000 ( retract )

G00 X50.15659 Y19.80360 ( rapid move to begin. )
F254.00000
G01 Z-0.10000
G04 P0 ( dwell for no time -- G64 should not smooth over this point )
F500.00000
X50.15659 Y19.80360
X50.28359 Y19.90520
X50.43599 Y19.95600
X50.53759 Y20.08300
X50.58839 Y20.08300
X50.68999 Y20.18460
X50.68999 Y20.23540
X50.81699 Y20.33700
X50.86779 Y20.48940
X50.91859 Y20.51480
X51.04559 Y20.87040
X51.07099 Y21.78480
X50.96939 Y22.21660
X50.86779 Y22.34360
X50.81699 Y22.49600
X50.43599 Y22.87700
X50.28359 Y22.92780
X50.15659 Y23.02940
X50.05499 Y23.02940
X49.90259 Y23.10560
X49.01359 Y23.13100
X48.81039 Y23.10560
X48.55639 Y23.00400
X47.28639 Y24.27400
X47.28639 Y26.58540
X47.59119 Y26.66160
X47.76899 Y26.76320
X47.79439 Y26.81400
X47.84519 Y26.81400
X48.04839 Y27.01720
X48.20079 Y27.29660
X48.27699 Y27.62680
X48.27699 Y28.41420
X48.20079 Y28.74440
X48.04839 Y29.02380
X47.84519 Y29.22700
X47.46419 Y29.43020
X47.26099 Y29.48100
X46.37199 Y29.48100
X46.04179 Y29.37940
X45.83859 Y29.22700
X45.78779 Y29.22700
X45.58459 Y29.02380
X45.43219 Y28.74440
X45.35599 Y28.41420
X45.35599 Y27.62680
X45.43219 Y27.29660
X45.58459 Y27.01720
X45.94019 Y26.71240
X46.11799 Y26.66160
X46.16879 Y26.61080
X46.34659 Y26.58540
X46.37199 Y23.61360
X47.76899 Y22.21660
X47.66739 Y21.96260
X47.64199 Y21.75940
X47.64199 Y21.07360
X47.74359 Y20.61640
X47.84519 Y20.48940
X47.89599 Y20.33700
X48.02299 Y20.23540
X48.02299 Y20.18460
X48.12459 Y20.08300
X48.17539 Y20.08300
X48.27699 Y19.95600
X48.42939 Y19.90520
X48.55639 Y19.80360
X48.65799 Y19.80360
X48.81039 Y19.72740
X49.72479 Y19.70200
X50.15659 Y19.80360
G04 P0 ( dwell for no time -- G64 should not smooth over this point )
G00 Z3.00000 ( retract )

G00 X50.05499 Y19.90520 ( rapid move to begin. )
F254.00000
G01 Z-0.10000
G04 P0 ( dwell for no time -- G64 should not smooth over this point )
F500.00000
X50.05499 Y19.90520
X50.18199 Y20.00680
X50.33439 Y20.05760
X50.43599 Y20.18460
X50.53759 Y20.23540
X50.58839 Y20.33700
X50.71539 Y20.43860
X50.76619 Y20.59100
X50.86779 Y20.71800
X50.96939 Y21.14980
X50.96939 Y21.68320
X50.86779 Y22.11500
X50.76619 Y22.24200
X50.71539 Y22.39440
X50.58839 Y22.49600
X50.58839 Y22.54680
X50.48679 Y22.64840
X50.43599 Y22.64840
X50.33439 Y22.77540
X50.18199 Y22.82620
X50.05499 Y22.92780
X49.59779 Y23.02940
X49.11519 Y23.02940
X48.65799 Y22.92780
X48.53099 Y22.82620
X47.18479 Y24.17240
X47.18479 Y26.68700
X47.36259 Y26.71240
X47.41339 Y26.76320
X47.59119 Y26.81400
X47.61659 Y26.86480
X47.74359 Y26.91560
X47.99759 Y27.19500
X48.09919 Y27.39820
X48.17539 Y27.72840
X48.14999 Y28.46500
X48.09919 Y28.64280
X47.94679 Y28.92220
X47.74359 Y29.12540
X47.69279 Y29.12540
X47.48959 Y29.27780
X47.15939 Y29.37940
X46.47359 Y29.37940
X46.14339 Y29.27780
X45.96559 Y29.17620
X45.94019 Y29.12540
X45.88939 Y29.12540
X45.68619 Y28.92220
X45.53379 Y28.64280
X45.45759 Y28.31260
X45.45759 Y27.72840
X45.53379 Y27.39820
X45.68619 Y27.11880
X46.04179 Y26.81400
X46.21959 Y26.76320
X46.27039 Y26.71240
X46.44819 Y26.68700
X46.47359 Y23.71520
X47.94679 Y22.24200
X47.84519 Y22.11500
X47.84519 Y22.01340
X47.76899 Y21.86100
X47.74359 Y21.17520
X47.84519 Y20.71800
X47.94679 Y20.59100
X47.99759 Y20.43860
X48.12459 Y20.33700
X48.12459 Y20.28620
X48.22619 Y20.18460
X48.27699 Y20.18460
X48.37859 Y20.05760
X48.53099 Y20.00680
X48.65799 Y19.90520
X48.75959 Y19.90520
X48.91199 Y19.82900
X49.62319 Y19.80360
X50.05499 Y19.90520
G04 P0 ( dwell for no time -- G64 should not smooth over this point )
G00 Z3.00000 ( retract )

G00 X40.88559 Y8.04340 ( rapid move to begin. )
F254.00000
G01 Z-0.10000
G04 P0 ( dwell for no time -- G64 should not smooth over this point )
F500.00000
X40.88559 Y8.04340
X40.88559 Y12.43760
X39.20919 Y12.43760
X39.20919 Y18.22880
X39.31079 Y18.22880
X39.33619 Y18.27960
X39.59019 Y18.40660
X39.76799 Y18.63520
X39.84419 Y18.86380
X39.84419 Y20.92120
X39.69179 Y21.27680
X39.56479 Y21.40380
X39.46319 Y21.42920
X39.31079 Y21.55620
X39.03139 Y21.60700
X38.29479 Y21.58160
X38.16779 Y21.55620
X38.01539 Y21.42920
X37.91379 Y21.40380
X37.71059 Y21.14980
X37.63439 Y20.92120
X37.63439 Y18.86380
X37.78679 Y18.50820
X37.91379 Y18.38120
X38.01539 Y18.35580
X38.16779 Y18.22880
X38.26939 Y18.22880
X38.26939 Y12.43760
X36.49139 Y12.43760
X36.49139 Y8.04340
X40.88559 Y8.04340
G04 P0 ( dwell for no time -- G64 should not smooth over this point )
G00 Z3.00000 ( retract )

G00 X40.78399 Y8.14500 ( rapid move to begin. )
F254.00000
G01 Z-0.10000
G04 P0 ( dwell for no time -- G64 should not smooth over this point )
F500.00000
X40.78399 Y8.14500
X40.78399 Y12.33600
X39.10759 Y12.33600
X39.10759 Y18.33040
X39.20919 Y18.33040
X39.23459 Y18.38120
X39.46319 Y18.48280
X39.59019 Y18.60980
X39.71719 Y18.86380
X39.74259 Y20.81960
X39.59019 Y21.17520
X39.46319 Y21.30220
X39.36159 Y21.32760
X39.20919 Y21.45460
X38.92979 Y21.50540
X38.39639 Y21.48000
X38.26939 Y21.45460
X38.24399 Y21.40380
X38.01539 Y21.30220
X37.91379 Y21.20060
X37.78679 Y20.99740
X37.73599 Y20.81960
X37.76139 Y18.86380
X37.88839 Y18.60980
X38.01539 Y18.48280
X38.24399 Y18.38120
X38.26939 Y18.33040
X38.37099 Y18.33040
X38.37099 Y12.33600
X36.59299 Y12.33600
X36.59299 Y8.14500
X40.78399 Y8.14500
G04 P0 ( dwell for no time -- G64 should not smooth over this point )
G00 Z3.00000 ( retract )

G00 X43.04459 Y4.69060 ( rapid move to begin. )
F254.00000
G01 Z-0.10000
G04 P0 ( dwell for no time -- G64 should not smooth over this point )
F500.00000
X43.04459 Y4.69060
X43.14619 Y4.74140
X45.68619 Y7.28140
X45.76239 Y7.43380
X45.76239 Y11.09140
X46.19419 Y11.21840
X46.21959 Y11.26920
X46.37199 Y11.32000
X46.47359 Y11.44700
X46.52439 Y11.44700
X46.62599 Y11.54860
X46.62599 Y11.59940
X46.75299 Y11.70100
X46.80379 Y11.85340
X46.90539 Y11.98040
X47.00699 Y12.41220
X47.00699 Y13.14880
X46.85459 Y13.68220
X46.80379 Y13.70760
X46.75299 Y13.86000
X46.62599 Y13.96160
X46.62599 Y14.01240
X46.52439 Y14.11400
X46.47359 Y14.11400
X46.37199 Y14.24100
X46.21959 Y14.29180
X46.09259 Y14.39340
X45.99099 Y14.39340
X45.83859 Y14.46960
X44.94959 Y14.49500
X44.49239 Y14.39340
X44.36539 Y14.29180
X44.21299 Y14.24100
X44.11139 Y14.11400
X44.06059 Y14.11400
X43.95899 Y14.01240
X43.95899 Y13.96160
X43.83199 Y13.86000
X43.78119 Y13.70760
X43.67959 Y13.58060
X43.57799 Y13.12340
X43.57799 Y12.43760
X43.67959 Y11.98040
X43.78119 Y11.85340
X43.83199 Y11.70100
X44.21299 Y11.32000
X44.36539 Y11.26920
X44.49239 Y11.16760
X44.82259 Y11.09140
X44.82259 Y8.01800
X42.43499 Y5.63040
X24.78199 Y5.63040
X23.91839 Y6.49400
X23.91839 Y8.04340
X24.45179 Y8.17040
X24.52799 Y8.24660
X24.78199 Y8.34820
X25.01059 Y8.57680
X25.06139 Y8.57680
X25.11219 Y8.67840
X25.23919 Y8.78000
X25.23919 Y8.83080
X25.34079 Y8.90700
X25.44239 Y9.16100
X25.51859 Y9.23720
X25.64559 Y9.71980
X25.67099 Y9.97380
X25.64559 Y10.76120
X25.49319 Y11.29460
X25.44239 Y11.32000
X25.34079 Y11.57400
X25.23919 Y11.65020
X25.23919 Y11.70100
X25.11219 Y11.80260
X25.06139 Y11.90420
X25.01059 Y11.90420
X24.78199 Y12.13280
X24.52799 Y12.23440
X24.45179 Y12.31060
X23.91839 Y12.43760
X23.91839 Y13.17420
X30.14139 Y19.39720
X30.14139 Y18.86380
X30.19219 Y18.68600
X30.26839 Y18.60980
X30.29379 Y18.50820
X30.42079 Y18.38120
X30.52239 Y18.35580
X30.67479 Y18.22880
X30.95419 Y18.17800
X31.53839 Y18.17800
X31.81779 Y18.22880
X31.97019 Y18.35580
X32.07179 Y18.38120
X32.27499 Y18.63520
X32.35119 Y18.86380
X32.35119 Y20.92120
X32.19879 Y21.27680
X32.07179 Y21.40380
X31.97019 Y21.42920
X31.81779 Y21.55620
X31.53839 Y21.60700
X30.80179 Y21.58160
X30.67479 Y21.55620
X30.52239 Y21.42920
X30.42079 Y21.40380
X30.29379 Y21.27680
X30.16679 Y21.02280
X30.14139 Y20.36240
X29.55719 Y20.36240
X29.45559 Y20.31160
X23.43579 Y14.29180
X17.06039 Y20.66720
X17.06039 Y20.71800
X15.94279 Y21.83560
X15.84119 Y21.88640
X13.98699 Y21.88640
X14.19019 Y22.08960
X14.31719 Y22.36900
X14.36799 Y22.62300
X14.36799 Y23.41040
X14.29179 Y23.74060
X14.13939 Y24.02000
X13.78379 Y24.32480
X13.35199 Y24.47720
X12.46299 Y24.47720
X12.28519 Y24.42640
X4.10639 Y32.60520
X4.10639 Y40.91100
X5.30019 Y42.10480
X5.35099 Y42.10480
X5.47799 Y42.25720
X5.60499 Y42.25720
X5.70659 Y42.30800
X6.90039 Y43.52720
X7.15439 Y43.42560
X7.33219 Y43.40020
X8.06879 Y43.40020
X8.52599 Y43.52720
X12.23439 Y39.79340
X12.33599 Y39.74260
X14.64739 Y39.74260
X14.77439 Y39.31080
X14.82519 Y39.28540
X14.87599 Y39.13300
X15.00299 Y39.03140
X15.00299 Y38.98060
X15.10459 Y38.87900
X15.15539 Y38.87900
X15.25699 Y38.75200
X15.40939 Y38.70120
X15.53639 Y38.59960
X15.96819 Y38.49800
X16.88259 Y38.52340
X16.95879 Y38.57420
X17.13659 Y38.59960
X17.26359 Y38.70120
X17.41599 Y38.75200
X17.79699 Y39.13300
X17.84779 Y39.28540
X17.94939 Y39.41240
X18.02559 Y39.74260
X19.57499 Y39.74260
X19.90519 Y39.41240
X19.90519 Y38.37100
X19.95599 Y38.21860
X20.08299 Y38.09160
X20.08299 Y38.04080
X20.18459 Y37.93920
X20.43859 Y37.81220
X20.59099 Y37.78680
X21.37839 Y37.81220
X21.63239 Y37.93920
X21.73399 Y38.04080
X21.73399 Y38.09160
X21.86099 Y38.21860
X21.91179 Y38.37100
X21.91179 Y40.02200
X21.86099 Y40.17440
X21.68319 Y40.40300
X21.45459 Y40.55540
X21.37839 Y40.55540
X21.37839 Y41.41900
X23.89299 Y43.93360
X23.91839 Y45.45760
X23.99459 Y45.45760
X24.07079 Y45.53380
X24.17239 Y45.55920
X24.40099 Y45.83860
X24.45179 Y45.99100
X24.45179 Y46.34660
X24.98519 Y46.34660
X24.98519 Y45.99100
X25.03599 Y45.83860
X25.26459 Y45.55920
X25.51859 Y45.43220
X26.45839 Y45.43220
X26.71239 Y45.55920
X26.81399 Y45.66080
X26.81399 Y45.71160
X26.94099 Y45.83860
X26.99179 Y45.99100
X26.99179 Y47.64200
X26.94099 Y47.79440
X26.81399 Y47.92140
X26.81399 Y47.97220
X26.58539 Y48.15000
X26.30599 Y48.22620
X25.67099 Y48.22620
X25.44239 Y48.17540
X25.36619 Y48.09920
X25.26459 Y48.07380
X25.03599 Y47.79440
X24.98519 Y47.64200
X24.98519 Y47.28640
X24.45179 Y47.28640
X24.45179 Y47.64200
X24.40099 Y47.79440
X24.17239 Y48.07380
X23.91839 Y48.20080
X22.97859 Y48.20080
X22.72459 Y48.07380
X22.62299 Y47.97220
X22.62299 Y47.92140
X22.49599 Y47.79440
X22.44519 Y47.64200
X22.44519 Y45.99100
X22.49599 Y45.83860
X22.62299 Y45.71160
X22.64839 Y45.63540
X22.72459 Y45.55920
X22.82619 Y45.53380
X22.85159 Y45.48300
X22.97859 Y45.45760
X22.97859 Y44.59400
X20.46399 Y42.07940
X20.43859 Y40.55540
X20.36239 Y40.53000
X20.28619 Y40.63160
X20.18459 Y40.68240
X18.02559 Y40.68240
X17.89859 Y41.11420
X17.84779 Y41.13960
X17.79699 Y41.29200
X17.66999 Y41.39360
X17.66999 Y41.44440
X17.56839 Y41.54600
X17.51759 Y41.54600
X17.41599 Y41.67300
X17.26359 Y41.72380
X17.13659 Y41.82540
X16.67939 Y41.92700
X15.79039 Y41.90160
X15.63799 Y41.82540
X15.53639 Y41.82540
X15.40939 Y41.72380
X15.25699 Y41.67300
X14.87599 Y41.29200
X14.82519 Y41.13960
X14.72359 Y41.01260
X14.64739 Y40.68240
X12.94559 Y40.68240
X9.28799 Y44.31460
X9.33879 Y44.39080
X9.41499 Y44.74640
X9.38959 Y45.66080
X9.33879 Y45.73700
X9.31339 Y45.91480
X9.21179 Y46.04180
X9.16099 Y46.19420
X9.03399 Y46.29580
X9.03399 Y46.34660
X8.93239 Y46.44820
X8.88159 Y46.44820
X8.77999 Y46.57520
X8.62759 Y46.62600
X8.50059 Y46.72760
X8.04339 Y46.82920
X7.15439 Y46.80380
X6.79879 Y46.67680
X6.77339 Y46.62600
X6.62099 Y46.57520
X6.51939 Y46.44820
X6.46859 Y46.44820
X6.36699 Y46.34660
X6.36699 Y46.29580
X6.23999 Y46.19420
X6.18919 Y46.04180
X6.08759 Y45.91480
X6.08759 Y45.81320
X6.01139 Y45.66080
X5.98599 Y44.77180
X6.01139 Y44.56860
X6.11299 Y44.31460
X4.99539 Y43.19700
X4.86839 Y43.19700
X4.76679 Y43.14620
X3.47139 Y41.82540
X3.42059 Y41.82540
X3.24279 Y41.64760
X3.16659 Y41.49520
X3.19199 Y31.94480
X11.49779 Y23.63900
X11.44699 Y23.41040
X11.44699 Y22.62300
X11.54859 Y22.26740
X11.47239 Y22.24200
X11.47239 Y22.19120
X11.31999 Y22.03880
X11.24379 Y21.83560
X11.24379 Y20.99740
X11.31999 Y20.79420
X11.39619 Y20.74340
X11.47239 Y20.59100
X11.57399 Y20.56560
X11.72639 Y20.43860
X11.87879 Y20.41320
X12.61539 Y20.41320
X12.76779 Y20.43860
X12.79319 Y20.48940
X13.02179 Y20.59100
X13.02179 Y20.64180
X13.17419 Y20.79420
X13.22499 Y20.94660
X15.23159 Y20.94660
X22.97859 Y13.17420
X22.97859 Y12.43760
X22.44519 Y12.31060
X22.36899 Y12.23440
X22.11499 Y12.13280
X22.03879 Y12.03120
X21.98799 Y12.03120
X21.88639 Y11.90420
X21.78479 Y11.85340
X21.78479 Y11.80260
X21.55619 Y11.57400
X21.45459 Y11.32000
X21.37839 Y11.24380
X21.35299 Y11.06600
X21.27679 Y10.91360
X21.22599 Y10.50720
X21.22599 Y9.97380
X21.27679 Y9.56740
X21.35299 Y9.41500
X21.37839 Y9.23720
X21.45459 Y9.16100
X21.55619 Y8.90700
X21.78479 Y8.67840
X21.78479 Y8.62760
X21.88639 Y8.57680
X21.98799 Y8.44980
X22.03879 Y8.44980
X22.11499 Y8.34820
X22.36899 Y8.24660
X22.44519 Y8.17040
X22.97859 Y8.04340
X22.97859 Y5.90980
X23.05479 Y5.75740
X24.07079 Y4.74140
X24.17239 Y4.69060
X43.04459 Y4.69060
G04 P0 ( dwell for no time -- G64 should not smooth over this point )
G00 Z3.00000 ( retract )

G00 X42.94299 Y4.79220 ( rapid move to begin. )
F254.00000
G01 Z-0.10000
G04 P0 ( dwell for no time -- G64 should not smooth over this point )
F500.00000
X42.94299 Y4.79220
X43.04459 Y4.84300
X45.58459 Y7.38300
X45.66079 Y7.53540
X45.66079 Y11.19300
X46.09259 Y11.32000
X46.11799 Y11.37080
X46.27039 Y11.42160
X46.37199 Y11.54860
X46.42279 Y11.54860
X46.52439 Y11.65020
X46.52439 Y11.70100
X46.65139 Y11.80260
X46.70219 Y11.95500
X46.80379 Y12.08200
X46.90539 Y12.51380
X46.87999 Y13.22500
X46.75299 Y13.58060
X46.70219 Y13.60600
X46.65139 Y13.75840
X46.52439 Y13.86000
X46.52439 Y13.91080
X46.42279 Y14.01240
X46.37199 Y14.01240
X46.27039 Y14.13940
X46.11799 Y14.19020
X45.99099 Y14.29180
X45.53379 Y14.39340
X45.05119 Y14.39340
X44.59399 Y14.29180
X44.46699 Y14.19020
X44.31459 Y14.13940
X44.21299 Y14.01240
X44.16219 Y14.01240
X44.06059 Y13.91080
X44.06059 Y13.86000
X43.93359 Y13.75840
X43.88279 Y13.60600
X43.78119 Y13.47900
X43.67959 Y13.02180
X43.67959 Y12.53920
X43.78119 Y12.08200
X43.88279 Y11.95500
X43.93359 Y11.80260
X44.31459 Y11.42160
X44.46699 Y11.37080
X44.59399 Y11.26920
X44.92419 Y11.19300
X44.92419 Y7.91640
X42.53659 Y5.52880
X24.68039 Y5.52880
X23.81679 Y6.39240
X23.81679 Y8.14500
X24.35019 Y8.27200
X24.42639 Y8.34820
X24.68039 Y8.44980
X24.90899 Y8.67840
X24.95979 Y8.67840
X25.01059 Y8.78000
X25.13759 Y8.88160
X25.13759 Y8.93240
X25.23919 Y9.00860
X25.34079 Y9.26260
X25.41699 Y9.33880
X25.44239 Y9.51660
X25.51859 Y9.66900
X25.56939 Y10.07540
X25.54399 Y10.65960
X25.39159 Y11.19300
X25.34079 Y11.21840
X25.23919 Y11.47240
X25.13759 Y11.54860
X25.13759 Y11.59940
X25.01059 Y11.70100
X24.95979 Y11.80260
X24.90899 Y11.80260
X24.68039 Y12.03120
X24.42639 Y12.13280
X24.35019 Y12.20900
X23.81679 Y12.33600
X23.81679 Y13.27580
X30.06519 Y19.52420
X30.24299 Y19.52420
X30.24299 Y18.96540
X30.31919 Y18.73680
X30.52239 Y18.48280
X30.75099 Y18.38120
X30.77639 Y18.33040
X31.05579 Y18.27960
X31.43679 Y18.27960
X31.71619 Y18.33040
X31.74159 Y18.38120
X31.97019 Y18.48280
X32.17339 Y18.73680
X32.24959 Y18.96540
X32.24959 Y20.81960
X32.09719 Y21.17520
X31.97019 Y21.30220
X31.86859 Y21.32760
X31.71619 Y21.45460
X31.43679 Y21.50540
X31.05579 Y21.50540
X30.77639 Y21.45460
X30.75099 Y21.40380
X30.52239 Y21.30220
X30.39539 Y21.17520
X30.26839 Y20.92120
X30.24299 Y20.26080
X29.65879 Y20.26080
X29.55719 Y20.21000
X23.43579 Y14.08860
X16.95879 Y20.56560
X16.95879 Y20.61640
X15.84119 Y21.73400
X15.73959 Y21.78480
X13.58059 Y21.78480
X13.83459 Y21.91180
X14.03779 Y22.11500
X14.19019 Y22.39440
X14.24099 Y22.57220
X14.26639 Y23.30880
X14.19019 Y23.63900
X14.03779 Y23.91840
X13.68219 Y24.22320
X13.25039 Y24.37560
X12.56459 Y24.37560
X12.23439 Y24.27400
X4.00479 Y32.50360
X4.00479 Y41.01260
X5.19859 Y42.20640
X5.24939 Y42.20640
X5.37639 Y42.35880
X5.50339 Y42.35880
X5.60499 Y42.40960
X6.87499 Y43.70500
X7.00199 Y43.60340
X7.43379 Y43.50180
X8.14499 Y43.52720
X8.22119 Y43.57800
X8.39899 Y43.60340
X8.55139 Y43.70500
X12.33599 Y39.89500
X12.43759 Y39.84420
X14.74899 Y39.84420
X14.87599 Y39.41240
X14.92679 Y39.38700
X14.97759 Y39.23460
X15.10459 Y39.13300
X15.10459 Y39.08220
X15.20619 Y38.98060
X15.25699 Y38.98060
X15.35859 Y38.85360
X15.51099 Y38.80280
X15.63799 Y38.70120
X16.06979 Y38.59960
X16.78099 Y38.62500
X16.85719 Y38.67580
X17.03499 Y38.70120
X17.16199 Y38.80280
X17.31439 Y38.85360
X17.69539 Y39.23460
X17.74619 Y39.38700
X17.84779 Y39.51400
X17.92399 Y39.84420
X19.67659 Y39.84420
X20.00679 Y39.51400
X20.00679 Y38.47260
X20.05759 Y38.32020
X20.18459 Y38.19320
X20.18459 Y38.14240
X20.28619 Y38.04080
X20.54019 Y37.91380
X20.69259 Y37.88840
X21.27679 Y37.91380
X21.53079 Y38.04080
X21.63239 Y38.14240
X21.63239 Y38.19320
X21.75939 Y38.32020
X21.81019 Y38.47260
X21.81019 Y39.92040
X21.75939 Y40.07280
X21.70859 Y40.09820
X21.60699 Y40.27600
X21.53079 Y40.35220
X21.42919 Y40.37760
X21.40379 Y40.42840
X21.27679 Y40.45380
X21.27679 Y41.52060
X23.79139 Y44.03520
X23.81679 Y45.55920
X23.89299 Y45.55920
X23.96919 Y45.63540
X24.07079 Y45.66080
X24.29939 Y45.94020
X24.35019 Y46.09260
X24.35019 Y46.44820
X25.08679 Y46.44820
X25.08679 Y46.09260
X25.13759 Y45.94020
X25.36619 Y45.66080
X25.62019 Y45.53380
X26.35679 Y45.53380
X26.61079 Y45.66080
X26.71239 Y45.76240
X26.71239 Y45.81320
X26.83939 Y45.94020
X26.89019 Y46.09260
X26.89019 Y47.54040
X26.83939 Y47.69280
X26.71239 Y47.81980
X26.71239 Y47.87060
X26.61079 Y47.97220
X26.35679 Y48.09920
X25.77259 Y48.12460
X25.54399 Y48.07380
X25.46779 Y47.99760
X25.36619 Y47.97220
X25.13759 Y47.69280
X25.08679 Y47.54040
X25.08679 Y47.18480
X24.35019 Y47.18480
X24.35019 Y47.54040
X24.29939 Y47.69280
X24.07079 Y47.97220
X23.81679 Y48.09920
X23.08019 Y48.09920
X22.82619 Y47.97220
X22.72459 Y47.87060
X22.72459 Y47.81980
X22.59759 Y47.69280
X22.54679 Y47.54040
X22.54679 Y46.09260
X22.59759 Y45.94020
X22.72459 Y45.81320
X22.72459 Y45.76240
X22.95319 Y45.58460
X23.08019 Y45.55920
X23.08019 Y44.49240
X20.56559 Y41.97780
X20.54019 Y40.45380
X20.46399 Y40.45380
X20.33699 Y40.35220
X20.18459 Y40.53000
X20.08299 Y40.58080
X17.92399 Y40.58080
X17.79699 Y41.01260
X17.74619 Y41.03800
X17.69539 Y41.19040
X17.56839 Y41.29200
X17.56839 Y41.34280
X17.46679 Y41.44440
X17.41599 Y41.44440
X17.31439 Y41.57140
X17.16199 Y41.62220
X17.03499 Y41.72380
X16.57779 Y41.82540
X15.89199 Y41.80000
X15.73959 Y41.72380
X15.63799 Y41.72380
X15.51099 Y41.62220
X15.35859 Y41.57140
X14.97759 Y41.19040
X14.92679 Y41.03800
X14.82519 Y40.91100
X14.74899 Y40.58080
X12.84399 Y40.58080
X9.11019 Y44.28920
X9.21179 Y44.41620
X9.23719 Y44.59400
X9.28799 Y44.67020
X9.31339 Y45.38140
X9.18639 Y45.86400
X9.11019 Y45.94020
X9.05939 Y46.09260
X8.93239 Y46.19420
X8.93239 Y46.24500
X8.83079 Y46.34660
X8.77999 Y46.34660
X8.67839 Y46.47360
X8.52599 Y46.52440
X8.39899 Y46.62600
X7.94179 Y46.72760
X7.25599 Y46.70220
X6.90039 Y46.57520
X6.87499 Y46.52440
X6.72259 Y46.47360
X6.62099 Y46.34660
X6.57019 Y46.34660
X6.46859 Y46.24500
X6.46859 Y46.19420
X6.34159 Y46.09260
X6.29079 Y45.94020
X6.18919 Y45.81320
X6.18919 Y45.71160
X6.11299 Y45.55920
X6.11299 Y44.67020
X6.18919 Y44.51780
X6.18919 Y44.41620
X6.29079 Y44.28920
X5.09699 Y43.09540
X4.96999 Y43.09540
X4.86839 Y43.04460
X3.57299 Y41.72380
X3.52219 Y41.72380
X3.34439 Y41.54600
X3.26819 Y41.39360
X3.29359 Y32.04640
X11.65019 Y23.68980
X11.54859 Y23.30880
X11.54859 Y22.72460
X11.62479 Y22.39440
X11.72639 Y22.21660
X11.57399 Y22.14040
X11.57399 Y22.08960
X11.42159 Y21.93720
X11.34539 Y21.73400
X11.34539 Y21.09900
X11.42159 Y20.89580
X11.57399 Y20.74340
X11.57399 Y20.69260
X11.67559 Y20.66720
X11.82799 Y20.54020
X12.51379 Y20.51480
X12.66619 Y20.54020
X12.69159 Y20.59100
X12.92019 Y20.69260
X12.92019 Y20.74340
X13.07259 Y20.89580
X13.12339 Y21.04820
X15.33319 Y21.04820
X23.08019 Y13.27580
X23.08019 Y12.33600
X22.54679 Y12.20900
X22.47059 Y12.13280
X22.21659 Y12.03120
X21.98799 Y11.80260
X21.93719 Y11.80260
X21.88639 Y11.70100
X21.75939 Y11.59940
X21.75939 Y11.54860
X21.65779 Y11.47240
X21.55619 Y11.21840
X21.47999 Y11.14220
X21.45459 Y10.96440
X21.37839 Y10.81200
X21.32759 Y10.07540
X21.37839 Y9.66900
X21.45459 Y9.51660
X21.47999 Y9.33880
X21.55619 Y9.26260
X21.65779 Y9.00860
X21.88639 Y8.78000
X21.88639 Y8.72920
X21.98799 Y8.67840
X22.08959 Y8.55140
X22.14039 Y8.55140
X22.21659 Y8.44980
X22.47059 Y8.34820
X22.54679 Y8.27200
X23.08019 Y8.14500
X23.08019 Y6.01140
X23.15639 Y5.85900
X24.17239 Y4.84300
X24.27399 Y4.79220
X42.94299 Y4.79220
G04 P0 ( dwell for no time -- G64 should not smooth over this point )
G00 Z3.00000 ( retract )

G00 X33.03699 Y8.17040 ( rapid move to begin. )
F254.00000
G01 Z-0.10000
G04 P0 ( dwell for no time -- G64 should not smooth over this point )
F500.00000
X33.03699 Y8.17040
X33.44339 Y8.11960
X34.02759 Y8.14500
X34.51019 Y8.27200
X34.58639 Y8.34820
X34.84039 Y8.44980
X35.06899 Y8.67840
X35.11979 Y8.67840
X35.17059 Y8.78000
X35.29759 Y8.88160
X35.29759 Y8.93240
X35.39919 Y9.00860
X35.50079 Y9.26260
X35.57699 Y9.33880
X35.60239 Y9.51660
X35.67859 Y9.66900
X35.72939 Y10.07540
X35.70399 Y10.65960
X35.57699 Y11.14220
X35.50079 Y11.21840
X35.39919 Y11.47240
X35.29759 Y11.54860
X35.29759 Y11.59940
X35.17059 Y11.70100
X35.11979 Y11.80260
X35.06899 Y11.80260
X34.84039 Y12.03120
X34.58639 Y12.13280
X34.51019 Y12.20900
X33.97679 Y12.33600
X33.97679 Y14.08860
X36.56759 Y16.67940
X36.59299 Y18.33040
X36.69459 Y18.33040
X36.71999 Y18.38120
X36.82159 Y18.40660
X36.84699 Y18.45740
X36.99939 Y18.53360
X37.07559 Y18.60980
X37.10099 Y18.71140
X37.15179 Y18.73680
X37.22799 Y18.96540
X37.22799 Y20.81960
X37.07559 Y21.17520
X36.94859 Y21.30220
X36.84699 Y21.32760
X36.69459 Y21.45460
X36.41519 Y21.50540
X36.03419 Y21.50540
X35.75479 Y21.45460
X35.72939 Y21.40380
X35.50079 Y21.30220
X35.37379 Y21.17520
X35.22139 Y20.81960
X35.22139 Y18.96540
X35.37379 Y18.60980
X35.50079 Y18.48280
X35.72939 Y18.38120
X35.75479 Y18.33040
X35.85639 Y18.33040
X35.85639 Y17.13660
X33.31639 Y14.62200
X33.24019 Y14.46960
X33.24019 Y12.33600
X32.70679 Y12.20900
X32.63059 Y12.13280
X32.37659 Y12.03120
X32.14799 Y11.80260
X32.09719 Y11.80260
X32.04639 Y11.70100
X31.91939 Y11.59940
X31.91939 Y11.54860
X31.81779 Y11.47240
X31.71619 Y11.21840
X31.63999 Y11.14220
X31.61459 Y10.96440
X31.53839 Y10.81200
X31.48759 Y10.40560
X31.51299 Y9.82140
X31.63999 Y9.33880
X31.71619 Y9.26260
X31.81779 Y9.00860
X32.04639 Y8.78000
X32.04639 Y8.72920
X32.14799 Y8.67840
X32.24959 Y8.55140
X32.30039 Y8.55140
X32.37659 Y8.44980
X32.63059 Y8.34820
X32.70679 Y8.27200
X32.88459 Y8.24660
X33.03699 Y8.17040
G04 P0 ( dwell for no time -- G64 should not smooth over this point )
G00 Z3.00000 ( retract )

G00 X32.93539 Y8.06880 ( rapid move to begin. )
F254.00000
G01 Z-0.10000
G04 P0 ( dwell for no time -- G64 should not smooth over this point )
F500.00000
X32.93539 Y8.06880
X33.34179 Y8.01800
X33.87519 Y8.01800
X34.28159 Y8.06880
X34.66259 Y8.19580
X34.68799 Y8.24660
X34.94199 Y8.34820
X35.17059 Y8.57680
X35.22139 Y8.57680
X35.27219 Y8.67840
X35.39919 Y8.78000
X35.39919 Y8.83080
X35.50079 Y8.90700
X35.60239 Y9.16100
X35.67859 Y9.23720
X35.70399 Y9.41500
X35.78019 Y9.56740
X35.83099 Y9.97380
X35.80559 Y10.76120
X35.67859 Y11.24380
X35.60239 Y11.32000
X35.50079 Y11.57400
X35.27219 Y11.80260
X35.27219 Y11.85340
X35.17059 Y11.90420
X35.06899 Y12.03120
X35.01819 Y12.03120
X34.94199 Y12.13280
X34.68799 Y12.23440
X34.61179 Y12.31060
X34.07839 Y12.43760
X34.07839 Y13.98700
X36.66919 Y16.57780
X36.69459 Y18.22880
X36.79619 Y18.22880
X36.82159 Y18.27960
X37.07559 Y18.40660
X37.25339 Y18.63520
X37.32959 Y18.86380
X37.32959 Y20.92120
X37.17719 Y21.27680
X37.05019 Y21.40380
X36.94859 Y21.42920
X36.79619 Y21.55620
X36.51679 Y21.60700
X35.93259 Y21.60700
X35.65319 Y21.55620
X35.50079 Y21.42920
X35.39919 Y21.40380
X35.19599 Y21.14980
X35.11979 Y20.92120
X35.11979 Y18.86380
X35.17059 Y18.68600
X35.29759 Y18.48280
X35.39919 Y18.38120
X35.62779 Y18.27960
X35.65319 Y18.22880
X35.75479 Y18.22880
X35.75479 Y17.23820
X33.21479 Y14.72360
X33.13859 Y14.57120
X33.13859 Y12.43760
X32.60519 Y12.31060
X32.52899 Y12.23440
X32.27499 Y12.13280
X32.04639 Y11.90420
X31.99559 Y11.90420
X31.94479 Y11.80260
X31.81779 Y11.70100
X31.81779 Y11.65020
X31.71619 Y11.57400
X31.61459 Y11.32000
X31.53839 Y11.24380
X31.51299 Y11.06600
X31.43679 Y10.91360
X31.38599 Y10.50720
X31.38599 Y9.97380
X31.43679 Y9.56740
X31.56379 Y9.18640
X31.61459 Y9.16100
X31.71619 Y8.90700
X31.94479 Y8.67840
X31.94479 Y8.62760
X32.04639 Y8.57680
X32.14799 Y8.44980
X32.19879 Y8.44980
X32.27499 Y8.34820
X32.52899 Y8.24660
X32.60519 Y8.17040
X32.78299 Y8.14500
X32.93539 Y8.06880
G04 P0 ( dwell for no time -- G64 should not smooth over this point )
G00 Z3.00000 ( retract )

G00 X27.85539 Y8.06880 ( rapid move to begin. )
F254.00000
G01 Z-0.10000
G04 P0 ( dwell for no time -- G64 should not smooth over this point )
F500.00000
X27.85539 Y8.06880
X28.26179 Y8.01800
X28.79519 Y8.01800
X29.20159 Y8.06880
X29.58259 Y8.19580
X29.60799 Y8.24660
X29.86199 Y8.34820
X30.09059 Y8.57680
X30.14139 Y8.57680
X30.19219 Y8.67840
X30.31919 Y8.78000
X30.31919 Y8.83080
X30.42079 Y8.90700
X30.52239 Y9.16100
X30.59859 Y9.23720
X30.62399 Y9.41500
X30.70019 Y9.56740
X30.75099 Y9.97380
X30.72559 Y10.76120
X30.59859 Y11.24380
X30.52239 Y11.32000
X30.42079 Y11.57400
X30.19219 Y11.80260
X30.19219 Y11.85340
X30.09059 Y11.90420
X29.98899 Y12.03120
X29.93819 Y12.03120
X29.86199 Y12.13280
X29.60799 Y12.23440
X29.53179 Y12.31060
X28.99839 Y12.43760
X28.99839 Y13.98700
X30.36999 Y15.35860
X32.37659 Y15.35860
X32.47819 Y15.40940
X33.84979 Y16.80640
X33.90059 Y16.80640
X34.10379 Y17.00960
X34.17999 Y17.16200
X34.20539 Y18.22880
X34.30699 Y18.22880
X34.33239 Y18.27960
X34.56099 Y18.38120
X34.68799 Y18.50820
X34.81499 Y18.76220
X34.84039 Y20.92120
X34.78959 Y21.09900
X34.66259 Y21.30220
X34.56099 Y21.40380
X34.33239 Y21.50540
X34.30699 Y21.55620
X34.20539 Y21.55620
X34.20539 Y22.21660
X35.01819 Y23.02940
X35.09439 Y23.18180
X35.09439 Y29.30320
X35.01819 Y29.45560
X34.07839 Y30.37000
X34.07839 Y37.83760
X34.15459 Y37.83760
X34.23079 Y37.91380
X34.33239 Y37.93920
X34.56099 Y38.21860
X34.61179 Y38.37100
X34.61179 Y38.72660
X35.14519 Y38.72660
X35.14519 Y37.78680
X37.15179 Y37.78680
X37.15179 Y40.60620
X35.14519 Y40.60620
X35.14519 Y39.66640
X34.61179 Y39.66640
X34.61179 Y40.02200
X34.51019 Y40.25060
X34.33239 Y40.45380
X34.23079 Y40.47920
X34.15459 Y40.55540
X33.92599 Y40.60620
X33.29099 Y40.60620
X33.06239 Y40.55540
X32.78299 Y40.35220
X32.78299 Y40.30140
X32.65599 Y40.17440
X32.60519 Y40.02200
X32.60519 Y38.37100
X32.65599 Y38.21860
X32.78299 Y38.09160
X32.78299 Y38.04080
X33.01159 Y37.86300
X33.13859 Y37.83760
X33.13859 Y29.78580
X33.21479 Y29.63340
X34.15459 Y28.71900
X34.15459 Y23.76600
X33.29099 Y22.87700
X33.26559 Y21.55620
X33.16399 Y21.55620
X33.13859 Y21.50540
X33.03699 Y21.48000
X33.01159 Y21.42920
X32.85919 Y21.35300
X32.70679 Y21.14980
X32.63059 Y20.92120
X32.63059 Y18.86380
X32.78299 Y18.50820
X32.90999 Y18.38120
X33.01159 Y18.35580
X33.16399 Y18.22880
X33.26559 Y18.22880
X33.24019 Y17.74620
X31.76699 Y16.29840
X29.76039 Y16.29840
X29.65879 Y16.24760
X28.08399 Y14.64740
X28.05859 Y12.43760
X27.52519 Y12.31060
X27.44899 Y12.23440
X27.19499 Y12.13280
X26.96639 Y11.90420
X26.91559 Y11.90420
X26.86479 Y11.80260
X26.73779 Y11.70100
X26.73779 Y11.65020
X26.63619 Y11.57400
X26.53459 Y11.32000
X26.45839 Y11.24380
X26.43299 Y11.06600
X26.35679 Y10.91360
X26.30599 Y10.50720
X26.33139 Y9.71980
X26.45839 Y9.23720
X26.53459 Y9.16100
X26.63619 Y8.90700
X26.73779 Y8.83080
X26.73779 Y8.78000
X26.86479 Y8.67840
X26.91559 Y8.57680
X26.96639 Y8.57680
X27.19499 Y8.34820
X27.44899 Y8.24660
X27.47439 Y8.19580
X27.85539 Y8.06880
G04 P0 ( dwell for no time -- G64 should not smooth over this point )
G00 Z3.00000 ( retract )

G00 X27.95699 Y8.17040 ( rapid move to begin. )
F254.00000
G01 Z-0.10000
G04 P0 ( dwell for no time -- G64 should not smooth over this point )
F500.00000
X27.95699 Y8.17040
X28.36339 Y8.11960
X28.94759 Y8.14500
X29.43019 Y8.27200
X29.50639 Y8.34820
X29.76039 Y8.44980
X29.98899 Y8.67840
X30.03979 Y8.67840
X30.09059 Y8.78000
X30.21759 Y8.88160
X30.21759 Y8.93240
X30.31919 Y9.00860
X30.42079 Y9.26260
X30.49699 Y9.33880
X30.62399 Y9.82140
X30.64939 Y10.40560
X30.59859 Y10.81200
X30.52239 Y10.96440
X30.49699 Y11.14220
X30.42079 Y11.21840
X30.31919 Y11.47240
X30.09059 Y11.70100
X30.09059 Y11.75180
X29.98899 Y11.80260
X29.88739 Y11.92960
X29.83659 Y11.92960
X29.76039 Y12.03120
X29.50639 Y12.13280
X29.43019 Y12.20900
X28.89679 Y12.33600
X28.89679 Y14.08860
X30.26839 Y15.46020
X32.27499 Y15.46020
X32.37659 Y15.51100
X33.74819 Y16.90800
X33.79899 Y16.90800
X34.00219 Y17.11120
X34.07839 Y17.26360
X34.10379 Y18.33040
X34.20539 Y18.33040
X34.23079 Y18.38120
X34.45939 Y18.48280
X34.58639 Y18.60980
X34.71339 Y18.86380
X34.73879 Y20.81960
X34.58639 Y21.17520
X34.45939 Y21.30220
X34.35779 Y21.32760
X34.20539 Y21.45460
X34.10379 Y21.45460
X34.10379 Y22.31820
X34.91659 Y23.13100
X34.99279 Y23.28340
X34.99279 Y29.20160
X34.91659 Y29.35400
X33.97679 Y30.26840
X33.97679 Y37.93920
X34.05299 Y37.93920
X34.12919 Y38.01540
X34.23079 Y38.04080
X34.45939 Y38.32020
X34.51019 Y38.47260
X34.51019 Y38.82820
X35.24679 Y38.82820
X35.24679 Y37.88840
X37.05019 Y37.88840
X37.05019 Y40.50460
X35.24679 Y40.50460
X35.24679 Y39.56480
X34.51019 Y39.56480
X34.51019 Y39.92040
X34.40859 Y40.14900
X34.23079 Y40.35220
X34.12919 Y40.37760
X34.05299 Y40.45380
X33.82439 Y40.50460
X33.39259 Y40.50460
X33.11319 Y40.42840
X32.88459 Y40.25060
X32.88459 Y40.19980
X32.75759 Y40.07280
X32.70679 Y39.92040
X32.70679 Y38.47260
X32.75759 Y38.32020
X32.93539 Y38.09160
X33.16399 Y37.93920
X33.24019 Y37.93920
X33.24019 Y29.88740
X33.31639 Y29.73500
X34.25619 Y28.82060
X34.25619 Y23.66440
X33.39259 Y22.77540
X33.36719 Y21.45460
X33.26559 Y21.45460
X33.24019 Y21.40380
X33.01159 Y21.30220
X32.80839 Y21.04820
X32.73219 Y20.81960
X32.73219 Y18.96540
X32.80839 Y18.73680
X32.98619 Y18.50820
X33.24019 Y18.38120
X33.26559 Y18.33040
X33.36719 Y18.33040
X33.34179 Y17.64460
X31.86859 Y16.19680
X29.86199 Y16.19680
X29.76039 Y16.14600
X28.18559 Y14.54580
X28.16019 Y12.33600
X27.62679 Y12.20900
X27.55059 Y12.13280
X27.29659 Y12.03120
X27.06799 Y11.80260
X27.01719 Y11.80260
X26.96639 Y11.70100
X26.83939 Y11.59940
X26.83939 Y11.54860
X26.73779 Y11.47240
X26.63619 Y11.21840
X26.55999 Y11.14220
X26.53459 Y10.96440
X26.45839 Y10.81200
X26.40759 Y10.40560
X26.43299 Y9.82140
X26.55999 Y9.33880
X26.63619 Y9.26260
X26.73779 Y9.00860
X26.83939 Y8.93240
X26.83939 Y8.88160
X26.96639 Y8.78000
X27.01719 Y8.67840
X27.06799 Y8.67840
X27.29659 Y8.44980
X27.55059 Y8.34820
X27.57599 Y8.29740
X27.95699 Y8.17040
G04 P0 ( dwell for no time -- G64 should not smooth over this point )
G00 Z3.00000 ( retract )

G00 X11.31999 Y9.33880 ( rapid move to begin. )
F254.00000
G01 Z-0.10000
G04 P0 ( dwell for no time -- G64 should not smooth over this point )
F500.00000
X11.31999 Y9.33880
X11.39619 Y9.26260
X11.49779 Y9.00860
X11.72639 Y8.78000
X11.72639 Y8.72920
X11.82799 Y8.67840
X11.92959 Y8.55140
X11.98039 Y8.55140
X12.05659 Y8.44980
X12.31059 Y8.34820
X12.33599 Y8.29740
X12.86939 Y8.14500
X13.12339 Y8.11960
X13.70759 Y8.14500
X14.24099 Y8.29740
X14.26639 Y8.34820
X14.52039 Y8.44980
X14.59659 Y8.55140
X14.64739 Y8.55140
X14.74899 Y8.67840
X14.85059 Y8.72920
X14.85059 Y8.78000
X15.07919 Y9.00860
X15.18079 Y9.26260
X15.25699 Y9.33880
X15.38399 Y9.87220
X16.27299 Y9.87220
X16.39999 Y9.33880
X16.47619 Y9.26260
X16.57779 Y9.00860
X16.80639 Y8.78000
X16.80639 Y8.72920
X16.90799 Y8.67840
X17.00959 Y8.55140
X17.06039 Y8.55140
X17.13659 Y8.44980
X17.39059 Y8.34820
X17.46679 Y8.27200
X17.64459 Y8.24660
X17.79699 Y8.17040
X18.20339 Y8.11960
X18.78759 Y8.14500
X19.27019 Y8.27200
X19.34639 Y8.34820
X19.60039 Y8.44980
X19.67659 Y8.55140
X19.72739 Y8.55140
X19.82899 Y8.67840
X19.93059 Y8.72920
X19.93059 Y8.78000
X20.15919 Y9.00860
X20.26079 Y9.26260
X20.33699 Y9.33880
X20.36239 Y9.51660
X20.43859 Y9.66900
X20.48939 Y10.07540
X20.46399 Y10.65960
X20.33699 Y11.14220
X20.26079 Y11.21840
X20.15919 Y11.47240
X19.93059 Y11.70100
X19.93059 Y11.75180
X19.82899 Y11.80260
X19.72739 Y11.92960
X19.67659 Y11.92960
X19.60039 Y12.03120
X19.34639 Y12.13280
X19.27019 Y12.20900
X19.09239 Y12.23440
X18.93999 Y12.31060
X18.20339 Y12.36140
X17.79699 Y12.31060
X17.64459 Y12.23440
X17.46679 Y12.20900
X17.39059 Y12.13280
X17.13659 Y12.03120
X17.06039 Y11.92960
X17.00959 Y11.92960
X16.90799 Y11.80260
X16.80639 Y11.75180
X16.80639 Y11.70100
X16.57779 Y11.47240
X16.47619 Y11.21840
X16.39999 Y11.14220
X16.27299 Y10.60880
X15.38399 Y10.60880
X15.25699 Y11.14220
X15.18079 Y11.21840
X15.07919 Y11.47240
X14.97759 Y11.54860
X14.97759 Y11.59940
X14.85059 Y11.70100
X14.79979 Y11.80260
X14.74899 Y11.80260
X14.52039 Y12.03120
X14.26639 Y12.13280
X14.19019 Y12.20900
X14.01239 Y12.23440
X13.85999 Y12.31060
X13.45359 Y12.36140
X12.86939 Y12.33600
X12.38679 Y12.20900
X12.31059 Y12.13280
X12.05659 Y12.03120
X11.98039 Y11.92960
X11.92959 Y11.92960
X11.82799 Y11.80260
X11.72639 Y11.75180
X11.72639 Y11.70100
X11.49779 Y11.47240
X11.39619 Y11.21840
X11.34539 Y11.19300
X11.21839 Y10.81200
X11.16759 Y10.40560
X11.19299 Y9.82140
X11.31999 Y9.33880
G04 P0 ( dwell for no time -- G64 should not smooth over this point )
G00 Z3.00000 ( retract )

G00 X11.21839 Y9.23720 ( rapid move to begin. )
F254.00000
G01 Z-0.10000
G04 P0 ( dwell for no time -- G64 should not smooth over this point )
F500.00000
X11.21839 Y9.23720
X11.29459 Y9.16100
X11.39619 Y8.90700
X11.62479 Y8.67840
X11.65019 Y8.60220
X11.72639 Y8.57680
X11.95499 Y8.34820
X12.20899 Y8.24660
X12.28519 Y8.17040
X12.46299 Y8.14500
X12.61539 Y8.06880
X13.02179 Y8.01800
X13.80919 Y8.04340
X14.34259 Y8.19580
X14.36799 Y8.24660
X14.62199 Y8.34820
X14.69819 Y8.44980
X14.74899 Y8.44980
X14.85059 Y8.57680
X14.95219 Y8.62760
X14.95219 Y8.67840
X15.18079 Y8.90700
X15.28239 Y9.16100
X15.35859 Y9.23720
X15.48559 Y9.77060
X16.17139 Y9.77060
X16.29839 Y9.23720
X16.37459 Y9.16100
X16.47619 Y8.90700
X16.70479 Y8.67840
X16.70479 Y8.62760
X16.80639 Y8.57680
X16.90799 Y8.44980
X16.95879 Y8.44980
X17.03499 Y8.34820
X17.28899 Y8.24660
X17.36519 Y8.17040
X17.84779 Y8.04340
X18.63519 Y8.01800
X19.04159 Y8.06880
X19.19399 Y8.14500
X19.37179 Y8.17040
X19.44799 Y8.24660
X19.70199 Y8.34820
X19.77819 Y8.44980
X19.82899 Y8.44980
X19.93059 Y8.57680
X20.03219 Y8.62760
X20.03219 Y8.67840
X20.26079 Y8.90700
X20.36239 Y9.16100
X20.41319 Y9.18640
X20.54019 Y9.56740
X20.59099 Y9.97380
X20.59099 Y10.50720
X20.54019 Y10.91360
X20.46399 Y11.06600
X20.43859 Y11.24380
X20.36239 Y11.32000
X20.26079 Y11.57400
X20.15919 Y11.65020
X20.15919 Y11.70100
X20.03219 Y11.80260
X20.00679 Y11.87880
X19.93059 Y11.90420
X19.70199 Y12.13280
X19.44799 Y12.23440
X19.37179 Y12.31060
X19.19399 Y12.33600
X19.04159 Y12.41220
X18.63519 Y12.46300
X17.84779 Y12.43760
X17.36519 Y12.31060
X17.28899 Y12.23440
X17.03499 Y12.13280
X16.80639 Y11.90420
X16.73019 Y11.87880
X16.70479 Y11.80260
X16.47619 Y11.57400
X16.37459 Y11.32000
X16.29839 Y11.24380
X16.17139 Y10.71040
X15.48559 Y10.71040
X15.35859 Y11.24380
X15.28239 Y11.32000
X15.18079 Y11.57400
X14.95219 Y11.80260
X14.95219 Y11.85340
X14.85059 Y11.90420
X14.74899 Y12.03120
X14.69819 Y12.03120
X14.62199 Y12.13280
X14.36799 Y12.23440
X14.29179 Y12.31060
X14.11399 Y12.33600
X13.96159 Y12.41220
X13.55519 Y12.46300
X13.02179 Y12.46300
X12.61539 Y12.41220
X12.23439 Y12.28520
X12.20899 Y12.23440
X11.95499 Y12.13280
X11.72639 Y11.90420
X11.67559 Y11.90420
X11.62479 Y11.80260
X11.49779 Y11.70100
X11.49779 Y11.65020
X11.39619 Y11.57400
X11.29459 Y11.32000
X11.21839 Y11.24380
X11.19299 Y11.06600
X11.11679 Y10.91360
X11.06599 Y10.50720
X11.09139 Y9.71980
X11.21839 Y9.23720
G04 P0 ( dwell for no time -- G64 should not smooth over this point )
G00 Z3.00000 ( retract )

G00 X8.77999 Y4.99540 ( rapid move to begin. )
F254.00000
G01 Z-0.10000
G04 P0 ( dwell for no time -- G64 should not smooth over this point )
F500.00000
X8.77999 Y4.99540
X10.96439 Y2.81100
X11.06599 Y2.76020
X43.95899 Y2.76020
X44.06059 Y2.81100
X49.19139 Y7.96720
X49.21679 Y16.98420
X54.11899 Y16.98420
X54.22059 Y17.03500
X57.31939 Y20.15920
X57.34479 Y22.36900
X57.75119 Y22.49600
X57.87819 Y22.62300
X57.92899 Y22.62300
X58.10679 Y22.80080
X58.13219 Y22.90240
X58.18299 Y22.92780
X58.25919 Y23.08020
X58.33539 Y23.41040
X58.33539 Y24.50260
X58.25919 Y24.83280
X58.18299 Y24.98520
X58.13219 Y25.01060
X58.10679 Y25.11220
X57.82739 Y25.36620
X57.57339 Y25.49320
X57.26859 Y25.56940
X56.68439 Y25.56940
X56.45579 Y25.51860
X56.27799 Y25.41700
X56.20179 Y25.41700
X55.84619 Y25.11220
X55.82079 Y25.01060
X55.76999 Y24.98520
X55.69379 Y24.83280
X55.61759 Y24.50260
X55.64299 Y23.25800
X55.76999 Y22.92780
X56.02399 Y22.62300
X56.07479 Y22.62300
X56.20179 Y22.49600
X56.60819 Y22.36900
X56.60819 Y20.61640
X53.71259 Y17.72080
X44.89879 Y17.72080
X42.43499 Y20.21000
X42.25719 Y20.26080
X42.25719 Y21.27680
X42.18099 Y21.42920
X42.02859 Y21.50540
X41.59679 Y21.50540
X41.59679 Y28.18560
X41.52059 Y28.33800
X41.08879 Y28.74440
X41.08879 Y30.49700
X41.41899 Y30.57320
X41.54599 Y30.67480
X41.69839 Y30.72560
X41.79999 Y30.85260
X41.85079 Y30.85260
X41.95239 Y30.95420
X41.95239 Y31.00500
X42.07939 Y31.10660
X42.13019 Y31.25900
X42.20639 Y31.33520
X42.33339 Y31.81780
X42.33339 Y32.35120
X42.23179 Y32.78300
X42.13019 Y32.91000
X42.07939 Y33.06240
X41.69839 Y33.44340
X41.54599 Y33.49420
X41.41899 Y33.59580
X40.96179 Y33.69740
X40.47919 Y33.69740
X40.02199 Y33.59580
X39.89499 Y33.49420
X39.74259 Y33.44340
X39.36159 Y33.06240
X39.31079 Y32.91000
X39.20919 Y32.78300
X39.20919 Y32.68140
X39.13299 Y32.52900
X39.13299 Y31.64000
X39.20919 Y31.48760
X39.20919 Y31.38600
X39.31079 Y31.25900
X39.36159 Y31.10660
X39.48859 Y31.00500
X39.48859 Y30.95420
X39.59019 Y30.85260
X39.64099 Y30.85260
X39.74259 Y30.72560
X39.89499 Y30.67480
X40.02199 Y30.57320
X40.35219 Y30.49700
X40.35219 Y28.36340
X40.42839 Y28.21100
X40.86019 Y27.80460
X40.86019 Y21.50540
X40.42839 Y21.50540
X40.27599 Y21.40380
X40.22519 Y21.30220
X40.25059 Y18.38120
X40.35219 Y18.27960
X42.10479 Y18.27960
X42.23179 Y18.38120
X42.25719 Y18.45740
X42.25719 Y19.19400
X44.39079 Y17.03500
X44.49239 Y16.98420
X48.48019 Y16.98420
X48.48019 Y8.42440
X43.55259 Y3.49680
X11.47239 Y3.49680
X9.44039 Y5.52880
X9.44039 Y18.45740
X10.43099 Y18.45740
X10.43099 Y20.51480
X10.63419 Y20.51480
X10.63419 Y22.31820
X8.83079 Y22.31820
X8.83079 Y21.17520
X7.71319 Y21.17520
X7.71319 Y18.45740
X8.70379 Y18.45740
X8.70379 Y5.14780
X8.77999 Y4.99540
G04 P0 ( dwell for no time -- G64 should not smooth over this point )
G00 Z3.00000 ( retract )

G00 X8.67839 Y4.89380 ( rapid move to begin. )
F254.00000
G01 Z-0.10000
G04 P0 ( dwell for no time -- G64 should not smooth over this point )
F500.00000
X8.67839 Y4.89380
X10.86279 Y2.70940
X10.96439 Y2.65860
X44.06059 Y2.65860
X44.16219 Y2.70940
X49.29299 Y7.86560
X49.31839 Y16.88260
X54.22059 Y16.88260
X54.32219 Y16.93340
X57.42099 Y20.05760
X57.44639 Y22.26740
X57.85279 Y22.39440
X57.97979 Y22.52140
X58.03059 Y22.52140
X58.20839 Y22.69920
X58.23379 Y22.80080
X58.28459 Y22.82620
X58.36079 Y22.97860
X58.43699 Y23.30880
X58.43699 Y24.60420
X58.36079 Y24.93440
X58.28459 Y25.08680
X58.23379 Y25.11220
X58.20839 Y25.21380
X57.92899 Y25.46780
X57.67499 Y25.59480
X57.37019 Y25.67100
X56.58279 Y25.67100
X56.35419 Y25.62020
X56.17639 Y25.51860
X56.10019 Y25.51860
X55.74459 Y25.21380
X55.71919 Y25.11220
X55.66839 Y25.08680
X55.59219 Y24.93440
X55.51599 Y24.60420
X55.54139 Y23.15640
X55.66839 Y22.82620
X55.92239 Y22.52140
X55.97319 Y22.52140
X56.10019 Y22.39440
X56.50659 Y22.26740
X56.50659 Y20.71800
X53.61099 Y17.82240
X45.00039 Y17.82240
X42.53659 Y20.31160
X42.35879 Y20.36240
X42.35879 Y21.37840
X42.28259 Y21.53080
X42.13019 Y21.60700
X41.69839 Y21.60700
X41.69839 Y28.28720
X41.62219 Y28.43960
X41.19039 Y28.84600
X41.19039 Y30.39540
X41.52059 Y30.47160
X41.64759 Y30.57320
X41.79999 Y30.62400
X42.18099 Y31.00500
X42.23179 Y31.15740
X42.33339 Y31.28440
X42.43499 Y31.71620
X42.43499 Y32.45280
X42.33339 Y32.88460
X42.23179 Y33.01160
X42.18099 Y33.16400
X41.79999 Y33.54500
X41.64759 Y33.59580
X41.52059 Y33.69740
X41.06339 Y33.79900
X40.37759 Y33.79900
X39.92039 Y33.69740
X39.79339 Y33.59580
X39.64099 Y33.54500
X39.25999 Y33.16400
X39.20919 Y33.01160
X39.10759 Y32.88460
X39.10759 Y32.78300
X39.03139 Y32.63060
X39.00599 Y32.42740
X39.03139 Y31.53840
X39.10759 Y31.38600
X39.10759 Y31.28440
X39.20919 Y31.15740
X39.25999 Y31.00500
X39.38699 Y30.90340
X39.38699 Y30.85260
X39.48859 Y30.75100
X39.53939 Y30.75100
X39.64099 Y30.62400
X39.79339 Y30.57320
X39.92039 Y30.47160
X40.25059 Y30.39540
X40.25059 Y28.26180
X40.32679 Y28.10940
X40.75859 Y27.70300
X40.75859 Y21.60700
X40.32679 Y21.60700
X40.17439 Y21.50540
X40.12359 Y21.40380
X40.14899 Y18.27960
X40.25059 Y18.17800
X42.20639 Y18.17800
X42.33339 Y18.27960
X42.35879 Y18.35580
X42.35879 Y18.88920
X44.28919 Y16.93340
X44.39079 Y16.88260
X48.37859 Y16.88260
X48.37859 Y8.52600
X43.45099 Y3.59840
X11.57399 Y3.59840
X9.54199 Y5.63040
X9.54199 Y18.35580
X10.53259 Y18.35580
X10.53259 Y20.41320
X10.73579 Y20.41320
X10.73579 Y22.41980
X8.72919 Y22.41980
X8.72919 Y21.27680
X7.61159 Y21.27680
X7.61159 Y18.35580
X8.60219 Y18.35580
X8.60219 Y5.04620
X8.67839 Y4.89380
G04 P0 ( dwell for no time -- G64 should not smooth over this point )
G00 Z3.00000 ( retract )

G00 X21.50539 Y45.48300 ( rapid move to begin. )
F254.00000
G01 Z-0.10000
G04 P0 ( dwell for no time -- G64 should not smooth over this point )
F500.00000
X21.50539 Y45.48300
X21.73399 Y45.66080
X21.73399 Y45.71160
X21.86099 Y45.83860
X21.91179 Y45.99100
X21.91179 Y47.64200
X21.86099 Y47.79440
X21.63239 Y48.07380
X21.37839 Y48.20080
X20.59099 Y48.22620
X20.36239 Y48.17540
X20.08299 Y47.97220
X20.08299 Y47.92140
X19.95599 Y47.79440
X19.90519 Y47.64200
X19.90519 Y45.99100
X19.95599 Y45.83860
X20.18459 Y45.55920
X20.43859 Y45.43220
X21.22599 Y45.40680
X21.50539 Y45.48300
G04 P0 ( dwell for no time -- G64 should not smooth over this point )
G00 Z3.00000 ( retract )

G00 X21.35299 Y45.55920 ( rapid move to begin. )
F254.00000
G01 Z-0.10000
G04 P0 ( dwell for no time -- G64 should not smooth over this point )
F500.00000
X21.35299 Y45.55920
X21.63239 Y45.76240
X21.63239 Y45.81320
X21.75939 Y45.94020
X21.81019 Y46.09260
X21.81019 Y47.54040
X21.75939 Y47.69280
X21.53079 Y47.97220
X21.27679 Y48.09920
X20.69259 Y48.12460
X20.46399 Y48.07380
X20.18459 Y47.87060
X20.18459 Y47.81980
X20.05759 Y47.69280
X20.00679 Y47.54040
X20.00679 Y46.09260
X20.05759 Y45.94020
X20.28619 Y45.66080
X20.54019 Y45.53380
X21.12439 Y45.50840
X21.35299 Y45.55920
G04 P0 ( dwell for no time -- G64 should not smooth over this point )
G00 Z3.00000 ( retract )

G00 X28.97299 Y45.55920 ( rapid move to begin. )
F254.00000
G01 Z-0.10000
G04 P0 ( dwell for no time -- G64 should not smooth over this point )
F500.00000
X28.97299 Y45.55920
X29.25239 Y45.76240
X29.25239 Y45.81320
X29.37939 Y45.94020
X29.43019 Y46.09260
X29.43019 Y47.54040
X29.37939 Y47.69280
X29.15079 Y47.97220
X28.89679 Y48.09920
X28.31259 Y48.12460
X28.08399 Y48.07380
X27.80459 Y47.87060
X27.80459 Y47.81980
X27.67759 Y47.69280
X27.62679 Y47.54040
X27.62679 Y46.09260
X27.67759 Y45.94020
X27.90619 Y45.66080
X28.16019 Y45.53380
X28.74439 Y45.50840
X28.97299 Y45.55920
G04 P0 ( dwell for no time -- G64 should not smooth over this point )
G00 Z3.00000 ( retract )

G00 X29.12539 Y45.48300 ( rapid move to begin. )
F254.00000
G01 Z-0.10000
G04 P0 ( dwell for no time -- G64 should not smooth over this point )
F500.00000
X29.12539 Y45.48300
X29.35399 Y45.66080
X29.35399 Y45.71160
X29.48099 Y45.83860
X29.53179 Y45.99100
X29.53179 Y47.64200
X29.48099 Y47.79440
X29.25239 Y48.07380
X28.99839 Y48.20080
X28.21099 Y48.22620
X27.98239 Y48.17540
X27.70299 Y47.97220
X27.70299 Y47.92140
X27.57599 Y47.79440
X27.52519 Y47.64200
X27.52519 Y45.99100
X27.57599 Y45.83860
X27.80459 Y45.55920
X28.05859 Y45.43220
X28.84599 Y45.40680
X29.12539 Y45.48300
G04 P0 ( dwell for no time -- G64 should not smooth over this point )
G00 Z3.00000 ( retract )

G00 X75.04859 Y29.96360 ( rapid move to begin. )
F254.00000
G01 Z-0.10000
G04 P0 ( dwell for no time -- G64 should not smooth over this point )
F500.00000
X75.04859 Y29.96360
X75.53119 Y30.11600
X75.86139 Y30.39540
X76.03919 Y30.70020
X76.11539 Y31.03040
X76.11539 Y32.12260
X76.03919 Y32.45280
X75.96299 Y32.60520
X75.91219 Y32.63060
X75.88679 Y32.73220
X75.70899 Y32.91000
X75.65819 Y32.91000
X75.53119 Y33.03700
X75.35339 Y33.08780
X75.35339 Y49.26760
X76.36939 Y49.26760
X76.36939 Y52.49340
X73.14359 Y52.49340
X73.14359 Y49.26760
X74.13419 Y49.26760
X74.13419 Y33.08780
X73.98179 Y33.03700
X73.85479 Y32.91000
X73.80399 Y32.91000
X73.62619 Y32.73220
X73.60079 Y32.63060
X73.54999 Y32.60520
X73.47379 Y32.45280
X73.39759 Y32.12260
X73.39759 Y31.03040
X73.47379 Y30.70020
X73.54999 Y30.54780
X73.60079 Y30.52240
X73.62619 Y30.42080
X73.98179 Y30.11600
X74.46439 Y29.96360
X75.04859 Y29.96360
G04 P0 ( dwell for no time -- G64 should not smooth over this point )
G00 Z3.00000 ( retract )

G00 X75.15019 Y29.86200 ( rapid move to begin. )
F254.00000
G01 Z-0.10000
G04 P0 ( dwell for no time -- G64 should not smooth over this point )
F500.00000
X75.15019 Y29.86200
X75.63279 Y30.01440
X75.65819 Y30.06520
X75.83599 Y30.16680
X75.98839 Y30.31920
X76.01379 Y30.42080
X76.08999 Y30.49700
X76.21699 Y30.92880
X76.21699 Y32.22420
X76.14079 Y32.55440
X76.06459 Y32.70680
X76.01379 Y32.73220
X75.98839 Y32.83380
X75.81059 Y33.01160
X75.75979 Y33.01160
X75.63279 Y33.13860
X75.45499 Y33.18940
X75.45499 Y49.16600
X76.47099 Y49.16600
X76.47099 Y52.59500
X73.04199 Y52.59500
X73.04199 Y49.16600
X74.03259 Y49.16600
X74.03259 Y33.18940
X73.88019 Y33.13860
X73.75319 Y33.01160
X73.70239 Y33.01160
X73.52459 Y32.83380
X73.49919 Y32.73220
X73.44839 Y32.70680
X73.37219 Y32.55440
X73.29599 Y32.22420
X73.29599 Y30.92880
X73.37219 Y30.59860
X73.44839 Y30.44620
X73.49919 Y30.42080
X73.52459 Y30.31920
X73.88019 Y30.01440
X74.36279 Y29.86200
X75.15019 Y29.86200
G04 P0 ( dwell for no time -- G64 should not smooth over this point )
G00 Z3.00000 ( retract )

G00 X75.83599 Y8.52600 ( rapid move to begin. )
F254.00000
G01 Z-0.10000
G04 P0 ( dwell for no time -- G64 should not smooth over this point )
F500.00000
X75.83599 Y8.52600
X75.91219 Y8.62760
X75.96299 Y8.62760
X76.06459 Y8.75460
X76.16619 Y8.80540
X76.16619 Y8.85620
X76.39479 Y9.08480
X76.49639 Y9.33880
X76.57259 Y9.41500
X76.59799 Y9.59280
X76.67419 Y9.74520
X76.72499 Y10.15160
X76.69959 Y10.93900
X76.57259 Y11.42160
X76.49639 Y11.49780
X76.39479 Y11.75180
X76.29319 Y11.82800
X76.29319 Y11.87880
X76.16619 Y11.98040
X76.11539 Y12.08200
X76.06459 Y12.08200
X75.83599 Y12.31060
X75.58199 Y12.41220
X75.50579 Y12.48840
X75.32799 Y12.51380
X75.17559 Y12.59000
X74.76919 Y12.64080
X73.98179 Y12.61540
X73.49919 Y12.48840
X73.42299 Y12.41220
X73.16899 Y12.31060
X72.94039 Y12.08200
X72.88959 Y12.08200
X72.83879 Y11.98040
X72.71179 Y11.87880
X72.71179 Y11.82800
X72.61019 Y11.75180
X72.50859 Y11.49780
X72.43239 Y11.42160
X72.40699 Y11.24380
X72.33079 Y11.09140
X72.27999 Y10.68500
X72.30539 Y9.89760
X72.43239 Y9.41500
X72.50859 Y9.33880
X72.61019 Y9.08480
X72.83879 Y8.85620
X72.86419 Y8.78000
X72.94039 Y8.75460
X73.04199 Y8.62760
X73.09279 Y8.62760
X73.16899 Y8.52600
X73.42299 Y8.42440
X73.49919 Y8.34820
X73.67699 Y8.32280
X73.82939 Y8.24660
X74.23579 Y8.19580
X75.02319 Y8.22120
X75.50579 Y8.34820
X75.58199 Y8.42440
X75.83599 Y8.52600
G04 P0 ( dwell for no time -- G64 should not smooth over this point )
G00 Z3.00000 ( retract )

G00 X75.40419 Y8.44980 ( rapid move to begin. )
F254.00000
G01 Z-0.10000
G04 P0 ( dwell for no time -- G64 should not smooth over this point )
F500.00000
X75.40419 Y8.44980
X75.48039 Y8.52600
X75.73439 Y8.62760
X75.96299 Y8.85620
X76.01379 Y8.85620
X76.06459 Y8.95780
X76.19159 Y9.05940
X76.19159 Y9.11020
X76.29319 Y9.18640
X76.39479 Y9.44040
X76.47099 Y9.51660
X76.49639 Y9.69440
X76.57259 Y9.84680
X76.62339 Y10.25320
X76.59799 Y10.83740
X76.47099 Y11.32000
X76.39479 Y11.39620
X76.29319 Y11.65020
X76.19159 Y11.72640
X76.19159 Y11.77720
X76.06459 Y11.87880
X76.01379 Y11.98040
X75.96299 Y11.98040
X75.73439 Y12.20900
X75.48039 Y12.31060
X75.40419 Y12.38680
X75.22639 Y12.41220
X75.07399 Y12.48840
X74.66759 Y12.53920
X74.08339 Y12.51380
X73.60079 Y12.38680
X73.52459 Y12.31060
X73.27059 Y12.20900
X73.19439 Y12.10740
X73.14359 Y12.10740
X73.04199 Y11.98040
X72.96579 Y11.95500
X72.94039 Y11.87880
X72.71179 Y11.65020
X72.61019 Y11.39620
X72.53399 Y11.32000
X72.50859 Y11.14220
X72.43239 Y10.98980
X72.38159 Y10.58340
X72.40699 Y9.99920
X72.53399 Y9.51660
X72.61019 Y9.44040
X72.71179 Y9.18640
X72.81339 Y9.11020
X72.81339 Y9.05940
X72.94039 Y8.95780
X72.96579 Y8.88160
X73.04199 Y8.85620
X73.27059 Y8.62760
X73.52459 Y8.52600
X73.60079 Y8.44980
X73.77859 Y8.42440
X73.93099 Y8.34820
X74.33739 Y8.29740
X74.92159 Y8.32280
X75.40419 Y8.44980
G04 P0 ( dwell for no time -- G64 should not smooth over this point )
G00 Z3.00000 ( retract )

G00 X80.02699 Y3.01420 ( rapid move to begin. )
F254.00000
G01 Z-0.10000
G04 P0 ( dwell for no time -- G64 should not smooth over this point )
F500.00000
X80.02699 Y3.01420
X80.23019 Y3.09040
X80.33179 Y3.19200
X83.91319 Y6.77340
X83.98939 Y6.97660
X83.98939 Y56.15100
X83.91319 Y56.35420
X81.95739 Y58.31000
X81.24619 Y59.02120
X81.04299 Y59.09740
X70.98459 Y59.09740
X70.78139 Y59.02120
X70.67979 Y58.91960
X69.13039 Y57.37020
X69.05419 Y57.16700
X69.05419 Y52.39180
X68.87639 Y52.34100
X68.85099 Y52.29020
X68.69859 Y52.23940
X68.59699 Y52.11240
X68.54619 Y52.11240
X68.44459 Y52.01080
X68.44459 Y51.96000
X68.31759 Y51.85840
X68.26679 Y51.70600
X68.21599 Y51.68060
X68.08899 Y51.32500
X68.06359 Y50.63920
X68.16519 Y50.18200
X68.26679 Y50.05500
X68.31759 Y49.90260
X68.44459 Y49.80100
X68.44459 Y49.75020
X68.54619 Y49.64860
X68.59699 Y49.64860
X68.69859 Y49.52160
X68.85099 Y49.47080
X68.97799 Y49.36920
X69.07959 Y49.36920
X69.23199 Y49.29300
X69.94319 Y49.26760
X70.47659 Y49.42000
X70.50199 Y49.47080
X70.65439 Y49.52160
X70.75599 Y49.64860
X70.80679 Y49.64860
X70.90839 Y49.75020
X70.90839 Y49.80100
X71.03539 Y49.90260
X71.08619 Y50.05500
X71.18779 Y50.18200
X71.21319 Y50.35980
X71.26399 Y50.43600
X71.28939 Y51.14720
X71.13699 Y51.68060
X71.08619 Y51.70600
X71.03539 Y51.85840
X70.90839 Y51.96000
X70.90839 Y52.01080
X70.80679 Y52.11240
X70.75599 Y52.11240
X70.65439 Y52.23940
X70.50199 Y52.29020
X70.37499 Y52.39180
X70.27339 Y52.39180
X70.27339 Y56.65900
X71.49259 Y57.87820
X80.53499 Y57.87820
X82.77019 Y55.64300
X82.77019 Y7.48460
X79.51899 Y4.23340
X63.44079 Y4.23340
X60.16419 Y7.51000
X60.16419 Y8.37360
X60.51979 Y8.47520
X60.54519 Y8.52600
X60.79919 Y8.62760
X60.87539 Y8.72920
X60.92619 Y8.72920
X61.02779 Y8.85620
X61.10399 Y8.88160
X61.12939 Y8.95780
X61.25639 Y9.05940
X61.25639 Y9.11020
X61.35799 Y9.18640
X61.45959 Y9.44040
X61.53579 Y9.51660
X61.56119 Y9.69440
X61.63739 Y9.84680
X61.68819 Y10.25320
X61.63739 Y10.98980
X61.56119 Y11.14220
X61.53579 Y11.32000
X61.45959 Y11.39620
X61.35799 Y11.65020
X61.25639 Y11.72640
X61.25639 Y11.77720
X61.12939 Y11.87880
X61.07859 Y11.98040
X61.02779 Y11.98040
X60.79919 Y12.20900
X60.54519 Y12.31060
X60.46899 Y12.38680
X60.29119 Y12.41220
X60.13879 Y12.48840
X59.73239 Y12.53920
X58.99579 Y12.48840
X58.84339 Y12.41220
X58.66559 Y12.38680
X58.58939 Y12.31060
X58.33539 Y12.20900
X58.10679 Y11.98040
X58.05599 Y11.98040
X58.00519 Y11.87880
X57.87819 Y11.77720
X57.87819 Y11.72640
X57.77659 Y11.65020
X57.67499 Y11.39620
X57.59879 Y11.32000
X57.57339 Y11.14220
X57.49719 Y10.98980
X57.44639 Y10.58340
X57.47179 Y9.99920
X57.59879 Y9.51660
X57.67499 Y9.44040
X57.77659 Y9.18640
X58.00519 Y8.95780
X58.00519 Y8.90700
X58.10679 Y8.85620
X58.20839 Y8.72920
X58.25919 Y8.72920
X58.33539 Y8.62760
X58.58939 Y8.52600
X58.66559 Y8.44980
X58.94499 Y8.37360
X58.94499 Y7.00200
X59.02119 Y6.79880
X62.72959 Y3.09040
X62.83119 Y3.03960
X80.02699 Y3.01420
G04 P0 ( dwell for no time -- G64 should not smooth over this point )
G00 Z3.00000 ( retract )

G00 X80.12859 Y2.91260 ( rapid move to begin. )
F254.00000
G01 Z-0.10000
G04 P0 ( dwell for no time -- G64 should not smooth over this point )
F500.00000
X80.12859 Y2.91260
X80.33179 Y2.98880
X84.01479 Y6.67180
X84.09099 Y6.87500
X84.09099 Y56.25260
X83.98939 Y56.48120
X81.34779 Y59.12280
X81.14459 Y59.19900
X70.88299 Y59.19900
X70.67979 Y59.12280
X69.02879 Y57.47180
X68.95259 Y57.26860
X68.95259 Y52.49340
X68.87639 Y52.49340
X68.74939 Y52.39180
X68.59699 Y52.34100
X68.21599 Y51.96000
X68.16519 Y51.80760
X68.06359 Y51.68060
X67.96199 Y51.22340
X67.96199 Y50.53760
X68.06359 Y50.08040
X68.16519 Y49.95340
X68.21599 Y49.80100
X68.34299 Y49.69940
X68.34299 Y49.64860
X68.44459 Y49.54700
X68.49539 Y49.54700
X68.59699 Y49.42000
X68.74939 Y49.36920
X68.87639 Y49.26760
X69.30819 Y49.16600
X70.04479 Y49.16600
X70.47659 Y49.26760
X70.60359 Y49.36920
X70.75599 Y49.42000
X70.85759 Y49.54700
X70.90839 Y49.54700
X71.00999 Y49.64860
X71.00999 Y49.69940
X71.13699 Y49.80100
X71.31479 Y50.15660
X71.39099 Y50.51220
X71.39099 Y51.24880
X71.28939 Y51.68060
X71.18779 Y51.80760
X71.13699 Y51.96000
X71.00999 Y52.06160
X71.00999 Y52.11240
X70.90839 Y52.21400
X70.85759 Y52.21400
X70.75599 Y52.34100
X70.60359 Y52.39180
X70.57819 Y52.44260
X70.37499 Y52.49340
X70.37499 Y56.55740
X71.59419 Y57.77660
X80.43339 Y57.77660
X82.66859 Y55.54140
X82.66859 Y7.58620
X79.41739 Y4.33500
X63.54239 Y4.33500
X60.26579 Y7.61160
X60.26579 Y8.27200
X60.62139 Y8.37360
X60.64679 Y8.42440
X60.90079 Y8.52600
X61.12939 Y8.75460
X61.18019 Y8.75460
X61.23099 Y8.85620
X61.35799 Y8.95780
X61.35799 Y9.00860
X61.45959 Y9.08480
X61.56119 Y9.33880
X61.63739 Y9.41500
X61.66279 Y9.59280
X61.73899 Y9.74520
X61.78979 Y10.15160
X61.78979 Y10.68500
X61.73899 Y11.09140
X61.66279 Y11.24380
X61.63739 Y11.42160
X61.56119 Y11.49780
X61.45959 Y11.75180
X61.35799 Y11.82800
X61.35799 Y11.87880
X61.23099 Y11.98040
X61.18019 Y12.08200
X61.12939 Y12.08200
X60.90079 Y12.31060
X60.64679 Y12.41220
X60.57059 Y12.48840
X60.39279 Y12.51380
X60.24039 Y12.59000
X59.83399 Y12.64080
X59.30059 Y12.64080
X58.89419 Y12.59000
X58.74179 Y12.51380
X58.56399 Y12.48840
X58.48779 Y12.41220
X58.23379 Y12.31060
X58.00519 Y12.08200
X57.95439 Y12.08200
X57.90359 Y11.98040
X57.77659 Y11.87880
X57.77659 Y11.82800
X57.67499 Y11.75180
X57.57339 Y11.49780
X57.49719 Y11.42160
X57.47179 Y11.24380
X57.39559 Y11.09140
X57.34479 Y10.68500
X57.37019 Y9.89760
X57.49719 Y9.41500
X57.57339 Y9.33880
X57.67499 Y9.08480
X57.90359 Y8.85620
X57.90359 Y8.80540
X58.00519 Y8.75460
X58.10679 Y8.62760
X58.15759 Y8.62760
X58.23379 Y8.52600
X58.48779 Y8.42440
X58.56399 Y8.34820
X58.84339 Y8.27200
X58.84339 Y6.90040
X58.91959 Y6.69720
X62.62799 Y2.98880
X62.72959 Y2.93800
X80.12859 Y2.91260
G04 P0 ( dwell for no time -- G64 should not smooth over this point )
G00 Z3.00000 ( retract )

G00 X67.32699 Y8.19580 ( rapid move to begin. )
F254.00000
G01 Z-0.10000
G04 P0 ( dwell for no time -- G64 should not smooth over this point )
F500.00000
X67.32699 Y8.19580
X67.73339 Y8.24660
X67.88579 Y8.32280
X67.98739 Y8.32280
X68.39379 Y8.52600
X68.62239 Y8.75460
X68.67319 Y8.75460
X68.72399 Y8.85620
X68.85099 Y8.95780
X68.85099 Y9.00860
X68.95259 Y9.08480
X69.05419 Y9.33880
X69.13039 Y9.41500
X69.15579 Y9.59280
X69.23199 Y9.74520
X69.28279 Y10.15160
X69.28279 Y10.68500
X69.23199 Y11.09140
X69.15579 Y11.24380
X69.15579 Y11.34540
X68.95259 Y11.75180
X68.72399 Y11.98040
X68.69859 Y12.05660
X68.62239 Y12.08200
X68.39379 Y12.31060
X68.13979 Y12.41220
X68.06359 Y12.48840
X67.83499 Y12.53920
X67.83499 Y29.96360
X68.01279 Y30.01440
X68.13979 Y30.14140
X68.19059 Y30.14140
X68.36839 Y30.31920
X68.39379 Y30.42080
X68.44459 Y30.44620
X68.52079 Y30.59860
X68.59699 Y30.92880
X68.59699 Y32.22420
X68.52079 Y32.55440
X68.44459 Y32.70680
X68.39379 Y32.73220
X68.36839 Y32.83380
X68.01279 Y33.13860
X67.53019 Y33.29100
X66.74279 Y33.29100
X66.26019 Y33.13860
X66.05699 Y32.98620
X65.82839 Y32.70680
X65.75219 Y32.55440
X65.67599 Y32.22420
X65.67599 Y30.92880
X65.75219 Y30.59860
X65.82839 Y30.44620
X65.87919 Y30.42080
X65.90459 Y30.31920
X66.08239 Y30.14140
X66.13319 Y30.14140
X66.26019 Y30.01440
X66.41259 Y29.96360
X66.41259 Y12.59000
X66.05699 Y12.48840
X65.98079 Y12.41220
X65.72679 Y12.31060
X65.65059 Y12.20900
X65.59979 Y12.20900
X65.49819 Y12.08200
X65.39659 Y12.03120
X65.39659 Y11.98040
X65.16799 Y11.75180
X65.06639 Y11.49780
X64.99019 Y11.42160
X64.96479 Y11.24380
X64.88859 Y11.09140
X64.83779 Y10.68500
X64.83779 Y10.15160
X64.88859 Y9.74520
X64.96479 Y9.59280
X64.96479 Y9.49120
X65.16799 Y9.08480
X65.39659 Y8.85620
X65.39659 Y8.80540
X65.49819 Y8.75460
X65.59979 Y8.62760
X65.65059 Y8.62760
X65.72679 Y8.52600
X65.98079 Y8.42440
X66.05699 Y8.34820
X66.23479 Y8.32280
X66.38719 Y8.24660
X66.79359 Y8.19580
X67.32699 Y8.19580
G04 P0 ( dwell for no time -- G64 should not smooth over this point )
G00 Z3.00000 ( retract )

G00 X67.22539 Y8.29740 ( rapid move to begin. )
F254.00000
G01 Z-0.10000
G04 P0 ( dwell for no time -- G64 should not smooth over this point )
F500.00000
X67.22539 Y8.29740
X67.63179 Y8.34820
X67.78419 Y8.42440
X67.96199 Y8.44980
X68.03819 Y8.52600
X68.29219 Y8.62760
X68.36839 Y8.72920
X68.41919 Y8.72920
X68.52079 Y8.85620
X68.62239 Y8.90700
X68.62239 Y8.95780
X68.85099 Y9.18640
X68.95259 Y9.44040
X69.02879 Y9.51660
X69.15579 Y9.99920
X69.18119 Y10.58340
X69.13039 Y10.98980
X69.05419 Y11.14220
X69.05419 Y11.24380
X68.85099 Y11.65020
X68.62239 Y11.87880
X68.62239 Y11.92960
X68.52079 Y11.98040
X68.41919 Y12.10740
X68.36839 Y12.10740
X68.29219 Y12.20900
X68.03819 Y12.31060
X67.96199 Y12.38680
X67.73339 Y12.43760
X67.73339 Y30.06520
X67.91119 Y30.11600
X68.03819 Y30.24300
X68.08899 Y30.24300
X68.26679 Y30.42080
X68.29219 Y30.52240
X68.34299 Y30.54780
X68.41919 Y30.70020
X68.49539 Y31.03040
X68.49539 Y32.12260
X68.41919 Y32.45280
X68.34299 Y32.60520
X68.29219 Y32.63060
X68.26679 Y32.73220
X67.91119 Y33.03700
X67.42859 Y33.18940
X66.84439 Y33.18940
X66.36179 Y33.03700
X66.13319 Y32.85920
X66.00619 Y32.73220
X65.98079 Y32.63060
X65.92999 Y32.60520
X65.85379 Y32.45280
X65.77759 Y32.12260
X65.77759 Y31.03040
X65.85379 Y30.70020
X65.92999 Y30.54780
X65.98079 Y30.52240
X66.00619 Y30.42080
X66.18399 Y30.24300
X66.23479 Y30.24300
X66.36179 Y30.11600
X66.51419 Y30.06520
X66.51419 Y12.48840
X66.15859 Y12.38680
X66.08239 Y12.31060
X65.82839 Y12.20900
X65.75219 Y12.10740
X65.70139 Y12.10740
X65.59979 Y11.98040
X65.49819 Y11.92960
X65.49819 Y11.87880
X65.26959 Y11.65020
X65.16799 Y11.39620
X65.09179 Y11.32000
X65.06639 Y11.14220
X64.99019 Y10.98980
X64.93939 Y10.25320
X64.99019 Y9.84680
X65.06639 Y9.69440
X65.09179 Y9.51660
X65.16799 Y9.44040
X65.26959 Y9.18640
X65.37119 Y9.11020
X65.37119 Y9.05940
X65.49819 Y8.95780
X65.54899 Y8.85620
X65.59979 Y8.85620
X65.82839 Y8.62760
X66.08239 Y8.52600
X66.15859 Y8.44980
X66.64119 Y8.32280
X67.22539 Y8.29740

G04 P0 ( dwell for no time -- G64 should not smooth over this point )
G00 Z10.000 ( retract )

M5 ( Spindle off. )
M9 ( Coolant off. )
M2 ( Program end. )

