( pcb2gcode 1.3.2 )
( Software-independent Gcode )
( This file uses a mill head of 1.00000mm to drill the 7 bit sizes. )
( Bit sizes: [0.01570] [0.03150] [0.03740] [0.03940] [0.04330] [0.04720] [0.05980] )

G94       (Millimeters per minute feed rate.)
G21       (Units == Millimeters.)
G91.1     (Incremental arc distance mode.)
G90       (Absolute coordinates.)
S2    (RPM spindle speed.)
F128.00000 (Feedrate)
M3        (Spindle on clockwise.)
G00 Z3.00000

G0 X40.70779 Y32.07180
G1 Z-1.40000
G0 Z3.00000

G0 X40.70779 Y37.15180
G1 Z-1.40000
G0 Z3.00000

G0 X49.34379 Y21.40380
G1 Z-1.40000
G0 Z3.00000

G0 X45.27979 Y12.76780
G1 Z-1.40000
G0 Z3.00000

G0 X9.04923 Y19.80360
G1 Z-1.40000
G0 Z3.00000

G0 X9.71979 Y21.40380
G1 Z-1.40000
G0 Z3.00000

G0 X12.21915 Y21.40380
G1 Z-1.40000
G0 Z3.00000

G0 X12.88971 Y23.00400
G1 Z-1.40000
G0 Z3.00000

G0 X7.68779 Y35.11980
G1 Z-1.40000
G0 Z3.00000

G0 X7.68779 Y45.11978
G1 Z-1.40000
G0 Z3.00000

G0 X20.89579 Y46.80380
G1 Z-1.40000
G0 Z3.00000

G0 X23.43579 Y46.80380
G1 Z-1.40000
G0 Z3.00000

G0 X25.97579 Y46.80380
G1 Z-1.40000
G0 Z3.00000

G0 X28.51579 Y46.80380
G1 Z-1.40000
G0 Z3.00000

G0 X31.05579 Y46.80380
G1 Z-1.40000
G0 Z3.00000

G0 X33.59579 Y46.80380
G1 Z-1.40000
G0 Z3.00000

G0 X36.13579 Y46.80380
G1 Z-1.40000
G0 Z3.00000

G0 X36.13579 Y39.18380
G1 Z-1.40000
G0 Z3.00000

G0 X33.59579 Y39.18380
G1 Z-1.40000
G0 Z3.00000

G0 X31.05579 Y39.18380
G1 Z-1.40000
G0 Z3.00000

G0 X28.51579 Y39.18380
G1 Z-1.40000
G0 Z3.00000

G0 X25.97579 Y39.18380
G1 Z-1.40000
G0 Z3.00000

G0 X23.43579 Y39.18380
G1 Z-1.40000
G0 Z3.00000

G0 X20.89579 Y39.18380
G1 Z-1.40000
G0 Z3.00000

G0 X46.80379 Y28.00780
G1 Z-1.40000
G0 Z3.00000

G0 X49.34379 Y30.54780
G1 Z-1.40000
G0 Z3.00000

G0 X51.88379 Y28.00780
G1 Z-1.40000
G0 Z3.00000

G0 X56.96379 Y31.56380
G1 Z-1.40000
G0 Z3.00000

G0 X56.96379 Y23.94380
G1 Z-1.40000
G0 Z3.00000

G0 X67.12379 Y31.56380
G1 Z-1.40000
G0 Z3.00000

G0 X74.74379 Y31.56380
G1 Z-1.40000
G0 Z3.00000

G0 X31.21581 Y19.87980
G1 Z-1.40000
G0 Z3.00000

G0 X33.71517 Y19.87980
G1 Z-1.40000
G0 Z3.00000

G0 X36.21453 Y19.87980
G1 Z-1.40000
G0 Z3.00000

G0 X38.71643 Y19.87980
G1 Z-1.40000
G0 Z3.00000

G0 X41.21579 Y19.87980
G1 Z-1.40000
G0 Z3.00000

G0 X59.53935 Y10.41068
G1 Z-1.40000
G0 Z3.00000

G0 X67.03997 Y10.41068
G1 Z-1.40000
G0 Z3.00000

G0 X74.48979 Y10.41068
G1 Z-1.40000
G0 Z3.00000

G0 X15.86570 Y30.03980
G1 Z0.00000
G2 X15.86570 Y30.03980 I-0.04991 J0
G1 Z-0.70000
G2 X15.86570 Y30.03980 I-0.04991 J0
G1 Z-1.40000
G2 X15.86570 Y30.03980 I-0.04991 J0
G0 Z3.00000
G0 X26.02570 Y30.03980
G1 Z0.00000
G2 X26.02570 Y30.03980 I-0.04991 J0
G1 Z-0.70000
G2 X26.02570 Y30.03980 I-0.04991 J0
G1 Z-1.40000
G2 X26.02570 Y30.03980 I-0.04991 J0
G0 Z3.00000
G0 X16.42323 Y35.11980
G1 Z0.00000
G2 X16.42323 Y35.11980 I-0.09944 J0
G1 Z-0.70000
G2 X16.42323 Y35.11980 I-0.09944 J0
G1 Z-1.40000
G2 X16.42323 Y35.11980 I-0.09944 J0
G0 Z3.00000
G0 X16.42323 Y40.19980
G1 Z0.00000
G2 X16.42323 Y40.19980 I-0.09944 J0
G1 Z-0.70000
G2 X16.42323 Y40.19980 I-0.09944 J0
G1 Z-1.40000
G2 X16.42323 Y40.19980 I-0.09944 J0
G0 Z3.00000
G0 X23.53523 Y34.61180
G1 Z0.00000
G2 X23.53523 Y34.61180 I-0.09944 J0
G1 Z-0.70000
G2 X23.53523 Y34.61180 I-0.09944 J0
G1 Z-1.40000
G2 X23.53523 Y34.61180 I-0.09944 J0
G0 Z3.00000
G0 X18.96323 Y25.46780
G1 Z0.00000
G2 X18.96323 Y25.46780 I-0.09944 J0
G1 Z-0.70000
G2 X18.96323 Y25.46780 I-0.09944 J0
G1 Z-1.40000
G2 X18.96323 Y25.46780 I-0.09944 J0
G0 Z3.00000
G0 X31.66323 Y25.46780
G1 Z0.00000
G2 X31.66323 Y25.46780 I-0.09944 J0
G1 Z-0.70000
G2 X31.66323 Y25.46780 I-0.09944 J0
G1 Z-1.40000
G2 X31.66323 Y25.46780 I-0.09944 J0
G0 Z3.00000
G0 X36.23523 Y34.61180
G1 Z0.00000
G2 X36.23523 Y34.61180 I-0.09944 J0
G1 Z-0.70000
G2 X36.23523 Y34.61180 I-0.09944 J0
G1 Z-1.40000
G2 X36.23523 Y34.61180 I-0.09944 J0
G0 Z3.00000
G0 X13.53525 Y10.22780
G1 Z0.00000
G2 X13.53525 Y10.22780 I-0.25946 J0
G1 Z-0.70000
G2 X13.53525 Y10.22780 I-0.25946 J0
G1 Z-1.40000
G2 X13.53525 Y10.22780 I-0.25946 J0
G0 Z3.00000
G0 X18.61525 Y10.22780
G1 Z0.00000
G2 X18.61525 Y10.22780 I-0.25946 J0
G1 Z-0.70000
G2 X18.61525 Y10.22780 I-0.25946 J0
G1 Z-1.40000
G2 X18.61525 Y10.22780 I-0.25946 J0
G0 Z3.00000
G0 X23.69525 Y10.22780
G1 Z0.00000
G2 X23.69525 Y10.22780 I-0.25946 J0
G1 Z-0.70000
G2 X23.69525 Y10.22780 I-0.25946 J0
G1 Z-1.40000
G2 X23.69525 Y10.22780 I-0.25946 J0
G0 Z3.00000
G0 X28.77525 Y10.22780
G1 Z0.00000
G2 X28.77525 Y10.22780 I-0.25946 J0
G1 Z-0.70000
G2 X28.77525 Y10.22780 I-0.25946 J0
G1 Z-1.40000
G2 X28.77525 Y10.22780 I-0.25946 J0
G0 Z3.00000
G0 X33.85525 Y10.22780
G1 Z0.00000
G2 X33.85525 Y10.22780 I-0.25946 J0
G1 Z-0.70000
G2 X33.85525 Y10.22780 I-0.25946 J0
G1 Z-1.40000
G2 X33.85525 Y10.22780 I-0.25946 J0
G0 Z3.00000
G0 X38.93525 Y10.22780
G1 Z0.00000
G2 X38.93525 Y10.22780 I-0.25946 J0
G1 Z-0.70000
G2 X38.93525 Y10.22780 I-0.25946 J0
G1 Z-1.40000
G2 X38.93525 Y10.22780 I-0.25946 J0
G0 Z3.00000
G0 X69.92325 Y50.86780
G1 Z0.00000
G2 X69.92325 Y50.86780 I-0.25946 J0
G1 Z-0.70000
G2 X69.92325 Y50.86780 I-0.25946 J0
G1 Z-1.40000
G2 X69.92325 Y50.86780 I-0.25946 J0
G0 Z3.00000
G0 X75.00325 Y50.86780
G1 Z0.00000
G2 X75.00325 Y50.86780 I-0.25946 J0
G1 Z-0.70000
G2 X75.00325 Y50.86780 I-0.25946 J0
G1 Z-1.40000
G2 X75.00325 Y50.86780 I-0.25946 J0
G0 Z3.00000
G00 Z10.000 ( All done -- retract )

M5      (Spindle off.)
M9      (Coolant off.)
M2      (Program end.)

