( pcb2gcode 1.3.2 )
( Software-independent Gcode )

G94 ( Millimeters per minute feed rate. )
G21 ( Units == Millimeters. )

G90 ( Absolute coordinates. )
S2 ( RPM spindle speed. )
G64 P0.05080 ( set maximum deviation from commanded toolpath )
F500.00000 ( Feedrate. )

F500.00000 ( Feedrate. )
M3 ( Spindle on clockwise. )
G04 P0 ( dwell for no time -- G64 should not smooth over this point )
G00 Z3.00000 ( retract )

G00 X10.53260 Y49.16600 ( rapid move to begin. )
F254.00000
G01 Z-0.10000
G04 P0 ( dwell for no time -- G64 should not smooth over this point )
F500.00000
X10.53260 Y49.16600
X10.53260 Y52.59500
X13.96160 Y52.59500
X13.96160 Y49.16600
X10.53260 Y49.16600
G04 P0 ( dwell for no time -- G64 should not smooth over this point )
G00 Z3.00000 ( retract )

G00 X10.63420 Y49.26760 ( rapid move to begin. )
F254.00000
G01 Z-0.10000
G04 P0 ( dwell for no time -- G64 should not smooth over this point )
F500.00000
X10.63420 Y49.26760
X10.63420 Y52.49340
X13.86000 Y52.49340
X13.86000 Y49.26760
X10.63420 Y49.26760
G04 P0 ( dwell for no time -- G64 should not smooth over this point )
G00 Z3.00000 ( retract )

G00 X16.24760 Y49.42000 ( rapid move to begin. )
F254.00000
G01 Z-0.10000
G04 P0 ( dwell for no time -- G64 should not smooth over this point )
F500.00000
X16.24760 Y49.42000
X15.86660 Y49.80100
X15.81580 Y49.95340
X15.71420 Y50.08040
X15.68880 Y50.25820
X15.63800 Y50.33440
X15.61260 Y51.24880
X15.71420 Y51.68060
X15.81580 Y51.80760
X15.86660 Y51.96000
X16.24760 Y52.34100
X16.40000 Y52.39180
X16.52700 Y52.49340
X16.62860 Y52.49340
X16.78100 Y52.56960
X17.87320 Y52.56960
X18.02560 Y52.49340
X18.12720 Y52.49340
X18.25420 Y52.39180
X18.40660 Y52.34100
X18.78760 Y51.96000
X18.83840 Y51.80760
X18.94000 Y51.68060
X18.94000 Y51.57900
X19.01620 Y51.42660
X19.04160 Y51.22340
X19.01620 Y50.33440
X18.94000 Y50.18200
X18.94000 Y50.08040
X18.83840 Y49.95340
X18.78760 Y49.80100
X18.40660 Y49.42000
X18.25420 Y49.36920
X18.12720 Y49.26760
X18.02560 Y49.26760
X17.87320 Y49.19140
X16.95880 Y49.16600
X16.52700 Y49.26760
X16.40000 Y49.36920
X16.24760 Y49.42000
G04 P0 ( dwell for no time -- G64 should not smooth over this point )
G00 Z3.00000 ( retract )

G00 X16.62860 Y49.36920 ( rapid move to begin. )
F254.00000
G01 Z-0.10000
G04 P0 ( dwell for no time -- G64 should not smooth over this point )
F500.00000
X16.62860 Y49.36920
X16.50160 Y49.47080
X16.34920 Y49.52160
X16.24760 Y49.64860
X16.17140 Y49.67400
X16.09520 Y49.75020
X16.09520 Y49.80100
X15.96820 Y49.90260
X15.91740 Y50.05500
X15.81580 Y50.18200
X15.71420 Y50.61380
X15.71420 Y51.14720
X15.81580 Y51.57900
X15.91740 Y51.70600
X15.96820 Y51.85840
X16.09520 Y51.96000
X16.12060 Y52.03620
X16.19680 Y52.11240
X16.24760 Y52.11240
X16.34920 Y52.23940
X16.50160 Y52.29020
X16.62860 Y52.39180
X17.08580 Y52.49340
X17.56840 Y52.49340
X18.02560 Y52.39180
X18.15260 Y52.29020
X18.30500 Y52.23940
X18.40660 Y52.11240
X18.50820 Y52.06160
X18.55900 Y51.96000
X18.68600 Y51.85840
X18.73680 Y51.70600
X18.83840 Y51.57900
X18.94000 Y51.12180
X18.94000 Y50.63920
X18.83840 Y50.18200
X18.73680 Y50.05500
X18.68600 Y49.90260
X18.55900 Y49.80100
X18.55900 Y49.75020
X18.45740 Y49.64860
X18.40660 Y49.64860
X18.30500 Y49.52160
X18.15260 Y49.47080
X18.02560 Y49.36920
X17.59380 Y49.26760
X17.06040 Y49.26760
X16.62860 Y49.36920
G04 P0 ( dwell for no time -- G64 should not smooth over this point )
G00 Z3.00000 ( retract )

G00 X19.09240 Y30.11600 ( rapid move to begin. )
F254.00000
G01 Z-0.10000
G04 P0 ( dwell for no time -- G64 should not smooth over this point )
F500.00000
X19.09240 Y30.11600
X18.73680 Y30.42080
X18.71140 Y30.52240
X18.66060 Y30.54780
X18.58440 Y30.70020
X18.53360 Y30.87800
X18.50820 Y32.12260
X18.55900 Y32.37660
X18.66060 Y32.60520
X18.71140 Y32.63060
X18.73680 Y32.73220
X19.01620 Y32.98620
X19.44800 Y33.16400
X20.15920 Y33.18940
X20.64180 Y33.03700
X20.99740 Y32.73220
X21.02280 Y32.63060
X21.07360 Y32.60520
X21.14980 Y32.45280
X21.14980 Y32.35120
X21.20060 Y32.27500
X21.22600 Y31.03040
X21.14980 Y30.70020
X21.07360 Y30.54780
X21.02280 Y30.52240
X20.99740 Y30.42080
X20.71800 Y30.16680
X20.28620 Y29.98900
X19.57500 Y29.96360
X19.09240 Y30.11600
G04 P0 ( dwell for no time -- G64 should not smooth over this point )
G00 Z3.00000 ( retract )

G00 X18.99080 Y30.01440 ( rapid move to begin. )
F254.00000
G01 Z-0.10000
G04 P0 ( dwell for no time -- G64 should not smooth over this point )
F500.00000
X18.99080 Y30.01440
X18.63520 Y30.31920
X18.60980 Y30.42080
X18.55900 Y30.44620
X18.48280 Y30.59860
X18.40660 Y30.92880
X18.40660 Y32.22420
X18.45740 Y32.47820
X18.55900 Y32.70680
X18.60980 Y32.73220
X18.68600 Y32.88460
X18.99080 Y33.13860
X19.47340 Y33.29100
X20.26080 Y33.29100
X20.74340 Y33.13860
X21.09900 Y32.83380
X21.12440 Y32.73220
X21.17520 Y32.70680
X21.25140 Y32.55440
X21.32760 Y32.22420
X21.32760 Y30.92880
X21.25140 Y30.59860
X21.17520 Y30.44620
X21.12440 Y30.42080
X21.09900 Y30.31920
X20.74340 Y30.01440
X20.26080 Y29.86200
X19.47340 Y29.86200
X18.99080 Y30.01440
G04 P0 ( dwell for no time -- G64 should not smooth over this point )
G00 Z3.00000 ( retract )

G00 X11.47240 Y30.11600 ( rapid move to begin. )
F254.00000
G01 Z-0.10000
G04 P0 ( dwell for no time -- G64 should not smooth over this point )
F500.00000
X11.47240 Y30.11600
X11.11680 Y30.42080
X11.09140 Y30.52240
X11.04060 Y30.54780
X10.96440 Y30.70020
X10.91360 Y30.87800
X10.88820 Y32.12260
X10.93900 Y32.37660
X11.04060 Y32.60520
X11.09140 Y32.63060
X11.11680 Y32.73220
X11.39620 Y32.98620
X11.82800 Y33.16400
X12.53920 Y33.18940
X13.02180 Y33.03700
X13.37740 Y32.73220
X13.40280 Y32.63060
X13.45360 Y32.60520
X13.52980 Y32.45280
X13.52980 Y32.35120
X13.58060 Y32.27500
X13.60600 Y31.03040
X13.52980 Y30.70020
X13.45360 Y30.54780
X13.40280 Y30.52240
X13.37740 Y30.42080
X13.09800 Y30.16680
X12.66620 Y29.98900
X11.95500 Y29.96360
X11.47240 Y30.11600
G04 P0 ( dwell for no time -- G64 should not smooth over this point )
G00 Z3.00000 ( retract )

G00 X11.37080 Y30.01440 ( rapid move to begin. )
F254.00000
G01 Z-0.10000
G04 P0 ( dwell for no time -- G64 should not smooth over this point )
F500.00000
X11.37080 Y30.01440
X11.01520 Y30.31920
X10.98980 Y30.42080
X10.93900 Y30.44620
X10.86280 Y30.59860
X10.78660 Y30.92880
X10.78660 Y32.22420
X10.83740 Y32.47820
X10.93900 Y32.70680
X10.98980 Y32.73220
X11.01520 Y32.83380
X11.37080 Y33.13860
X11.85340 Y33.29100
X12.64080 Y33.29100
X13.12340 Y33.13860
X13.47900 Y32.83380
X13.50440 Y32.73220
X13.55520 Y32.70680
X13.63140 Y32.55440
X13.70760 Y32.22420
X13.70760 Y30.92880
X13.63140 Y30.59860
X13.55520 Y30.44620
X13.50440 Y30.42080
X13.45360 Y30.29380
X13.12340 Y30.01440
X12.64080 Y29.86200
X11.85340 Y29.86200
X11.37080 Y30.01440
G04 P0 ( dwell for no time -- G64 should not smooth over this point )
G00 Z3.00000 ( retract )

G00 X29.15080 Y30.01440 ( rapid move to begin. )
F254.00000
G01 Z-0.10000
G04 P0 ( dwell for no time -- G64 should not smooth over this point )
F500.00000
X29.15080 Y30.01440
X28.79520 Y30.31920
X28.76980 Y30.42080
X28.71900 Y30.44620
X28.64280 Y30.59860
X28.56660 Y30.92880
X28.56660 Y32.22420
X28.61740 Y32.47820
X28.71900 Y32.70680
X28.76980 Y32.73220
X28.84600 Y32.88460
X29.15080 Y33.13860
X29.63340 Y33.29100
X30.42080 Y33.29100
X30.90340 Y33.13860
X31.25900 Y32.83380
X31.28440 Y32.73220
X31.33520 Y32.70680
X31.41140 Y32.55440
X31.48760 Y32.22420
X31.48760 Y30.92880
X31.41140 Y30.59860
X31.33520 Y30.44620
X31.28440 Y30.42080
X31.23360 Y30.29380
X30.90340 Y30.01440
X30.42080 Y29.86200
X29.63340 Y29.86200
X29.15080 Y30.01440
G04 P0 ( dwell for no time -- G64 should not smooth over this point )
G00 Z3.00000 ( retract )

G00 X29.25240 Y30.11600 ( rapid move to begin. )
F254.00000
G01 Z-0.10000
G04 P0 ( dwell for no time -- G64 should not smooth over this point )
F500.00000
X29.25240 Y30.11600
X28.89680 Y30.42080
X28.87140 Y30.52240
X28.82060 Y30.54780
X28.74440 Y30.70020
X28.69360 Y30.87800
X28.66820 Y32.12260
X28.71900 Y32.37660
X28.82060 Y32.60520
X28.87140 Y32.63060
X28.89680 Y32.73220
X29.17620 Y32.98620
X29.60800 Y33.16400
X30.31920 Y33.18940
X30.80180 Y33.03700
X31.15740 Y32.73220
X31.18280 Y32.63060
X31.23360 Y32.60520
X31.30980 Y32.45280
X31.30980 Y32.35120
X31.36060 Y32.27500
X31.38600 Y31.03040
X31.30980 Y30.70020
X31.23360 Y30.54780
X31.18280 Y30.52240
X31.15740 Y30.42080
X30.87800 Y30.16680
X30.44620 Y29.98900
X29.73500 Y29.96360
X29.25240 Y30.11600
G04 P0 ( dwell for no time -- G64 should not smooth over this point )
G00 Z3.00000 ( retract )

G00 X33.69740 Y26.83940 ( rapid move to begin. )
F254.00000
G01 Z-0.10000
G04 P0 ( dwell for no time -- G64 should not smooth over this point )
F500.00000
X33.69740 Y26.83940
X33.62120 Y27.14420
X33.62120 Y28.89680
X33.67200 Y28.99840
X33.67200 Y29.12540
X33.92600 Y29.40480
X34.18000 Y29.48100
X36.03420 Y29.48100
X36.26280 Y29.40480
X36.31360 Y29.32860
X36.41520 Y29.27780
X36.41520 Y29.22700
X36.51680 Y29.12540
X36.56760 Y28.94760
X36.56760 Y27.09340
X36.49140 Y26.83940
X36.36440 Y26.68700
X36.31360 Y26.68700
X36.21200 Y26.58540
X36.08500 Y26.58540
X35.98340 Y26.53460
X34.23080 Y26.53460
X33.92600 Y26.61080
X33.69740 Y26.83940
G04 P0 ( dwell for no time -- G64 should not smooth over this point )
G00 Z3.00000 ( retract )

G00 X34.02760 Y26.71240 ( rapid move to begin. )
F254.00000
G01 Z-0.10000
G04 P0 ( dwell for no time -- G64 should not smooth over this point )
F500.00000
X34.02760 Y26.71240
X33.79900 Y26.94100
X33.72280 Y27.24580
X33.72280 Y28.79520
X33.77360 Y28.89680
X33.77360 Y29.02380
X33.84980 Y29.07460
X33.84980 Y29.12540
X34.02760 Y29.30320
X34.28160 Y29.37940
X35.93260 Y29.37940
X36.11040 Y29.32860
X36.21200 Y29.22700
X36.26280 Y29.22700
X36.31360 Y29.12540
X36.38980 Y29.07460
X36.46600 Y28.84600
X36.46600 Y27.19500
X36.36440 Y26.89020
X36.16120 Y26.71240
X35.88180 Y26.63620
X34.33240 Y26.63620
X34.02760 Y26.71240
G04 P0 ( dwell for no time -- G64 should not smooth over this point )
G00 Z3.00000 ( retract )

G00 X36.61840 Y29.35400 ( rapid move to begin. )
F254.00000
G01 Z-0.10000
G04 P0 ( dwell for no time -- G64 should not smooth over this point )
F500.00000
X36.61840 Y29.35400
X36.36440 Y29.63340
X36.26280 Y29.83660
X36.18660 Y30.16680
X36.18660 Y30.95420
X36.26280 Y31.28440
X36.41520 Y31.56380
X36.77080 Y31.86860
X37.20260 Y32.02100
X38.09160 Y32.02100
X38.42180 Y31.91940
X38.59960 Y31.81780
X38.62500 Y31.76700
X38.67580 Y31.76700
X38.92980 Y31.48760
X39.03140 Y31.28440
X39.10760 Y30.95420
X39.10760 Y30.16680
X39.03140 Y29.83660
X38.87900 Y29.55720
X38.52340 Y29.25240
X38.06620 Y29.10000
X37.22800 Y29.10000
X36.87240 Y29.20160
X36.66920 Y29.35400
X36.61840 Y29.35400
G04 P0 ( dwell for no time -- G64 should not smooth over this point )
G00 Z3.00000 ( retract )

G00 X36.87240 Y29.35400 ( rapid move to begin. )
F254.00000
G01 Z-0.10000
G04 P0 ( dwell for no time -- G64 should not smooth over this point )
F500.00000
X36.87240 Y29.35400
X36.51680 Y29.65880
X36.36440 Y29.93820
X36.31360 Y30.11600
X36.28820 Y30.85260
X36.36440 Y31.18280
X36.51680 Y31.46220
X36.87240 Y31.76700
X37.30420 Y31.91940
X37.99000 Y31.91940
X38.32020 Y31.81780
X38.52340 Y31.66540
X38.57420 Y31.66540
X38.82820 Y31.38600
X38.95520 Y31.10660
X39.00600 Y30.85260
X38.98060 Y30.11600
X38.92980 Y29.93820
X38.77740 Y29.65880
X38.42180 Y29.35400
X37.96460 Y29.20160
X37.32960 Y29.20160
X36.87240 Y29.35400
G04 P0 ( dwell for no time -- G64 should not smooth over this point )
G00 Z3.00000 ( retract )

G00 X39.15840 Y26.81400 ( rapid move to begin. )
F254.00000
G01 Z-0.10000
G04 P0 ( dwell for no time -- G64 should not smooth over this point )
F500.00000
X39.15840 Y26.81400
X38.90440 Y27.09340
X38.80280 Y27.29660
X38.72660 Y27.62680
X38.72660 Y28.41420
X38.80280 Y28.74440
X38.95520 Y29.02380
X39.31080 Y29.32860
X39.74260 Y29.48100
X40.63160 Y29.48100
X40.96180 Y29.37940
X41.16500 Y29.22700
X41.21580 Y29.22700
X41.46980 Y28.94760
X41.57140 Y28.74440
X41.64760 Y28.41420
X41.64760 Y27.62680
X41.57140 Y27.29660
X41.41900 Y27.01720
X41.06340 Y26.71240
X40.60620 Y26.56000
X39.76800 Y26.56000
X39.41240 Y26.66160
X39.23460 Y26.76320
X39.20920 Y26.81400
X39.15840 Y26.81400
G04 P0 ( dwell for no time -- G64 should not smooth over this point )
G00 Z3.00000 ( retract )

G00 X39.41240 Y26.81400 ( rapid move to begin. )
F254.00000
G01 Z-0.10000
G04 P0 ( dwell for no time -- G64 should not smooth over this point )
F500.00000
X39.41240 Y26.81400
X39.05680 Y27.11880
X38.90440 Y27.39820
X38.85360 Y27.57600
X38.82820 Y28.31260
X38.90440 Y28.64280
X39.05680 Y28.92220
X39.41240 Y29.22700
X39.84420 Y29.37940
X40.53000 Y29.37940
X40.86020 Y29.27780
X41.03800 Y29.17620
X41.06340 Y29.12540
X41.11420 Y29.12540
X41.36820 Y28.84600
X41.46980 Y28.64280
X41.54600 Y28.31260
X41.52060 Y27.57600
X41.46980 Y27.39820
X41.31740 Y27.11880
X40.96180 Y26.81400
X40.50460 Y26.66160
X39.86960 Y26.66160
X39.41240 Y26.81400
G04 P0 ( dwell for no time -- G64 should not smooth over this point )
G00 Z3.00000 ( retract )

G00 X45.73700 Y30.39540 ( rapid move to begin. )
F254.00000
G01 Z-0.10000
G04 P0 ( dwell for no time -- G64 should not smooth over this point )
F500.00000
X45.73700 Y30.39540
X45.38140 Y30.52240
X45.35600 Y30.57320
X45.20360 Y30.62400
X45.10200 Y30.75100
X45.05120 Y30.75100
X44.94960 Y30.85260
X44.94960 Y30.90340
X44.82260 Y31.00500
X44.77180 Y31.15740
X44.67020 Y31.28440
X44.64480 Y31.46220
X44.59400 Y31.53840
X44.56860 Y32.45280
X44.72100 Y32.98620
X44.77180 Y33.01160
X44.82260 Y33.16400
X44.94960 Y33.26560
X44.94960 Y33.31640
X45.05120 Y33.41800
X45.10200 Y33.41800
X45.20360 Y33.54500
X45.35600 Y33.59580
X45.48300 Y33.69740
X45.81320 Y33.77360
X45.81320 Y35.47540
X45.48300 Y35.55160
X45.35600 Y35.65320
X45.20360 Y35.70400
X44.82260 Y36.08500
X44.77180 Y36.23740
X44.67020 Y36.36440
X44.64480 Y36.54220
X44.59400 Y36.61840
X44.56860 Y37.53280
X44.67020 Y37.96460
X44.77180 Y38.09160
X44.82260 Y38.24400
X45.20360 Y38.62500
X45.35600 Y38.67580
X45.48300 Y38.77740
X45.58460 Y38.77740
X45.73700 Y38.85360
X46.62600 Y38.87900
X47.08320 Y38.77740
X47.21020 Y38.67580
X47.36260 Y38.62500
X47.46420 Y38.49800
X47.51500 Y38.49800
X47.61660 Y38.39640
X47.61660 Y38.34560
X47.74360 Y38.24400
X47.79440 Y38.09160
X47.89600 Y37.96460
X47.89600 Y37.86300
X47.97220 Y37.71060
X47.99760 Y36.82160
X47.97220 Y36.61840
X47.84520 Y36.26280
X47.79440 Y36.23740
X47.74360 Y36.08500
X47.61660 Y35.98340
X47.61660 Y35.93260
X47.51500 Y35.83100
X47.46420 Y35.83100
X47.36260 Y35.70400
X47.21020 Y35.65320
X47.08320 Y35.55160
X46.75300 Y35.47540
X46.75300 Y33.77360
X47.08320 Y33.69740
X47.21020 Y33.59580
X47.36260 Y33.54500
X47.74360 Y33.16400
X47.79440 Y33.01160
X47.89600 Y32.88460
X47.89600 Y32.78300
X47.97220 Y32.63060
X47.99760 Y31.74160
X47.97220 Y31.53840
X47.84520 Y31.18280
X47.79440 Y31.15740
X47.74360 Y31.00500
X47.61660 Y30.90340
X47.61660 Y30.85260
X47.51500 Y30.75100
X47.46420 Y30.75100
X47.36260 Y30.62400
X47.21020 Y30.57320
X47.08320 Y30.47160
X46.65140 Y30.37000
X45.73700 Y30.39540
G04 P0 ( dwell for no time -- G64 should not smooth over this point )
G00 Z3.00000 ( retract )

G00 X46.01640 Y30.47160 ( rapid move to begin. )
F254.00000
G01 Z-0.10000
G04 P0 ( dwell for no time -- G64 should not smooth over this point )
F500.00000
X46.01640 Y30.47160
X45.58460 Y30.57320
X45.45760 Y30.67480
X45.30520 Y30.72560
X45.20360 Y30.85260
X45.15280 Y30.85260
X45.05120 Y30.95420
X45.05120 Y31.00500
X44.92420 Y31.10660
X44.87340 Y31.25900
X44.77180 Y31.38600
X44.74640 Y31.56380
X44.69560 Y31.64000
X44.67020 Y31.81780
X44.69560 Y32.52900
X44.74640 Y32.60520
X44.77180 Y32.78300
X44.87340 Y32.91000
X44.92420 Y33.06240
X45.30520 Y33.44340
X45.45760 Y33.49420
X45.58460 Y33.59580
X45.91480 Y33.67200
X45.91480 Y35.57700
X45.58460 Y35.65320
X45.45760 Y35.75480
X45.30520 Y35.80560
X44.92420 Y36.18660
X44.87340 Y36.33900
X44.77180 Y36.46600
X44.74640 Y36.64380
X44.69560 Y36.72000
X44.67020 Y37.43120
X44.77180 Y37.86300
X44.87340 Y37.99000
X44.92420 Y38.14240
X45.30520 Y38.52340
X45.45760 Y38.57420
X45.58460 Y38.67580
X45.68620 Y38.67580
X45.83860 Y38.75200
X46.52440 Y38.77740
X46.98160 Y38.67580
X47.10860 Y38.57420
X47.26100 Y38.52340
X47.36260 Y38.39640
X47.41340 Y38.39640
X47.51500 Y38.29480
X47.51500 Y38.24400
X47.64200 Y38.14240
X47.69280 Y37.99000
X47.79440 Y37.86300
X47.79440 Y37.76140
X47.87060 Y37.60900
X47.87060 Y36.72000
X47.79440 Y36.56760
X47.79440 Y36.46600
X47.69280 Y36.33900
X47.64200 Y36.18660
X47.26100 Y35.80560
X47.10860 Y35.75480
X46.98160 Y35.65320
X46.65140 Y35.57700
X46.65140 Y33.67200
X46.98160 Y33.59580
X47.10860 Y33.49420
X47.26100 Y33.44340
X47.64200 Y33.06240
X47.69280 Y32.91000
X47.79440 Y32.78300
X47.79440 Y32.68140
X47.87060 Y32.52900
X47.89600 Y31.84320
X47.87060 Y31.64000
X47.74360 Y31.28440
X47.69280 Y31.25900
X47.64200 Y31.10660
X47.51500 Y31.00500
X47.51500 Y30.95420
X47.41340 Y30.85260
X47.36260 Y30.85260
X47.26100 Y30.72560
X47.10860 Y30.67480
X46.98160 Y30.57320
X46.88000 Y30.57320
X46.72760 Y30.49700
X46.01640 Y30.47160
G04 P0 ( dwell for no time -- G64 should not smooth over this point )
G00 Z3.00000 ( retract )

G00 X49.77560 Y33.16400 ( rapid move to begin. )
F254.00000
G01 Z-0.10000
G04 P0 ( dwell for no time -- G64 should not smooth over this point )
F500.00000
X49.77560 Y33.16400
X49.39460 Y33.54500
X49.34380 Y33.69740
X49.24220 Y33.82440
X49.21680 Y34.00220
X49.16600 Y34.07840
X49.14060 Y34.99280
X49.24220 Y35.42460
X49.34380 Y35.55160
X49.39460 Y35.70400
X49.77560 Y36.08500
X49.92800 Y36.13580
X50.05500 Y36.23740
X50.15660 Y36.23740
X50.30900 Y36.31360
X51.40120 Y36.31360
X51.55360 Y36.23740
X51.65520 Y36.23740
X51.78220 Y36.13580
X51.93460 Y36.08500
X52.31560 Y35.70400
X52.36640 Y35.55160
X52.46800 Y35.42460
X52.46800 Y35.32300
X52.54420 Y35.17060
X52.56960 Y34.96740
X52.54420 Y34.07840
X52.46800 Y33.92600
X52.46800 Y33.82440
X52.36640 Y33.69740
X52.31560 Y33.54500
X51.93460 Y33.16400
X51.78220 Y33.11320
X51.65520 Y33.01160
X51.55360 Y33.01160
X51.40120 Y32.93540
X50.48680 Y32.91000
X50.05500 Y33.01160
X49.92800 Y33.11320
X49.77560 Y33.16400
G04 P0 ( dwell for no time -- G64 should not smooth over this point )
G00 Z3.00000 ( retract )

G00 X50.15660 Y33.11320 ( rapid move to begin. )
F254.00000
G01 Z-0.10000
G04 P0 ( dwell for no time -- G64 should not smooth over this point )
F500.00000
X50.15660 Y33.11320
X50.02960 Y33.21480
X49.87720 Y33.26560
X49.77560 Y33.39260
X49.72480 Y33.39260
X49.62320 Y33.49420
X49.62320 Y33.54500
X49.49620 Y33.64660
X49.44540 Y33.79900
X49.34380 Y33.92600
X49.24220 Y34.35780
X49.24220 Y34.89120
X49.34380 Y35.32300
X49.44540 Y35.45000
X49.49620 Y35.60240
X49.62320 Y35.70400
X49.64860 Y35.78020
X49.72480 Y35.85640
X49.77560 Y35.85640
X49.87720 Y35.98340
X50.02960 Y36.03420
X50.15660 Y36.13580
X50.61380 Y36.23740
X51.09640 Y36.23740
X51.55360 Y36.13580
X51.68060 Y36.03420
X51.83300 Y35.98340
X51.93460 Y35.85640
X51.98540 Y35.85640
X52.08700 Y35.75480
X52.08700 Y35.70400
X52.21400 Y35.60240
X52.26480 Y35.45000
X52.36640 Y35.32300
X52.46800 Y34.86580
X52.46800 Y34.38320
X52.36640 Y33.92600
X52.26480 Y33.79900
X52.21400 Y33.64660
X52.08700 Y33.54500
X52.06160 Y33.46880
X51.98540 Y33.39260
X51.93460 Y33.39260
X51.83300 Y33.26560
X51.68060 Y33.21480
X51.55360 Y33.11320
X51.12180 Y33.01160
X50.58840 Y33.01160
X50.15660 Y33.11320
G04 P0 ( dwell for no time -- G64 should not smooth over this point )
G00 Z3.00000 ( retract )

G00 X49.85180 Y37.78680 ( rapid move to begin. )
F254.00000
G01 Z-0.10000
G04 P0 ( dwell for no time -- G64 should not smooth over this point )
F500.00000
X49.85180 Y37.78680
X49.85180 Y40.60620
X51.85840 Y40.60620
X51.85840 Y37.78680
X49.85180 Y37.78680
G04 P0 ( dwell for no time -- G64 should not smooth over this point )
G00 Z3.00000 ( retract )

G00 X49.95340 Y37.88840 ( rapid move to begin. )
F254.00000
G01 Z-0.10000
G04 P0 ( dwell for no time -- G64 should not smooth over this point )
F500.00000
X49.95340 Y37.88840
X49.95340 Y40.50460
X51.75680 Y40.50460
X51.75680 Y37.88840
X49.95340 Y37.88840
G04 P0 ( dwell for no time -- G64 should not smooth over this point )
G00 Z3.00000 ( retract )

G00 X52.79820 Y37.86300 ( rapid move to begin. )
F254.00000
G01 Z-0.10000
G04 P0 ( dwell for no time -- G64 should not smooth over this point )
F500.00000
X52.79820 Y37.86300
X52.56960 Y38.04080
X52.56960 Y38.09160
X52.44260 Y38.21860
X52.39180 Y38.37100
X52.39180 Y40.02200
X52.44260 Y40.17440
X52.67120 Y40.45380
X52.92520 Y40.58080
X53.71260 Y40.60620
X53.94120 Y40.55540
X54.22060 Y40.35220
X54.22060 Y40.30140
X54.34760 Y40.17440
X54.39840 Y40.02200
X54.39840 Y38.37100
X54.34760 Y38.21860
X54.11900 Y37.93920
X53.86500 Y37.81220
X53.07760 Y37.78680
X52.79820 Y37.86300
G04 P0 ( dwell for no time -- G64 should not smooth over this point )
G00 Z3.00000 ( retract )

G00 X52.95060 Y37.93920 ( rapid move to begin. )
F254.00000
G01 Z-0.10000
G04 P0 ( dwell for no time -- G64 should not smooth over this point )
F500.00000
X52.95060 Y37.93920
X52.67120 Y38.14240
X52.67120 Y38.19320
X52.54420 Y38.32020
X52.49340 Y38.47260
X52.49340 Y39.92040
X52.54420 Y40.07280
X52.77280 Y40.35220
X53.02680 Y40.47920
X53.61100 Y40.50460
X53.83960 Y40.45380
X54.11900 Y40.25060
X54.11900 Y40.19980
X54.24600 Y40.07280
X54.29680 Y39.92040
X54.29680 Y38.47260
X54.24600 Y38.32020
X54.01740 Y38.04080
X53.76340 Y37.91380
X53.17920 Y37.88840
X52.95060 Y37.93920
G04 P0 ( dwell for no time -- G64 should not smooth over this point )
G00 Z3.00000 ( retract )

G00 X55.33820 Y37.86300 ( rapid move to begin. )
F254.00000
G01 Z-0.10000
G04 P0 ( dwell for no time -- G64 should not smooth over this point )
F500.00000
X55.33820 Y37.86300
X55.10960 Y38.04080
X55.10960 Y38.09160
X54.98260 Y38.21860
X54.93180 Y38.37100
X54.93180 Y40.02200
X54.98260 Y40.17440
X55.21120 Y40.45380
X55.46520 Y40.58080
X56.25260 Y40.60620
X56.48120 Y40.55540
X56.76060 Y40.35220
X56.76060 Y40.30140
X56.88760 Y40.17440
X56.93840 Y40.02200
X56.93840 Y38.37100
X56.88760 Y38.21860
X56.65900 Y37.93920
X56.40500 Y37.81220
X55.61760 Y37.78680
X55.33820 Y37.86300
G04 P0 ( dwell for no time -- G64 should not smooth over this point )
G00 Z3.00000 ( retract )

G00 X55.49060 Y37.93920 ( rapid move to begin. )
F254.00000
G01 Z-0.10000
G04 P0 ( dwell for no time -- G64 should not smooth over this point )
F500.00000
X55.49060 Y37.93920
X55.21120 Y38.14240
X55.21120 Y38.19320
X55.08420 Y38.32020
X55.03340 Y38.47260
X55.03340 Y39.92040
X55.08420 Y40.07280
X55.31280 Y40.35220
X55.56680 Y40.47920
X56.15100 Y40.50460
X56.37960 Y40.45380
X56.65900 Y40.25060
X56.65900 Y40.19980
X56.78600 Y40.07280
X56.83680 Y39.92040
X56.83680 Y38.47260
X56.78600 Y38.32020
X56.55740 Y38.04080
X56.30340 Y37.91380
X55.71920 Y37.88840
X55.49060 Y37.93920
G04 P0 ( dwell for no time -- G64 should not smooth over this point )
G00 Z3.00000 ( retract )

G00 X57.87820 Y37.86300 ( rapid move to begin. )
F254.00000
G01 Z-0.10000
G04 P0 ( dwell for no time -- G64 should not smooth over this point )
F500.00000
X57.87820 Y37.86300
X57.64960 Y38.04080
X57.64960 Y38.09160
X57.52260 Y38.21860
X57.47180 Y38.37100
X57.47180 Y40.02200
X57.52260 Y40.17440
X57.75120 Y40.45380
X58.00520 Y40.58080
X58.79260 Y40.60620
X59.02120 Y40.55540
X59.30060 Y40.35220
X59.30060 Y40.30140
X59.42760 Y40.17440
X59.47840 Y40.02200
X59.47840 Y38.37100
X59.42760 Y38.21860
X59.19900 Y37.93920
X58.94500 Y37.81220
X58.15760 Y37.78680
X57.87820 Y37.86300
G04 P0 ( dwell for no time -- G64 should not smooth over this point )
G00 Z3.00000 ( retract )

G00 X58.03060 Y37.93920 ( rapid move to begin. )
F254.00000
G01 Z-0.10000
G04 P0 ( dwell for no time -- G64 should not smooth over this point )
F500.00000
X58.03060 Y37.93920
X57.75120 Y38.14240
X57.75120 Y38.19320
X57.62420 Y38.32020
X57.57340 Y38.47260
X57.57340 Y39.92040
X57.62420 Y40.07280
X57.85280 Y40.35220
X58.10680 Y40.47920
X58.69100 Y40.50460
X58.91960 Y40.45380
X59.19900 Y40.25060
X59.19900 Y40.19980
X59.32600 Y40.07280
X59.37680 Y39.92040
X59.37680 Y38.47260
X59.32600 Y38.32020
X59.09740 Y38.04080
X58.84340 Y37.91380
X58.25920 Y37.88840
X58.03060 Y37.93920
G04 P0 ( dwell for no time -- G64 should not smooth over this point )
G00 Z3.00000 ( retract )

G00 X60.41820 Y37.86300 ( rapid move to begin. )
F254.00000
G01 Z-0.10000
G04 P0 ( dwell for no time -- G64 should not smooth over this point )
F500.00000
X60.41820 Y37.86300
X60.18960 Y38.04080
X60.18960 Y38.09160
X60.06260 Y38.21860
X60.01180 Y38.37100
X60.01180 Y40.02200
X60.06260 Y40.17440
X60.29120 Y40.45380
X60.54520 Y40.58080
X61.33260 Y40.60620
X61.56120 Y40.55540
X61.84060 Y40.35220
X61.84060 Y40.30140
X61.96760 Y40.17440
X62.01840 Y40.02200
X62.01840 Y38.37100
X61.96760 Y38.21860
X61.73900 Y37.93920
X61.48500 Y37.81220
X60.69760 Y37.78680
X60.41820 Y37.86300
G04 P0 ( dwell for no time -- G64 should not smooth over this point )
G00 Z3.00000 ( retract )

G00 X60.57060 Y37.93920 ( rapid move to begin. )
F254.00000
G01 Z-0.10000
G04 P0 ( dwell for no time -- G64 should not smooth over this point )
F500.00000
X60.57060 Y37.93920
X60.29120 Y38.14240
X60.29120 Y38.19320
X60.16420 Y38.32020
X60.11340 Y38.47260
X60.11340 Y39.92040
X60.16420 Y40.07280
X60.39280 Y40.35220
X60.64680 Y40.47920
X61.23100 Y40.50460
X61.45960 Y40.45380
X61.73900 Y40.25060
X61.73900 Y40.19980
X61.86600 Y40.07280
X61.91680 Y39.92040
X61.91680 Y38.47260
X61.86600 Y38.32020
X61.63740 Y38.04080
X61.38340 Y37.91380
X60.79920 Y37.88840
X60.57060 Y37.93920
G04 P0 ( dwell for no time -- G64 should not smooth over this point )
G00 Z3.00000 ( retract )

G00 X62.95820 Y37.86300 ( rapid move to begin. )
F254.00000
G01 Z-0.10000
G04 P0 ( dwell for no time -- G64 should not smooth over this point )
F500.00000
X62.95820 Y37.86300
X62.72960 Y38.04080
X62.72960 Y38.09160
X62.60260 Y38.21860
X62.55180 Y38.37100
X62.55180 Y40.02200
X62.60260 Y40.17440
X62.83120 Y40.45380
X63.08520 Y40.58080
X63.87260 Y40.60620
X64.10120 Y40.55540
X64.38060 Y40.35220
X64.38060 Y40.30140
X64.50760 Y40.17440
X64.55840 Y40.02200
X64.55840 Y38.37100
X64.50760 Y38.21860
X64.27900 Y37.93920
X64.02500 Y37.81220
X63.23760 Y37.78680
X62.95820 Y37.86300
G04 P0 ( dwell for no time -- G64 should not smooth over this point )
G00 Z3.00000 ( retract )

G00 X63.11060 Y37.93920 ( rapid move to begin. )
F254.00000
G01 Z-0.10000
G04 P0 ( dwell for no time -- G64 should not smooth over this point )
F500.00000
X63.11060 Y37.93920
X62.83120 Y38.14240
X62.83120 Y38.19320
X62.70420 Y38.32020
X62.65340 Y38.47260
X62.65340 Y39.92040
X62.70420 Y40.07280
X62.93280 Y40.35220
X63.18680 Y40.47920
X63.77100 Y40.50460
X63.99960 Y40.45380
X64.27900 Y40.25060
X64.27900 Y40.19980
X64.40600 Y40.07280
X64.45680 Y39.92040
X64.45680 Y38.47260
X64.40600 Y38.32020
X64.17740 Y38.04080
X63.92340 Y37.91380
X63.33920 Y37.88840
X63.11060 Y37.93920
G04 P0 ( dwell for no time -- G64 should not smooth over this point )
G00 Z3.00000 ( retract )

G00 X65.49820 Y37.86300 ( rapid move to begin. )
F254.00000
G01 Z-0.10000
G04 P0 ( dwell for no time -- G64 should not smooth over this point )
F500.00000
X65.49820 Y37.86300
X65.26960 Y38.04080
X65.26960 Y38.09160
X65.14260 Y38.21860
X65.09180 Y38.37100
X65.09180 Y40.02200
X65.14260 Y40.17440
X65.37120 Y40.45380
X65.62520 Y40.58080
X66.41260 Y40.60620
X66.64120 Y40.55540
X66.92060 Y40.35220
X66.92060 Y40.30140
X67.04760 Y40.17440
X67.09840 Y40.02200
X67.09840 Y38.37100
X67.04760 Y38.21860
X66.81900 Y37.93920
X66.56500 Y37.81220
X65.77760 Y37.78680
X65.49820 Y37.86300
G04 P0 ( dwell for no time -- G64 should not smooth over this point )
G00 Z3.00000 ( retract )

G00 X65.65060 Y37.93920 ( rapid move to begin. )
F254.00000
G01 Z-0.10000
G04 P0 ( dwell for no time -- G64 should not smooth over this point )
F500.00000
X65.65060 Y37.93920
X65.37120 Y38.14240
X65.37120 Y38.19320
X65.24420 Y38.32020
X65.19340 Y38.47260
X65.19340 Y39.92040
X65.24420 Y40.07280
X65.47280 Y40.35220
X65.72680 Y40.47920
X66.31100 Y40.50460
X66.53960 Y40.45380
X66.81900 Y40.25060
X66.81900 Y40.19980
X66.94600 Y40.07280
X66.99680 Y39.92040
X66.99680 Y38.47260
X66.94600 Y38.32020
X66.71740 Y38.04080
X66.46340 Y37.91380
X65.87920 Y37.88840
X65.65060 Y37.93920
G04 P0 ( dwell for no time -- G64 should not smooth over this point )
G00 Z3.00000 ( retract )

G00 X69.58760 Y38.75200 ( rapid move to begin. )
F254.00000
G01 Z-0.10000
G04 P0 ( dwell for no time -- G64 should not smooth over this point )
F500.00000
X69.58760 Y38.75200
X69.20660 Y39.13300
X69.15580 Y39.28540
X69.05420 Y39.41240
X69.02880 Y39.59020
X68.97800 Y39.66640
X68.95260 Y40.58080
X69.05420 Y41.01260
X69.15580 Y41.13960
X69.20660 Y41.29200
X69.58760 Y41.67300
X69.74000 Y41.72380
X69.86700 Y41.82540
X69.96860 Y41.82540
X70.12100 Y41.90160
X71.21320 Y41.90160
X71.36560 Y41.82540
X71.46720 Y41.82540
X71.59420 Y41.72380
X71.74660 Y41.67300
X72.12760 Y41.29200
X72.17840 Y41.13960
X72.28000 Y41.01260
X72.28000 Y40.91100
X72.35620 Y40.75860
X72.38160 Y40.55540
X72.35620 Y39.66640
X72.28000 Y39.51400
X72.28000 Y39.41240
X72.17840 Y39.28540
X72.12760 Y39.13300
X71.74660 Y38.75200
X71.59420 Y38.70120
X71.46720 Y38.59960
X71.36560 Y38.59960
X71.21320 Y38.52340
X70.29880 Y38.49800
X69.86700 Y38.59960
X69.74000 Y38.70120
X69.58760 Y38.75200
G04 P0 ( dwell for no time -- G64 should not smooth over this point )
G00 Z3.00000 ( retract )

G00 X69.96860 Y38.70120 ( rapid move to begin. )
F254.00000
G01 Z-0.10000
G04 P0 ( dwell for no time -- G64 should not smooth over this point )
F500.00000
X69.96860 Y38.70120
X69.84160 Y38.80280
X69.68920 Y38.85360
X69.58760 Y38.98060
X69.51140 Y39.00600
X69.43520 Y39.08220
X69.43520 Y39.13300
X69.30820 Y39.23460
X69.25740 Y39.38700
X69.15580 Y39.51400
X69.05420 Y39.94580
X69.05420 Y40.47920
X69.15580 Y40.91100
X69.25740 Y41.03800
X69.30820 Y41.19040
X69.43520 Y41.29200
X69.43520 Y41.34280
X69.53680 Y41.44440
X69.58760 Y41.44440
X69.68920 Y41.57140
X69.84160 Y41.62220
X69.96860 Y41.72380
X70.42580 Y41.82540
X70.90840 Y41.82540
X71.36560 Y41.72380
X71.49260 Y41.62220
X71.64500 Y41.57140
X71.74660 Y41.44440
X71.84820 Y41.39360
X71.89900 Y41.29200
X72.02600 Y41.19040
X72.07680 Y41.03800
X72.17840 Y40.91100
X72.28000 Y40.45380
X72.28000 Y39.97120
X72.17840 Y39.51400
X72.07680 Y39.38700
X72.02600 Y39.23460
X71.89900 Y39.13300
X71.89900 Y39.08220
X71.79740 Y38.98060
X71.74660 Y38.98060
X71.64500 Y38.85360
X71.49260 Y38.80280
X71.36560 Y38.70120
X70.93380 Y38.59960
X70.40040 Y38.59960
X69.96860 Y38.70120
G04 P0 ( dwell for no time -- G64 should not smooth over this point )
G00 Z3.00000 ( retract )

G00 X69.58760 Y33.67200 ( rapid move to begin. )
F254.00000
G01 Z-0.10000
G04 P0 ( dwell for no time -- G64 should not smooth over this point )
F500.00000
X69.58760 Y33.67200
X69.20660 Y34.05300
X69.15580 Y34.20540
X69.05420 Y34.33240
X69.02880 Y34.51020
X68.97800 Y34.58640
X68.95260 Y35.50080
X69.05420 Y35.93260
X69.15580 Y36.05960
X69.20660 Y36.21200
X69.58760 Y36.59300
X69.74000 Y36.64380
X69.86700 Y36.74540
X69.96860 Y36.74540
X70.12100 Y36.82160
X71.21320 Y36.82160
X71.36560 Y36.74540
X71.46720 Y36.74540
X71.59420 Y36.64380
X71.74660 Y36.59300
X72.12760 Y36.21200
X72.17840 Y36.05960
X72.28000 Y35.93260
X72.28000 Y35.83100
X72.35620 Y35.67860
X72.38160 Y35.47540
X72.35620 Y34.58640
X72.28000 Y34.43400
X72.28000 Y34.33240
X72.17840 Y34.20540
X72.12760 Y34.05300
X71.74660 Y33.67200
X71.59420 Y33.62120
X71.46720 Y33.51960
X71.36560 Y33.51960
X71.21320 Y33.44340
X70.29880 Y33.41800
X69.86700 Y33.51960
X69.74000 Y33.62120
X69.58760 Y33.67200
G04 P0 ( dwell for no time -- G64 should not smooth over this point )
G00 Z3.00000 ( retract )

G00 X69.96860 Y33.62120 ( rapid move to begin. )
F254.00000
G01 Z-0.10000
G04 P0 ( dwell for no time -- G64 should not smooth over this point )
F500.00000
X69.96860 Y33.62120
X69.84160 Y33.72280
X69.68920 Y33.77360
X69.58760 Y33.90060
X69.53680 Y33.90060
X69.43520 Y34.00220
X69.43520 Y34.05300
X69.30820 Y34.15460
X69.25740 Y34.30700
X69.15580 Y34.43400
X69.05420 Y34.86580
X69.05420 Y35.39920
X69.15580 Y35.83100
X69.25740 Y35.95800
X69.30820 Y36.11040
X69.43520 Y36.21200
X69.43520 Y36.26280
X69.53680 Y36.36440
X69.58760 Y36.36440
X69.68920 Y36.49140
X69.84160 Y36.54220
X69.96860 Y36.64380
X70.42580 Y36.74540
X70.90840 Y36.74540
X71.36560 Y36.64380
X71.49260 Y36.54220
X71.64500 Y36.49140
X71.74660 Y36.36440
X71.84820 Y36.31360
X71.89900 Y36.21200
X72.02600 Y36.11040
X72.07680 Y35.95800
X72.17840 Y35.83100
X72.28000 Y35.37380
X72.28000 Y34.89120
X72.17840 Y34.43400
X72.07680 Y34.30700
X72.02600 Y34.15460
X71.89900 Y34.05300
X71.89900 Y34.00220
X71.79740 Y33.90060
X71.74660 Y33.90060
X71.64500 Y33.77360
X71.49260 Y33.72280
X71.36560 Y33.62120
X70.93380 Y33.51960
X70.40040 Y33.51960
X69.96860 Y33.62120
G04 P0 ( dwell for no time -- G64 should not smooth over this point )
G00 Z3.00000 ( retract )

G00 X70.09560 Y28.59200 ( rapid move to begin. )
F254.00000
G01 Z-0.10000
G04 P0 ( dwell for no time -- G64 should not smooth over this point )
F500.00000
X70.09560 Y28.59200
X69.71460 Y28.97300
X69.66380 Y29.12540
X69.56220 Y29.25240
X69.53680 Y29.43020
X69.48600 Y29.50640
X69.46060 Y30.42080
X69.56220 Y30.85260
X69.66380 Y30.97960
X69.71460 Y31.13200
X70.09560 Y31.51300
X70.24800 Y31.56380
X70.37500 Y31.66540
X70.47660 Y31.66540
X70.62900 Y31.74160
X70.83220 Y31.76700
X71.72120 Y31.74160
X71.87360 Y31.66540
X71.97520 Y31.66540
X72.10220 Y31.56380
X72.25460 Y31.51300
X72.63560 Y31.13200
X72.68640 Y30.97960
X72.78800 Y30.85260
X72.78800 Y30.75100
X72.86420 Y30.59860
X72.86420 Y29.50640
X72.78800 Y29.35400
X72.78800 Y29.25240
X72.68640 Y29.12540
X72.63560 Y28.97300
X72.25460 Y28.59200
X72.10220 Y28.54120
X71.97520 Y28.43960
X71.87360 Y28.43960
X71.72120 Y28.36340
X70.80680 Y28.33800
X70.37500 Y28.43960
X70.24800 Y28.54120
X70.09560 Y28.59200
G04 P0 ( dwell for no time -- G64 should not smooth over this point )
G00 Z3.00000 ( retract )

G00 X70.47660 Y28.54120 ( rapid move to begin. )
F254.00000
G01 Z-0.10000
G04 P0 ( dwell for no time -- G64 should not smooth over this point )
F500.00000
X70.47660 Y28.54120
X70.34960 Y28.64280
X70.19720 Y28.69360
X70.09560 Y28.82060
X70.04480 Y28.82060
X69.94320 Y28.92220
X69.94320 Y28.97300
X69.81620 Y29.07460
X69.76540 Y29.22700
X69.66380 Y29.35400
X69.56220 Y29.78580
X69.56220 Y30.31920
X69.66380 Y30.75100
X69.76540 Y30.87800
X69.81620 Y31.03040
X69.94320 Y31.13200
X69.94320 Y31.18280
X70.04480 Y31.28440
X70.09560 Y31.28440
X70.19720 Y31.41140
X70.34960 Y31.46220
X70.47660 Y31.56380
X70.93380 Y31.66540
X71.41640 Y31.66540
X71.87360 Y31.56380
X72.00060 Y31.46220
X72.15300 Y31.41140
X72.25460 Y31.28440
X72.30540 Y31.28440
X72.40700 Y31.18280
X72.40700 Y31.13200
X72.53400 Y31.03040
X72.58480 Y30.87800
X72.68640 Y30.75100
X72.78800 Y30.29380
X72.78800 Y29.81120
X72.68640 Y29.35400
X72.58480 Y29.22700
X72.53400 Y29.07460
X72.40700 Y28.97300
X72.40700 Y28.92220
X72.33080 Y28.84600
X72.25460 Y28.82060
X72.15300 Y28.69360
X72.00060 Y28.64280
X71.87360 Y28.54120
X71.44180 Y28.43960
X70.90840 Y28.43960
X70.47660 Y28.54120
G04 P0 ( dwell for no time -- G64 should not smooth over this point )
G00 Z3.00000 ( retract )

G00 X67.42860 Y23.96920 ( rapid move to begin. )
F254.00000
G01 Z-0.10000
G04 P0 ( dwell for no time -- G64 should not smooth over this point )
F500.00000
X67.42860 Y23.96920
X67.30160 Y24.07080
X67.14920 Y24.12160
X67.04760 Y24.24860
X66.99680 Y24.24860
X66.89520 Y24.35020
X66.89520 Y24.40100
X66.76820 Y24.50260
X66.71740 Y24.65500
X66.61580 Y24.78200
X66.51420 Y25.21380
X66.51420 Y25.74720
X66.61580 Y26.17900
X66.71740 Y26.30600
X66.76820 Y26.45840
X66.89520 Y26.56000
X66.89520 Y26.61080
X66.99680 Y26.71240
X67.04760 Y26.71240
X67.14920 Y26.83940
X67.30160 Y26.89020
X67.42860 Y26.99180
X67.88580 Y27.09340
X68.36840 Y27.09340
X68.82560 Y26.99180
X68.95260 Y26.89020
X69.10500 Y26.83940
X69.20660 Y26.71240
X69.25740 Y26.71240
X69.35900 Y26.61080
X69.35900 Y26.56000
X69.48600 Y26.45840
X69.53680 Y26.30600
X69.63840 Y26.17900
X69.74000 Y25.72180
X69.74000 Y25.23920
X69.63840 Y24.78200
X69.53680 Y24.65500
X69.48600 Y24.50260
X69.35900 Y24.40100
X69.35900 Y24.35020
X69.25740 Y24.24860
X69.20660 Y24.24860
X69.10500 Y24.12160
X68.95260 Y24.07080
X68.82560 Y23.96920
X68.39380 Y23.86760
X67.86040 Y23.86760
X67.42860 Y23.96920
G04 P0 ( dwell for no time -- G64 should not smooth over this point )
G00 Z3.00000 ( retract )

G00 X67.04760 Y24.02000 ( rapid move to begin. )
F254.00000
G01 Z-0.10000
G04 P0 ( dwell for no time -- G64 should not smooth over this point )
F500.00000
X67.04760 Y24.02000
X66.66660 Y24.40100
X66.61580 Y24.55340
X66.51420 Y24.68040
X66.48880 Y24.85820
X66.43800 Y24.93440
X66.41260 Y25.84880
X66.51420 Y26.28060
X66.61580 Y26.40760
X66.66660 Y26.56000
X67.04760 Y26.94100
X67.20000 Y26.99180
X67.32700 Y27.09340
X67.42860 Y27.09340
X67.58100 Y27.16960
X68.67320 Y27.16960
X68.82560 Y27.09340
X68.92720 Y27.09340
X69.05420 Y26.99180
X69.20660 Y26.94100
X69.58760 Y26.56000
X69.63840 Y26.40760
X69.74000 Y26.28060
X69.74000 Y26.17900
X69.81620 Y26.02660
X69.81620 Y24.93440
X69.74000 Y24.78200
X69.74000 Y24.68040
X69.63840 Y24.55340
X69.58760 Y24.40100
X69.20660 Y24.02000
X69.05420 Y23.96920
X68.92720 Y23.86760
X68.82560 Y23.86760
X68.67320 Y23.79140
X67.75880 Y23.76600
X67.32700 Y23.86760
X67.20000 Y23.96920
X67.04760 Y24.02000
G04 P0 ( dwell for no time -- G64 should not smooth over this point )
G00 Z3.00000 ( retract )

G00 X74.23580 Y20.43860 ( rapid move to begin. )
F254.00000
G01 Z-0.10000
G04 P0 ( dwell for no time -- G64 should not smooth over this point )
F500.00000
X74.23580 Y20.43860
X74.21040 Y20.48940
X73.98180 Y20.59100
X73.98180 Y20.64180
X73.90560 Y20.69260
X73.90560 Y20.74340
X73.82940 Y20.79420
X73.77860 Y20.89580
X73.75320 Y21.55620
X73.44840 Y21.60700
X73.06740 Y21.81020
X72.81340 Y22.08960
X72.71180 Y22.29280
X72.63560 Y22.62300
X72.63560 Y23.41040
X72.68640 Y23.66440
X72.81340 Y23.94380
X73.06740 Y24.22320
X73.11820 Y24.22320
X73.21980 Y24.32480
X73.65160 Y24.47720
X74.54060 Y24.47720
X74.97240 Y24.32480
X74.99780 Y24.27400
X75.12480 Y24.22320
X75.37880 Y23.94380
X75.50580 Y23.66440
X75.55660 Y23.41040
X75.55660 Y22.62300
X75.45500 Y22.26740
X75.53120 Y22.24200
X75.53120 Y22.19120
X75.68360 Y22.03880
X75.75980 Y21.83560
X75.75980 Y20.99740
X75.70900 Y20.84500
X75.53120 Y20.64180
X75.53120 Y20.59100
X75.42960 Y20.56560
X75.27720 Y20.43860
X74.23580 Y20.43860
G04 P0 ( dwell for no time -- G64 should not smooth over this point )
G00 Z3.00000 ( retract )

G00 X74.48980 Y20.51480 ( rapid move to begin. )
F254.00000
G01 Z-0.10000
G04 P0 ( dwell for no time -- G64 should not smooth over this point )
F500.00000
X74.48980 Y20.51480
X74.33740 Y20.54020
X74.31200 Y20.59100
X74.08340 Y20.69260
X74.08340 Y20.74340
X73.93100 Y20.89580
X73.85480 Y21.09900
X73.85480 Y21.65780
X73.55000 Y21.70860
X73.16900 Y21.91180
X72.91500 Y22.19120
X72.76260 Y22.57220
X72.73720 Y23.30880
X72.81340 Y23.63900
X72.91500 Y23.84220
X73.16900 Y24.12160
X73.21980 Y24.12160
X73.32140 Y24.22320
X73.75320 Y24.37560
X74.43900 Y24.37560
X74.87080 Y24.22320
X75.22640 Y23.91840
X75.37880 Y23.63900
X75.42960 Y23.46120
X75.45500 Y22.72460
X75.37880 Y22.39440
X75.27720 Y22.21660
X75.42960 Y22.14040
X75.42960 Y22.08960
X75.60740 Y21.88640
X75.65820 Y21.73400
X75.65820 Y21.09900
X75.58200 Y20.89580
X75.50580 Y20.84500
X75.42960 Y20.69260
X75.32800 Y20.66720
X75.17560 Y20.54020
X74.48980 Y20.51480
G04 P0 ( dwell for no time -- G64 should not smooth over this point )
G00 Z3.00000 ( retract )

G00 X76.47100 Y18.35580 ( rapid move to begin. )
F254.00000
G01 Z-0.10000
G04 P0 ( dwell for no time -- G64 should not smooth over this point )
F500.00000
X76.47100 Y18.35580
X76.47100 Y20.41320
X76.26780 Y20.41320
X76.26780 Y22.41980
X78.27440 Y22.41980
X78.27440 Y21.27680
X79.39200 Y21.27680
X79.39200 Y18.35580
X76.47100 Y18.35580
G04 P0 ( dwell for no time -- G64 should not smooth over this point )
G00 Z3.00000 ( retract )

G00 X76.57260 Y18.45740 ( rapid move to begin. )
F254.00000
G01 Z-0.10000
G04 P0 ( dwell for no time -- G64 should not smooth over this point )
F500.00000
X76.57260 Y18.45740
X76.57260 Y20.51480
X76.36940 Y20.51480
X76.36940 Y22.31820
X78.17280 Y22.31820
X78.17280 Y21.17520
X79.29040 Y21.17520
X79.29040 Y18.45740
X76.57260 Y18.45740
G04 P0 ( dwell for no time -- G64 should not smooth over this point )
G00 Z3.00000 ( retract )

G00 X72.81340 Y8.27200 ( rapid move to begin. )
F254.00000
G01 Z-0.10000
G04 P0 ( dwell for no time -- G64 should not smooth over this point )
F500.00000
X72.81340 Y8.27200
X72.73720 Y8.34820
X72.48320 Y8.44980
X72.40700 Y8.55140
X72.35620 Y8.55140
X72.25460 Y8.67840
X72.15300 Y8.72920
X72.15300 Y8.78000
X71.92440 Y9.00860
X71.82280 Y9.26260
X71.74660 Y9.33880
X71.72120 Y9.51660
X71.64500 Y9.66900
X71.59420 Y10.07540
X71.61960 Y10.65960
X71.74660 Y11.14220
X71.82280 Y11.21840
X71.92440 Y11.47240
X72.02600 Y11.54860
X72.02600 Y11.59940
X72.15300 Y11.70100
X72.20380 Y11.80260
X72.25460 Y11.80260
X72.48320 Y12.03120
X72.73720 Y12.13280
X72.81340 Y12.20900
X72.99120 Y12.23440
X73.14360 Y12.31060
X73.55000 Y12.36140
X74.13420 Y12.33600
X74.61680 Y12.20900
X74.69300 Y12.13280
X74.94700 Y12.03120
X75.17560 Y11.80260
X75.22640 Y11.80260
X75.27720 Y11.70100
X75.40420 Y11.59940
X75.40420 Y11.54860
X75.50580 Y11.47240
X75.60740 Y11.21840
X75.68360 Y11.14220
X75.70900 Y10.96440
X75.78520 Y10.81200
X75.83600 Y10.40560
X75.81060 Y9.82140
X75.68360 Y9.33880
X75.60740 Y9.26260
X75.50580 Y9.00860
X75.40420 Y8.93240
X75.40420 Y8.88160
X75.27720 Y8.78000
X75.22640 Y8.67840
X75.17560 Y8.67840
X74.94700 Y8.44980
X74.69300 Y8.34820
X74.61680 Y8.27200
X74.43900 Y8.24660
X74.28660 Y8.17040
X73.88020 Y8.11960
X73.29600 Y8.14500
X72.81340 Y8.27200
G04 P0 ( dwell for no time -- G64 should not smooth over this point )
G00 Z3.00000 ( retract )

G00 X72.38160 Y8.34820 ( rapid move to begin. )
F254.00000
G01 Z-0.10000
G04 P0 ( dwell for no time -- G64 should not smooth over this point )
F500.00000
X72.38160 Y8.34820
X72.30540 Y8.44980
X72.25460 Y8.44980
X72.15300 Y8.57680
X72.07680 Y8.60220
X72.05140 Y8.67840
X71.82280 Y8.90700
X71.72120 Y9.16100
X71.64500 Y9.23720
X71.61960 Y9.41500
X71.54340 Y9.56740
X71.49260 Y9.97380
X71.51800 Y10.76120
X71.64500 Y11.24380
X71.72120 Y11.32000
X71.82280 Y11.57400
X71.92440 Y11.65020
X71.92440 Y11.70100
X72.05140 Y11.80260
X72.07680 Y11.87880
X72.15300 Y11.90420
X72.38160 Y12.13280
X72.63560 Y12.23440
X72.71180 Y12.31060
X72.88960 Y12.33600
X73.04200 Y12.41220
X73.44840 Y12.46300
X74.23580 Y12.43760
X74.71840 Y12.31060
X74.79460 Y12.23440
X75.04860 Y12.13280
X75.27720 Y11.90420
X75.35340 Y11.87880
X75.37880 Y11.80260
X75.60740 Y11.57400
X75.70900 Y11.32000
X75.78520 Y11.24380
X75.81060 Y11.06600
X75.88680 Y10.91360
X75.93760 Y10.50720
X75.91220 Y9.71980
X75.78520 Y9.23720
X75.70900 Y9.16100
X75.60740 Y8.90700
X75.37880 Y8.67840
X75.35340 Y8.60220
X75.27720 Y8.57680
X75.04860 Y8.34820
X74.79460 Y8.24660
X74.71840 Y8.17040
X74.54060 Y8.14500
X74.38820 Y8.06880
X73.98180 Y8.01800
X73.19440 Y8.04340
X72.71180 Y8.17040
X72.63560 Y8.24660
X72.38160 Y8.34820
G04 P0 ( dwell for no time -- G64 should not smooth over this point )
G00 Z3.00000 ( retract )

G00 X67.73340 Y8.27200 ( rapid move to begin. )
F254.00000
G01 Z-0.10000
G04 P0 ( dwell for no time -- G64 should not smooth over this point )
F500.00000
X67.73340 Y8.27200
X67.65720 Y8.34820
X67.40320 Y8.44980
X67.32700 Y8.55140
X67.27620 Y8.55140
X67.17460 Y8.67840
X67.07300 Y8.72920
X67.07300 Y8.78000
X66.84440 Y9.00860
X66.74280 Y9.26260
X66.66660 Y9.33880
X66.64120 Y9.51660
X66.56500 Y9.66900
X66.51420 Y10.07540
X66.53960 Y10.65960
X66.66660 Y11.14220
X66.74280 Y11.21840
X66.84440 Y11.47240
X67.07300 Y11.70100
X67.07300 Y11.75180
X67.17460 Y11.80260
X67.27620 Y11.92960
X67.32700 Y11.92960
X67.40320 Y12.03120
X67.65720 Y12.13280
X67.73340 Y12.20900
X67.91120 Y12.23440
X68.06360 Y12.31060
X68.47000 Y12.36140
X69.05420 Y12.33600
X69.53680 Y12.20900
X69.61300 Y12.13280
X69.86700 Y12.03120
X70.09560 Y11.80260
X70.14640 Y11.80260
X70.19720 Y11.70100
X70.32420 Y11.59940
X70.32420 Y11.54860
X70.42580 Y11.47240
X70.52740 Y11.21840
X70.60360 Y11.14220
X70.62900 Y10.96440
X70.70520 Y10.81200
X70.75600 Y10.40560
X70.73060 Y9.82140
X70.60360 Y9.33880
X70.52740 Y9.26260
X70.42580 Y9.00860
X70.19720 Y8.78000
X70.19720 Y8.72920
X70.09560 Y8.67840
X69.99400 Y8.55140
X69.94320 Y8.55140
X69.86700 Y8.44980
X69.61300 Y8.34820
X69.53680 Y8.27200
X69.35900 Y8.24660
X69.20660 Y8.17040
X68.80020 Y8.11960
X68.21600 Y8.14500
X67.73340 Y8.27200
G04 P0 ( dwell for no time -- G64 should not smooth over this point )
G00 Z3.00000 ( retract )

G00 X67.30160 Y8.34820 ( rapid move to begin. )
F254.00000
G01 Z-0.10000
G04 P0 ( dwell for no time -- G64 should not smooth over this point )
F500.00000
X67.30160 Y8.34820
X67.22540 Y8.44980
X67.17460 Y8.44980
X67.07300 Y8.57680
X66.99680 Y8.60220
X66.97140 Y8.67840
X66.74280 Y8.90700
X66.64120 Y9.16100
X66.56500 Y9.23720
X66.53960 Y9.41500
X66.46340 Y9.56740
X66.41260 Y9.97380
X66.43800 Y10.76120
X66.56500 Y11.24380
X66.64120 Y11.32000
X66.74280 Y11.57400
X66.84440 Y11.65020
X66.84440 Y11.70100
X66.97140 Y11.80260
X66.99680 Y11.87880
X67.07300 Y11.90420
X67.30160 Y12.13280
X67.55560 Y12.23440
X67.63180 Y12.31060
X67.80960 Y12.33600
X67.96200 Y12.41220
X68.36840 Y12.46300
X69.15580 Y12.43760
X69.63840 Y12.31060
X69.71460 Y12.23440
X69.96860 Y12.13280
X70.19720 Y11.90420
X70.27340 Y11.87880
X70.29880 Y11.80260
X70.52740 Y11.57400
X70.62900 Y11.32000
X70.70520 Y11.24380
X70.73060 Y11.06600
X70.80680 Y10.91360
X70.85760 Y10.50720
X70.83220 Y9.71980
X70.70520 Y9.23720
X70.62900 Y9.16100
X70.52740 Y8.90700
X70.29880 Y8.67840
X70.29880 Y8.62760
X70.19720 Y8.57680
X70.09560 Y8.44980
X70.04480 Y8.44980
X69.96860 Y8.34820
X69.71460 Y8.24660
X69.63840 Y8.17040
X69.46060 Y8.14500
X69.30820 Y8.06880
X68.90180 Y8.01800
X68.11440 Y8.04340
X67.63180 Y8.17040
X67.55560 Y8.24660
X67.30160 Y8.34820
G04 P0 ( dwell for no time -- G64 should not smooth over this point )
G00 Z3.00000 ( retract )

G00 X62.65340 Y8.27200 ( rapid move to begin. )
F254.00000
G01 Z-0.10000
G04 P0 ( dwell for no time -- G64 should not smooth over this point )
F500.00000
X62.65340 Y8.27200
X62.57720 Y8.34820
X62.32320 Y8.44980
X62.09460 Y8.67840
X62.04380 Y8.67840
X61.99300 Y8.78000
X61.86600 Y8.88160
X61.86600 Y8.93240
X61.76440 Y9.00860
X61.66280 Y9.26260
X61.58660 Y9.33880
X61.56120 Y9.51660
X61.48500 Y9.66900
X61.43420 Y10.07540
X61.45960 Y10.65960
X61.58660 Y11.14220
X61.66280 Y11.21840
X61.76440 Y11.47240
X61.99300 Y11.70100
X62.01840 Y11.77720
X62.09460 Y11.80260
X62.32320 Y12.03120
X62.57720 Y12.13280
X62.65340 Y12.20900
X62.83120 Y12.23440
X62.98360 Y12.31060
X63.39000 Y12.36140
X63.97420 Y12.33600
X64.45680 Y12.20900
X64.53300 Y12.13280
X64.78700 Y12.03120
X65.01560 Y11.80260
X65.06640 Y11.80260
X65.11720 Y11.70100
X65.24420 Y11.59940
X65.24420 Y11.54860
X65.34580 Y11.47240
X65.44740 Y11.21840
X65.52360 Y11.14220
X65.54900 Y10.96440
X65.62520 Y10.81200
X65.67600 Y10.40560
X65.65060 Y9.82140
X65.52360 Y9.33880
X65.44740 Y9.26260
X65.34580 Y9.00860
X65.24420 Y8.93240
X65.24420 Y8.88160
X65.11720 Y8.78000
X65.06640 Y8.67840
X65.01560 Y8.67840
X64.78700 Y8.44980
X64.53300 Y8.34820
X64.45680 Y8.27200
X64.27900 Y8.24660
X64.12660 Y8.17040
X63.72020 Y8.11960
X63.13600 Y8.14500
X62.65340 Y8.27200
G04 P0 ( dwell for no time -- G64 should not smooth over this point )
G00 Z3.00000 ( retract )

G00 X62.22160 Y8.34820 ( rapid move to begin. )
F254.00000
G01 Z-0.10000
G04 P0 ( dwell for no time -- G64 should not smooth over this point )
F500.00000
X62.22160 Y8.34820
X61.99300 Y8.57680
X61.94220 Y8.57680
X61.89140 Y8.67840
X61.76440 Y8.78000
X61.76440 Y8.83080
X61.66280 Y8.90700
X61.56120 Y9.16100
X61.48500 Y9.23720
X61.45960 Y9.41500
X61.38340 Y9.56740
X61.33260 Y9.97380
X61.35800 Y10.76120
X61.48500 Y11.24380
X61.56120 Y11.32000
X61.66280 Y11.57400
X61.89140 Y11.80260
X61.89140 Y11.85340
X61.99300 Y11.90420
X62.09460 Y12.03120
X62.14540 Y12.03120
X62.22160 Y12.13280
X62.47560 Y12.23440
X62.55180 Y12.31060
X62.72960 Y12.33600
X62.88200 Y12.41220
X63.28840 Y12.46300
X64.07580 Y12.43760
X64.55840 Y12.31060
X64.63460 Y12.23440
X64.88860 Y12.13280
X64.96480 Y12.03120
X65.01560 Y12.03120
X65.11720 Y11.90420
X65.21880 Y11.85340
X65.21880 Y11.80260
X65.44740 Y11.57400
X65.54900 Y11.32000
X65.62520 Y11.24380
X65.65060 Y11.06600
X65.72680 Y10.91360
X65.77760 Y10.50720
X65.75220 Y9.71980
X65.62520 Y9.23720
X65.54900 Y9.16100
X65.44740 Y8.90700
X65.34580 Y8.83080
X65.34580 Y8.78000
X65.21880 Y8.67840
X65.16800 Y8.57680
X65.11720 Y8.57680
X64.88860 Y8.34820
X64.63460 Y8.24660
X64.55840 Y8.17040
X64.38060 Y8.14500
X64.22820 Y8.06880
X63.82180 Y8.01800
X63.03440 Y8.04340
X62.55180 Y8.17040
X62.47560 Y8.24660
X62.22160 Y8.34820
G04 P0 ( dwell for no time -- G64 should not smooth over this point )
G00 Z3.00000 ( retract )

G00 X57.57340 Y8.27200 ( rapid move to begin. )
F254.00000
G01 Z-0.10000
G04 P0 ( dwell for no time -- G64 should not smooth over this point )
F500.00000
X57.57340 Y8.27200
X57.49720 Y8.34820
X57.24320 Y8.44980
X57.16700 Y8.55140
X57.11620 Y8.55140
X57.01460 Y8.67840
X56.93840 Y8.70380
X56.91300 Y8.78000
X56.68440 Y9.00860
X56.58280 Y9.26260
X56.50660 Y9.33880
X56.48120 Y9.51660
X56.40500 Y9.66900
X56.35420 Y10.07540
X56.37960 Y10.65960
X56.50660 Y11.14220
X56.58280 Y11.21840
X56.68440 Y11.47240
X56.78600 Y11.54860
X56.78600 Y11.59940
X56.91300 Y11.70100
X56.93840 Y11.77720
X57.01460 Y11.80260
X57.24320 Y12.03120
X57.49720 Y12.13280
X57.57340 Y12.20900
X57.75120 Y12.23440
X57.90360 Y12.31060
X58.31000 Y12.36140
X58.89420 Y12.33600
X59.37680 Y12.20900
X59.45300 Y12.13280
X59.70700 Y12.03120
X59.78320 Y11.92960
X59.83400 Y11.92960
X59.93560 Y11.80260
X60.03720 Y11.75180
X60.03720 Y11.70100
X60.26580 Y11.47240
X60.36740 Y11.21840
X60.44360 Y11.14220
X60.46900 Y10.96440
X60.54520 Y10.81200
X60.59600 Y10.40560
X60.57060 Y9.82140
X60.44360 Y9.33880
X60.36740 Y9.26260
X60.26580 Y9.00860
X60.03720 Y8.78000
X60.03720 Y8.72920
X59.93560 Y8.67840
X59.83400 Y8.55140
X59.78320 Y8.55140
X59.70700 Y8.44980
X59.45300 Y8.34820
X59.37680 Y8.27200
X59.19900 Y8.24660
X59.04660 Y8.17040
X58.64020 Y8.11960
X58.05600 Y8.14500
X57.57340 Y8.27200
G04 P0 ( dwell for no time -- G64 should not smooth over this point )
G00 Z3.00000 ( retract )

G00 X57.14160 Y8.34820 ( rapid move to begin. )
F254.00000
G01 Z-0.10000
G04 P0 ( dwell for no time -- G64 should not smooth over this point )
F500.00000
X57.14160 Y8.34820
X57.06540 Y8.44980
X57.01460 Y8.44980
X56.91300 Y8.57680
X56.81140 Y8.62760
X56.81140 Y8.67840
X56.58280 Y8.90700
X56.48120 Y9.16100
X56.40500 Y9.23720
X56.37960 Y9.41500
X56.30340 Y9.56740
X56.25260 Y9.97380
X56.27800 Y10.76120
X56.40500 Y11.24380
X56.48120 Y11.32000
X56.58280 Y11.57400
X56.81140 Y11.80260
X56.81140 Y11.85340
X56.91300 Y11.90420
X57.01460 Y12.03120
X57.06540 Y12.03120
X57.14160 Y12.13280
X57.39560 Y12.23440
X57.47180 Y12.31060
X57.64960 Y12.33600
X57.80200 Y12.41220
X58.20840 Y12.46300
X58.99580 Y12.43760
X59.47840 Y12.31060
X59.55460 Y12.23440
X59.80860 Y12.13280
X60.03720 Y11.90420
X60.08800 Y11.90420
X60.13880 Y11.80260
X60.26580 Y11.70100
X60.26580 Y11.65020
X60.36740 Y11.57400
X60.46900 Y11.32000
X60.54520 Y11.24380
X60.57060 Y11.06600
X60.64680 Y10.91360
X60.69760 Y10.50720
X60.67220 Y9.71980
X60.54520 Y9.23720
X60.46900 Y9.16100
X60.36740 Y8.90700
X60.26580 Y8.83080
X60.26580 Y8.78000
X60.13880 Y8.67840
X60.11340 Y8.60220
X60.03720 Y8.57680
X59.93560 Y8.44980
X59.88480 Y8.44980
X59.80860 Y8.34820
X59.55460 Y8.24660
X59.47840 Y8.17040
X59.30060 Y8.14500
X59.14820 Y8.06880
X58.74180 Y8.01800
X57.95440 Y8.04340
X57.47180 Y8.17040
X57.39560 Y8.24660
X57.14160 Y8.34820
G04 P0 ( dwell for no time -- G64 should not smooth over this point )
G00 Z3.00000 ( retract )

G00 X52.49340 Y8.27200 ( rapid move to begin. )
F254.00000
G01 Z-0.10000
G04 P0 ( dwell for no time -- G64 should not smooth over this point )
F500.00000
X52.49340 Y8.27200
X52.41720 Y8.34820
X52.16320 Y8.44980
X51.93460 Y8.67840
X51.88380 Y8.67840
X51.83300 Y8.78000
X51.70600 Y8.88160
X51.70600 Y8.93240
X51.60440 Y9.00860
X51.50280 Y9.26260
X51.42660 Y9.33880
X51.40120 Y9.51660
X51.32500 Y9.66900
X51.27420 Y10.07540
X51.29960 Y10.65960
X51.42660 Y11.14220
X51.50280 Y11.21840
X51.60440 Y11.47240
X51.70600 Y11.54860
X51.70600 Y11.59940
X51.83300 Y11.70100
X51.88380 Y11.80260
X51.93460 Y11.80260
X52.16320 Y12.03120
X52.41720 Y12.13280
X52.49340 Y12.20900
X52.67120 Y12.23440
X52.82360 Y12.31060
X53.23000 Y12.36140
X53.81420 Y12.33600
X54.29680 Y12.20900
X54.37300 Y12.13280
X54.62700 Y12.03120
X54.70320 Y11.92960
X54.75400 Y11.92960
X54.85560 Y11.80260
X54.95720 Y11.75180
X54.95720 Y11.70100
X55.18580 Y11.47240
X55.28740 Y11.21840
X55.36360 Y11.14220
X55.38900 Y10.96440
X55.46520 Y10.81200
X55.51600 Y10.40560
X55.49060 Y9.82140
X55.36360 Y9.33880
X55.28740 Y9.26260
X55.18580 Y9.00860
X54.95720 Y8.78000
X54.95720 Y8.72920
X54.85560 Y8.67840
X54.75400 Y8.55140
X54.70320 Y8.55140
X54.62700 Y8.44980
X54.37300 Y8.34820
X54.29680 Y8.27200
X54.11900 Y8.24660
X53.96660 Y8.17040
X53.56020 Y8.11960
X52.97600 Y8.14500
X52.49340 Y8.27200
G04 P0 ( dwell for no time -- G64 should not smooth over this point )
G00 Z3.00000 ( retract )

G00 X52.06160 Y8.34820 ( rapid move to begin. )
F254.00000
G01 Z-0.10000
G04 P0 ( dwell for no time -- G64 should not smooth over this point )
F500.00000
X52.06160 Y8.34820
X51.98540 Y8.44980
X51.93460 Y8.44980
X51.83300 Y8.57680
X51.75680 Y8.60220
X51.73140 Y8.67840
X51.50280 Y8.90700
X51.40120 Y9.16100
X51.32500 Y9.23720
X51.29960 Y9.41500
X51.22340 Y9.56740
X51.17260 Y9.97380
X51.19800 Y10.76120
X51.32500 Y11.24380
X51.40120 Y11.32000
X51.50280 Y11.57400
X51.73140 Y11.80260
X51.73140 Y11.85340
X51.83300 Y11.90420
X51.93460 Y12.03120
X51.98540 Y12.03120
X52.06160 Y12.13280
X52.31560 Y12.23440
X52.39180 Y12.31060
X52.56960 Y12.33600
X52.72200 Y12.41220
X53.12840 Y12.46300
X53.91580 Y12.43760
X54.39840 Y12.31060
X54.47460 Y12.23440
X54.72860 Y12.13280
X54.95720 Y11.90420
X55.03340 Y11.87880
X55.05880 Y11.80260
X55.28740 Y11.57400
X55.38900 Y11.32000
X55.46520 Y11.24380
X55.49060 Y11.06600
X55.56680 Y10.91360
X55.61760 Y10.50720
X55.59220 Y9.71980
X55.46520 Y9.23720
X55.38900 Y9.16100
X55.28740 Y8.90700
X55.18580 Y8.83080
X55.18580 Y8.78000
X55.05880 Y8.67840
X55.03340 Y8.60220
X54.95720 Y8.57680
X54.72860 Y8.34820
X54.47460 Y8.24660
X54.39840 Y8.17040
X54.22060 Y8.14500
X54.06820 Y8.06880
X53.66180 Y8.01800
X52.87440 Y8.04340
X52.39180 Y8.17040
X52.31560 Y8.24660
X52.06160 Y8.34820
G04 P0 ( dwell for no time -- G64 should not smooth over this point )
G00 Z3.00000 ( retract )

G00 X46.11800 Y8.04340 ( rapid move to begin. )
F254.00000
G01 Z-0.10000
G04 P0 ( dwell for no time -- G64 should not smooth over this point )
F500.00000
X46.11800 Y8.04340
X46.11800 Y12.43760
X50.51220 Y12.43760
X50.51220 Y8.04340
X46.11800 Y8.04340
G04 P0 ( dwell for no time -- G64 should not smooth over this point )
G00 Z3.00000 ( retract )

G00 X46.21960 Y8.14500 ( rapid move to begin. )
F254.00000
G01 Z-0.10000
G04 P0 ( dwell for no time -- G64 should not smooth over this point )
F500.00000
X46.21960 Y8.14500
X46.21960 Y12.33600
X50.41060 Y12.33600
X50.41060 Y8.14500
X46.21960 Y8.14500
G04 P0 ( dwell for no time -- G64 should not smooth over this point )
G00 Z3.00000 ( retract )

G00 X42.51120 Y11.16760 ( rapid move to begin. )
F254.00000
G01 Z-0.10000
G04 P0 ( dwell for no time -- G64 should not smooth over this point )
F500.00000
X42.51120 Y11.16760
X42.07940 Y11.06600
X41.34280 Y11.06600
X40.91100 Y11.16760
X40.78400 Y11.26920
X40.63160 Y11.32000
X40.53000 Y11.44700
X40.47920 Y11.44700
X40.37760 Y11.54860
X40.37760 Y11.59940
X40.25060 Y11.70100
X40.19980 Y11.85340
X40.09820 Y11.98040
X39.99660 Y12.41220
X40.02200 Y13.32660
X40.14900 Y13.68220
X40.19980 Y13.70760
X40.25060 Y13.86000
X40.47920 Y14.08860
X40.47920 Y14.16480
X40.27600 Y14.52040
X40.27600 Y14.59660
X40.07280 Y14.95220
X40.07280 Y15.02840
X39.86960 Y15.38400
X39.86960 Y15.46020
X39.66640 Y15.81580
X39.66640 Y15.89200
X39.46320 Y16.24760
X39.46320 Y16.32380
X39.26000 Y16.67940
X39.26000 Y16.75560
X39.05680 Y17.11120
X39.05680 Y17.18740
X38.85360 Y17.54300
X38.85360 Y17.61920
X38.65040 Y17.97480
X38.65040 Y18.05100
X38.44720 Y18.40660
X38.44720 Y18.48280
X38.24400 Y18.83840
X38.24400 Y18.91460
X38.04080 Y19.27020
X38.04080 Y19.34640
X37.86300 Y19.70200
X37.27880 Y19.70200
X36.74540 Y19.85440
X36.72000 Y19.90520
X36.56760 Y19.95600
X36.46600 Y20.08300
X36.41520 Y20.08300
X36.31360 Y20.18460
X36.31360 Y20.23540
X36.18660 Y20.33700
X36.00880 Y20.69260
X35.93260 Y21.04820
X35.93260 Y21.78480
X36.03420 Y22.21660
X36.13580 Y22.34360
X36.18660 Y22.49600
X36.31360 Y22.59760
X36.33900 Y22.67380
X36.41520 Y22.75000
X36.46600 Y22.75000
X36.56760 Y22.87700
X36.72000 Y22.92780
X36.84700 Y23.02940
X37.30420 Y23.13100
X37.99000 Y23.13100
X38.44720 Y23.02940
X38.57420 Y22.92780
X38.72660 Y22.87700
X38.82820 Y22.75000
X38.87900 Y22.75000
X38.98060 Y22.64840
X38.98060 Y22.59760
X39.10760 Y22.49600
X39.15840 Y22.34360
X39.26000 Y22.21660
X39.36160 Y21.75940
X39.33620 Y20.87040
X39.20920 Y20.51480
X39.15840 Y20.48940
X39.10760 Y20.33700
X38.87900 Y20.10840
X38.87900 Y20.03220
X39.08220 Y19.67660
X39.08220 Y19.60040
X39.28540 Y19.24480
X39.28540 Y19.16860
X39.48860 Y18.81300
X39.48860 Y18.73680
X39.69180 Y18.38120
X39.69180 Y18.30500
X39.89500 Y17.94940
X39.89500 Y17.87320
X40.09820 Y17.51760
X40.09820 Y17.44140
X40.30140 Y17.08580
X40.30140 Y17.00960
X40.50460 Y16.65400
X40.50460 Y16.57780
X40.70780 Y16.22220
X40.70780 Y16.14600
X40.91100 Y15.79040
X40.91100 Y15.71420
X41.11420 Y15.35860
X41.11420 Y15.28240
X41.31740 Y14.92680
X41.31740 Y14.85060
X41.49520 Y14.49500
X42.25720 Y14.46960
X42.40960 Y14.39340
X42.51120 Y14.39340
X42.63820 Y14.29180
X42.79060 Y14.24100
X43.17160 Y13.86000
X43.22240 Y13.70760
X43.32400 Y13.58060
X43.32400 Y13.47900
X43.40020 Y13.32660
X43.42560 Y12.43760
X43.32400 Y11.98040
X43.22240 Y11.85340
X43.17160 Y11.70100
X43.04460 Y11.59940
X42.99380 Y11.49780
X42.89220 Y11.44700
X42.79060 Y11.32000
X42.63820 Y11.26920
X42.51120 Y11.16760
G04 P0 ( dwell for no time -- G64 should not smooth over this point )
G00 Z3.00000 ( retract )

G00 X42.40960 Y11.26920 ( rapid move to begin. )
F254.00000
G01 Z-0.10000
G04 P0 ( dwell for no time -- G64 should not smooth over this point )
F500.00000
X42.40960 Y11.26920
X41.97780 Y11.16760
X41.26660 Y11.19300
X41.19040 Y11.24380
X41.01260 Y11.26920
X40.88560 Y11.37080
X40.73320 Y11.42160
X40.35220 Y11.80260
X40.30140 Y11.95500
X40.19980 Y12.08200
X40.17440 Y12.25980
X40.12360 Y12.33600
X40.09820 Y13.04720
X40.25060 Y13.58060
X40.30140 Y13.60600
X40.35220 Y13.75840
X40.47920 Y13.86000
X40.47920 Y13.91080
X40.58080 Y14.01240
X40.65700 Y14.03780
X40.65700 Y14.08860
X40.17440 Y15.05380
X40.17440 Y15.13000
X39.97120 Y15.48560
X39.97120 Y15.56180
X39.76800 Y15.91740
X39.76800 Y15.99360
X39.56480 Y16.34920
X39.56480 Y16.42540
X39.36160 Y16.78100
X39.36160 Y16.85720
X39.15840 Y17.21280
X39.15840 Y17.28900
X38.95520 Y17.64460
X38.95520 Y17.72080
X38.75200 Y18.07640
X38.75200 Y18.15260
X38.54880 Y18.50820
X38.54880 Y18.58440
X38.34560 Y18.94000
X38.34560 Y19.01620
X38.14240 Y19.37180
X38.14240 Y19.44800
X37.93920 Y19.82900
X37.20260 Y19.82900
X37.12640 Y19.87980
X36.94860 Y19.90520
X36.82160 Y20.00680
X36.66920 Y20.05760
X36.28820 Y20.43860
X36.23740 Y20.59100
X36.13580 Y20.71800
X36.03420 Y21.14980
X36.03420 Y21.68320
X36.13580 Y22.11500
X36.23740 Y22.24200
X36.28820 Y22.39440
X36.41520 Y22.49600
X36.41520 Y22.54680
X36.51680 Y22.64840
X36.56760 Y22.64840
X36.66920 Y22.77540
X36.82160 Y22.82620
X36.94860 Y22.92780
X37.40580 Y23.02940
X38.09160 Y23.00400
X38.24400 Y22.92780
X38.34560 Y22.92780
X38.47260 Y22.82620
X38.62500 Y22.77540
X39.00600 Y22.39440
X39.05680 Y22.24200
X39.15840 Y22.11500
X39.15840 Y22.01340
X39.23460 Y21.86100
X39.26000 Y21.65780
X39.23460 Y20.97200
X39.15840 Y20.81960
X39.15840 Y20.71800
X39.05680 Y20.59100
X39.00600 Y20.43860
X38.87900 Y20.33700
X38.87900 Y20.28620
X38.77740 Y20.18460
X38.70120 Y20.15920
X38.70120 Y20.10840
X39.18380 Y19.14320
X39.18380 Y19.06700
X39.38700 Y18.71140
X39.38700 Y18.63520
X39.59020 Y18.27960
X39.59020 Y18.20340
X39.79340 Y17.84780
X39.79340 Y17.77160
X39.99660 Y17.41600
X39.99660 Y17.33980
X40.19980 Y16.98420
X40.19980 Y16.90800
X40.40300 Y16.55240
X40.40300 Y16.47620
X40.60620 Y16.12060
X40.60620 Y16.04440
X40.80940 Y15.68880
X40.80940 Y15.61260
X41.01260 Y15.25700
X41.01260 Y15.18080
X41.21580 Y14.82520
X41.21580 Y14.74900
X41.41900 Y14.36800
X42.15560 Y14.36800
X42.30800 Y14.29180
X42.40960 Y14.29180
X42.53660 Y14.19020
X42.68900 Y14.13940
X43.07000 Y13.75840
X43.12080 Y13.60600
X43.22240 Y13.47900
X43.32400 Y13.02180
X43.32400 Y12.53920
X43.22240 Y12.08200
X43.12080 Y11.95500
X43.07000 Y11.80260
X42.94300 Y11.70100
X42.94300 Y11.65020
X42.84140 Y11.54860
X42.79060 Y11.54860
X42.68900 Y11.42160
X42.53660 Y11.37080
X42.40960 Y11.26920
G04 P0 ( dwell for no time -- G64 should not smooth over this point )
G00 Z3.00000 ( retract )

G00 X44.74640 Y18.20340 ( rapid move to begin. )
F254.00000
G01 Z-0.10000
G04 P0 ( dwell for no time -- G64 should not smooth over this point )
F500.00000
X44.74640 Y18.20340
X44.64480 Y18.35580
X44.67020 Y21.45460
X44.72100 Y21.48000
X44.72100 Y21.53080
X44.87340 Y21.60700
X46.72760 Y21.58160
X46.75300 Y21.53080
X46.82920 Y21.50540
X46.88000 Y21.40380
X46.85460 Y18.27960
X46.75300 Y18.17800
X44.74640 Y18.20340
G04 P0 ( dwell for no time -- G64 should not smooth over this point )
G00 Z3.00000 ( retract )

G00 X44.84800 Y18.30500 ( rapid move to begin. )
F254.00000
G01 Z-0.10000
G04 P0 ( dwell for no time -- G64 should not smooth over this point )
F500.00000
X44.84800 Y18.30500
X44.74640 Y18.45740
X44.77180 Y21.35300
X44.82260 Y21.37840
X44.82260 Y21.42920
X44.97500 Y21.50540
X46.62600 Y21.48000
X46.65140 Y21.42920
X46.72760 Y21.40380
X46.77840 Y21.30220
X46.75300 Y18.38120
X46.65140 Y18.27960
X44.84800 Y18.30500
G04 P0 ( dwell for no time -- G64 should not smooth over this point )
G00 Z3.00000 ( retract )

G00 X47.69280 Y18.22880 ( rapid move to begin. )
F254.00000
G01 Z-0.10000
G04 P0 ( dwell for no time -- G64 should not smooth over this point )
F500.00000
X47.69280 Y18.22880
X47.66740 Y18.27960
X47.43880 Y18.38120
X47.31180 Y18.50820
X47.15940 Y18.86380
X47.15940 Y20.92120
X47.21020 Y21.09900
X47.43880 Y21.40380
X47.54040 Y21.42920
X47.69280 Y21.55620
X47.97220 Y21.60700
X48.55640 Y21.60700
X48.83580 Y21.55620
X48.98820 Y21.42920
X49.08980 Y21.40380
X49.21680 Y21.27680
X49.36920 Y20.92120
X49.36920 Y18.86380
X49.31840 Y18.68600
X49.08980 Y18.38120
X48.98820 Y18.35580
X48.83580 Y18.22880
X48.55640 Y18.17800
X47.97220 Y18.17800
X47.69280 Y18.22880
G04 P0 ( dwell for no time -- G64 should not smooth over this point )
G00 Z3.00000 ( retract )

G00 X47.79440 Y18.33040 ( rapid move to begin. )
F254.00000
G01 Z-0.10000
G04 P0 ( dwell for no time -- G64 should not smooth over this point )
F500.00000
X47.79440 Y18.33040
X47.76900 Y18.38120
X47.54040 Y18.48280
X47.41340 Y18.60980
X47.26100 Y18.96540
X47.28640 Y20.92120
X47.41340 Y21.17520
X47.54040 Y21.30220
X47.64200 Y21.32760
X47.79440 Y21.45460
X48.07380 Y21.50540
X48.45480 Y21.50540
X48.73420 Y21.45460
X48.75960 Y21.40380
X48.98820 Y21.30220
X49.11520 Y21.17520
X49.26760 Y20.81960
X49.24220 Y18.86380
X49.11520 Y18.60980
X48.98820 Y18.48280
X48.75960 Y18.38120
X48.73420 Y18.33040
X48.45480 Y18.27960
X48.07380 Y18.27960
X47.79440 Y18.33040
G04 P0 ( dwell for no time -- G64 should not smooth over this point )
G00 Z3.00000 ( retract )

G00 X50.20740 Y18.22880 ( rapid move to begin. )
F254.00000
G01 Z-0.10000
G04 P0 ( dwell for no time -- G64 should not smooth over this point )
F500.00000
X50.20740 Y18.22880
X50.05500 Y18.35580
X49.95340 Y18.38120
X49.82640 Y18.50820
X49.67400 Y18.86380
X49.67400 Y20.92120
X49.72480 Y21.09900
X49.95340 Y21.40380
X50.05500 Y21.42920
X50.20740 Y21.55620
X50.48680 Y21.60700
X51.07100 Y21.60700
X51.35040 Y21.55620
X51.50280 Y21.42920
X51.60440 Y21.40380
X51.73140 Y21.27680
X51.88380 Y20.92120
X51.88380 Y18.86380
X51.83300 Y18.68600
X51.60440 Y18.38120
X51.50280 Y18.35580
X51.35040 Y18.22880
X51.07100 Y18.17800
X50.48680 Y18.17800
X50.20740 Y18.22880
G04 P0 ( dwell for no time -- G64 should not smooth over this point )
G00 Z3.00000 ( retract )

G00 X50.30900 Y18.33040 ( rapid move to begin. )
F254.00000
G01 Z-0.10000
G04 P0 ( dwell for no time -- G64 should not smooth over this point )
F500.00000
X50.30900 Y18.33040
X50.28360 Y18.38120
X50.05500 Y18.48280
X49.92800 Y18.60980
X49.77560 Y18.96540
X49.80100 Y20.92120
X49.92800 Y21.17520
X50.05500 Y21.30220
X50.15660 Y21.32760
X50.30900 Y21.45460
X50.58840 Y21.50540
X50.96940 Y21.50540
X51.24880 Y21.45460
X51.27420 Y21.40380
X51.50280 Y21.30220
X51.62980 Y21.17520
X51.78220 Y20.81960
X51.75680 Y18.86380
X51.62980 Y18.60980
X51.50280 Y18.48280
X51.27420 Y18.38120
X51.24880 Y18.33040
X50.96940 Y18.27960
X50.58840 Y18.27960
X50.30900 Y18.33040
G04 P0 ( dwell for no time -- G64 should not smooth over this point )
G00 Z3.00000 ( retract )

G00 X52.69660 Y18.22880 ( rapid move to begin. )
F254.00000
G01 Z-0.10000
G04 P0 ( dwell for no time -- G64 should not smooth over this point )
F500.00000
X52.69660 Y18.22880
X52.67120 Y18.27960
X52.44260 Y18.38120
X52.31560 Y18.50820
X52.16320 Y18.86380
X52.16320 Y20.92120
X52.21400 Y21.09900
X52.44260 Y21.40380
X52.54420 Y21.42920
X52.69660 Y21.55620
X52.97600 Y21.60700
X53.56020 Y21.60700
X53.83960 Y21.55620
X53.99200 Y21.42920
X54.09360 Y21.40380
X54.22060 Y21.27680
X54.37300 Y20.92120
X54.37300 Y18.86380
X54.32220 Y18.68600
X54.24600 Y18.60980
X54.22060 Y18.50820
X54.09360 Y18.38120
X53.99200 Y18.35580
X53.83960 Y18.22880
X53.56020 Y18.17800
X52.97600 Y18.17800
X52.69660 Y18.22880
G04 P0 ( dwell for no time -- G64 should not smooth over this point )
G00 Z3.00000 ( retract )

G00 X52.79820 Y18.33040 ( rapid move to begin. )
F254.00000
G01 Z-0.10000
G04 P0 ( dwell for no time -- G64 should not smooth over this point )
F500.00000
X52.79820 Y18.33040
X52.77280 Y18.38120
X52.54420 Y18.48280
X52.41720 Y18.60980
X52.26480 Y18.96540
X52.29020 Y20.92120
X52.41720 Y21.17520
X52.54420 Y21.30220
X52.64580 Y21.32760
X52.79820 Y21.45460
X53.07760 Y21.50540
X53.45860 Y21.50540
X53.73800 Y21.45460
X53.76340 Y21.40380
X53.99200 Y21.30220
X54.11900 Y21.17520
X54.27140 Y20.81960
X54.24600 Y18.86380
X54.11900 Y18.60980
X53.99200 Y18.48280
X53.76340 Y18.38120
X53.73800 Y18.33040
X53.45860 Y18.27960
X53.07760 Y18.27960
X52.79820 Y18.33040
G04 P0 ( dwell for no time -- G64 should not smooth over this point )
G00 Z3.00000 ( retract )

G00 X55.18580 Y18.22880 ( rapid move to begin. )
F254.00000
G01 Z-0.10000
G04 P0 ( dwell for no time -- G64 should not smooth over this point )
F500.00000
X55.18580 Y18.22880
X55.03340 Y18.35580
X54.93180 Y18.38120
X54.80480 Y18.50820
X54.65240 Y18.86380
X54.65240 Y20.92120
X54.70320 Y21.09900
X54.93180 Y21.40380
X55.03340 Y21.42920
X55.18580 Y21.55620
X55.46520 Y21.60700
X56.04940 Y21.60700
X56.32880 Y21.55620
X56.48120 Y21.42920
X56.58280 Y21.40380
X56.70980 Y21.27680
X56.86220 Y20.92120
X56.86220 Y18.86380
X56.81140 Y18.68600
X56.58280 Y18.38120
X56.48120 Y18.35580
X56.32880 Y18.22880
X56.04940 Y18.17800
X55.46520 Y18.17800
X55.18580 Y18.22880
G04 P0 ( dwell for no time -- G64 should not smooth over this point )
G00 Z3.00000 ( retract )

G00 X55.28740 Y18.33040 ( rapid move to begin. )
F254.00000
G01 Z-0.10000
G04 P0 ( dwell for no time -- G64 should not smooth over this point )
F500.00000
X55.28740 Y18.33040
X55.26200 Y18.38120
X55.03340 Y18.48280
X54.90640 Y18.60980
X54.75400 Y18.96540
X54.77940 Y20.92120
X54.90640 Y21.17520
X55.03340 Y21.30220
X55.13500 Y21.32760
X55.28740 Y21.45460
X55.56680 Y21.50540
X55.94780 Y21.50540
X56.22720 Y21.45460
X56.25260 Y21.40380
X56.48120 Y21.30220
X56.60820 Y21.17520
X56.76060 Y20.81960
X56.73520 Y18.86380
X56.60820 Y18.60980
X56.48120 Y18.48280
X56.25260 Y18.38120
X56.22720 Y18.33040
X55.94780 Y18.27960
X55.56680 Y18.27960
X55.28740 Y18.33040
G04 P0 ( dwell for no time -- G64 should not smooth over this point )
G00 Z3.00000 ( retract )

G00 X54.34760 Y24.02000 ( rapid move to begin. )
F254.00000
G01 Z-0.10000
G04 P0 ( dwell for no time -- G64 should not smooth over this point )
F500.00000
X54.34760 Y24.02000
X53.96660 Y24.40100
X53.91580 Y24.55340
X53.81420 Y24.68040
X53.78880 Y24.85820
X53.73800 Y24.93440
X53.71260 Y25.84880
X53.81420 Y26.28060
X53.91580 Y26.40760
X53.96660 Y26.56000
X54.34760 Y26.94100
X54.50000 Y26.99180
X54.62700 Y27.09340
X54.72860 Y27.09340
X54.88100 Y27.16960
X55.97320 Y27.16960
X56.12560 Y27.09340
X56.22720 Y27.09340
X56.35420 Y26.99180
X56.50660 Y26.94100
X56.88760 Y26.56000
X56.93840 Y26.40760
X57.04000 Y26.28060
X57.04000 Y26.17900
X57.11620 Y26.02660
X57.11620 Y24.93440
X57.04000 Y24.78200
X57.04000 Y24.68040
X56.93840 Y24.55340
X56.88760 Y24.40100
X56.50660 Y24.02000
X56.35420 Y23.96920
X56.22720 Y23.86760
X56.12560 Y23.86760
X55.97320 Y23.79140
X55.05880 Y23.76600
X54.62700 Y23.86760
X54.50000 Y23.96920
X54.34760 Y24.02000
G04 P0 ( dwell for no time -- G64 should not smooth over this point )
G00 Z3.00000 ( retract )

G00 X54.72860 Y23.96920 ( rapid move to begin. )
F254.00000
G01 Z-0.10000
G04 P0 ( dwell for no time -- G64 should not smooth over this point )
F500.00000
X54.72860 Y23.96920
X54.60160 Y24.07080
X54.44920 Y24.12160
X54.34760 Y24.24860
X54.29680 Y24.24860
X54.19520 Y24.35020
X54.19520 Y24.40100
X54.06820 Y24.50260
X54.01740 Y24.65500
X53.91580 Y24.78200
X53.81420 Y25.21380
X53.81420 Y25.74720
X53.91580 Y26.17900
X54.01740 Y26.30600
X54.06820 Y26.45840
X54.19520 Y26.56000
X54.19520 Y26.61080
X54.29680 Y26.71240
X54.34760 Y26.71240
X54.44920 Y26.83940
X54.60160 Y26.89020
X54.72860 Y26.99180
X55.18580 Y27.09340
X55.66840 Y27.09340
X56.12560 Y26.99180
X56.25260 Y26.89020
X56.40500 Y26.83940
X56.50660 Y26.71240
X56.55740 Y26.71240
X56.65900 Y26.61080
X56.65900 Y26.56000
X56.78600 Y26.45840
X56.83680 Y26.30600
X56.93840 Y26.17900
X57.04000 Y25.72180
X57.04000 Y25.23920
X56.93840 Y24.78200
X56.83680 Y24.65500
X56.78600 Y24.50260
X56.65900 Y24.40100
X56.65900 Y24.35020
X56.55740 Y24.24860
X56.50660 Y24.24860
X56.40500 Y24.12160
X56.25260 Y24.07080
X56.12560 Y23.96920
X55.69380 Y23.86760
X55.16040 Y23.86760
X54.72860 Y23.96920
G04 P0 ( dwell for no time -- G64 should not smooth over this point )
G00 Z3.00000 ( retract )

G00 X59.55460 Y28.59200 ( rapid move to begin. )
F254.00000
G01 Z-0.10000
G04 P0 ( dwell for no time -- G64 should not smooth over this point )
F500.00000
X59.55460 Y28.59200
X59.55460 Y31.51300
X62.47560 Y31.51300
X62.47560 Y28.59200
X59.55460 Y28.59200
G04 P0 ( dwell for no time -- G64 should not smooth over this point )
G00 Z3.00000 ( retract )

G00 X59.65620 Y28.69360 ( rapid move to begin. )
F254.00000
G01 Z-0.10000
G04 P0 ( dwell for no time -- G64 should not smooth over this point )
F500.00000
X59.65620 Y28.69360
X59.65620 Y31.41140
X62.37400 Y31.41140
X62.37400 Y28.69360
X59.65620 Y28.69360
G04 P0 ( dwell for no time -- G64 should not smooth over this point )
G00 Z3.00000 ( retract )

G00 X62.47560 Y33.16400 ( rapid move to begin. )
F254.00000
G01 Z-0.10000
G04 P0 ( dwell for no time -- G64 should not smooth over this point )
F500.00000
X62.47560 Y33.16400
X62.09460 Y33.54500
X62.04380 Y33.69740
X61.94220 Y33.82440
X61.91680 Y34.00220
X61.86600 Y34.07840
X61.84060 Y34.99280
X61.94220 Y35.42460
X62.04380 Y35.55160
X62.09460 Y35.70400
X62.47560 Y36.08500
X62.62800 Y36.13580
X62.75500 Y36.23740
X62.85660 Y36.23740
X63.00900 Y36.31360
X64.10120 Y36.31360
X64.25360 Y36.23740
X64.35520 Y36.23740
X64.48220 Y36.13580
X64.63460 Y36.08500
X65.01560 Y35.70400
X65.06640 Y35.55160
X65.16800 Y35.42460
X65.16800 Y35.32300
X65.24420 Y35.17060
X65.26960 Y34.96740
X65.24420 Y34.07840
X65.16800 Y33.92600
X65.16800 Y33.82440
X65.06640 Y33.69740
X65.01560 Y33.54500
X64.63460 Y33.16400
X64.48220 Y33.11320
X64.35520 Y33.01160
X64.25360 Y33.01160
X64.10120 Y32.93540
X63.18680 Y32.91000
X62.75500 Y33.01160
X62.62800 Y33.11320
X62.47560 Y33.16400
G04 P0 ( dwell for no time -- G64 should not smooth over this point )
G00 Z3.00000 ( retract )

G00 X62.85660 Y33.11320 ( rapid move to begin. )
F254.00000
G01 Z-0.10000
G04 P0 ( dwell for no time -- G64 should not smooth over this point )
F500.00000
X62.85660 Y33.11320
X62.72960 Y33.21480
X62.57720 Y33.26560
X62.47560 Y33.39260
X62.42480 Y33.39260
X62.32320 Y33.49420
X62.32320 Y33.54500
X62.19620 Y33.64660
X62.14540 Y33.79900
X62.04380 Y33.92600
X61.94220 Y34.35780
X61.94220 Y34.89120
X62.04380 Y35.32300
X62.14540 Y35.45000
X62.19620 Y35.60240
X62.32320 Y35.70400
X62.34860 Y35.78020
X62.42480 Y35.85640
X62.47560 Y35.85640
X62.57720 Y35.98340
X62.72960 Y36.03420
X62.85660 Y36.13580
X63.31380 Y36.23740
X63.79640 Y36.23740
X64.25360 Y36.13580
X64.38060 Y36.03420
X64.53300 Y35.98340
X64.63460 Y35.85640
X64.68540 Y35.85640
X64.78700 Y35.75480
X64.78700 Y35.70400
X64.91400 Y35.60240
X64.96480 Y35.45000
X65.06640 Y35.32300
X65.16800 Y34.86580
X65.16800 Y34.38320
X65.06640 Y33.92600
X64.96480 Y33.79900
X64.91400 Y33.64660
X64.78700 Y33.54500
X64.76160 Y33.46880
X64.68540 Y33.39260
X64.63460 Y33.39260
X64.53300 Y33.26560
X64.38060 Y33.21480
X64.25360 Y33.11320
X63.82180 Y33.01160
X63.28840 Y33.01160
X62.85660 Y33.11320
G04 P0 ( dwell for no time -- G64 should not smooth over this point )
G00 Z3.00000 ( retract )

G00 X62.95820 Y45.48300 ( rapid move to begin. )
F254.00000
G01 Z-0.10000
G04 P0 ( dwell for no time -- G64 should not smooth over this point )
F500.00000
X62.95820 Y45.48300
X62.72960 Y45.66080
X62.72960 Y45.71160
X62.60260 Y45.83860
X62.55180 Y45.99100
X62.55180 Y47.64200
X62.60260 Y47.79440
X62.83120 Y48.07380
X63.08520 Y48.20080
X63.87260 Y48.22620
X64.10120 Y48.17540
X64.38060 Y47.97220
X64.38060 Y47.92140
X64.50760 Y47.79440
X64.55840 Y47.64200
X64.55840 Y45.99100
X64.50760 Y45.83860
X64.27900 Y45.55920
X64.02500 Y45.43220
X63.23760 Y45.40680
X62.95820 Y45.48300
G04 P0 ( dwell for no time -- G64 should not smooth over this point )
G00 Z3.00000 ( retract )

G00 X63.11060 Y45.55920 ( rapid move to begin. )
F254.00000
G01 Z-0.10000
G04 P0 ( dwell for no time -- G64 should not smooth over this point )
F500.00000
X63.11060 Y45.55920
X62.83120 Y45.76240
X62.83120 Y45.81320
X62.70420 Y45.94020
X62.65340 Y46.09260
X62.65340 Y47.54040
X62.70420 Y47.69280
X62.93280 Y47.97220
X63.18680 Y48.09920
X63.77100 Y48.12460
X63.99960 Y48.07380
X64.27900 Y47.87060
X64.27900 Y47.81980
X64.40600 Y47.69280
X64.45680 Y47.54040
X64.45680 Y46.09260
X64.40600 Y45.94020
X64.17740 Y45.66080
X63.92340 Y45.53380
X63.33920 Y45.50840
X63.11060 Y45.55920
G04 P0 ( dwell for no time -- G64 should not smooth over this point )
G00 Z3.00000 ( retract )

G00 X65.49820 Y45.48300 ( rapid move to begin. )
F254.00000
G01 Z-0.10000
G04 P0 ( dwell for no time -- G64 should not smooth over this point )
F500.00000
X65.49820 Y45.48300
X65.26960 Y45.66080
X65.26960 Y45.71160
X65.14260 Y45.83860
X65.09180 Y45.99100
X65.09180 Y47.64200
X65.14260 Y47.79440
X65.37120 Y48.07380
X65.62520 Y48.20080
X66.41260 Y48.22620
X66.64120 Y48.17540
X66.92060 Y47.97220
X66.92060 Y47.92140
X67.04760 Y47.79440
X67.09840 Y47.64200
X67.09840 Y45.99100
X67.04760 Y45.83860
X66.81900 Y45.55920
X66.56500 Y45.43220
X65.77760 Y45.40680
X65.49820 Y45.48300
G04 P0 ( dwell for no time -- G64 should not smooth over this point )
G00 Z3.00000 ( retract )

G00 X65.65060 Y45.55920 ( rapid move to begin. )
F254.00000
G01 Z-0.10000
G04 P0 ( dwell for no time -- G64 should not smooth over this point )
F500.00000
X65.65060 Y45.55920
X65.37120 Y45.76240
X65.37120 Y45.81320
X65.24420 Y45.94020
X65.19340 Y46.09260
X65.19340 Y47.54040
X65.24420 Y47.69280
X65.47280 Y47.97220
X65.72680 Y48.09920
X66.31100 Y48.12460
X66.53960 Y48.07380
X66.81900 Y47.87060
X66.81900 Y47.81980
X66.94600 Y47.69280
X66.99680 Y47.54040
X66.99680 Y46.09260
X66.94600 Y45.94020
X66.71740 Y45.66080
X66.46340 Y45.53380
X65.87920 Y45.50840
X65.65060 Y45.55920
G04 P0 ( dwell for no time -- G64 should not smooth over this point )
G00 Z3.00000 ( retract )

G00 X60.57060 Y45.55920 ( rapid move to begin. )
F254.00000
G01 Z-0.10000
G04 P0 ( dwell for no time -- G64 should not smooth over this point )
F500.00000
X60.57060 Y45.55920
X60.29120 Y45.76240
X60.29120 Y45.81320
X60.16420 Y45.94020
X60.11340 Y46.09260
X60.11340 Y47.54040
X60.16420 Y47.69280
X60.39280 Y47.97220
X60.64680 Y48.09920
X61.23100 Y48.12460
X61.45960 Y48.07380
X61.73900 Y47.87060
X61.73900 Y47.81980
X61.86600 Y47.69280
X61.91680 Y47.54040
X61.91680 Y46.09260
X61.86600 Y45.94020
X61.63740 Y45.66080
X61.38340 Y45.53380
X60.79920 Y45.50840
X60.57060 Y45.55920
G04 P0 ( dwell for no time -- G64 should not smooth over this point )
G00 Z3.00000 ( retract )

G00 X60.41820 Y45.48300 ( rapid move to begin. )
F254.00000
G01 Z-0.10000
G04 P0 ( dwell for no time -- G64 should not smooth over this point )
F500.00000
X60.41820 Y45.48300
X60.18960 Y45.66080
X60.18960 Y45.71160
X60.06260 Y45.83860
X60.01180 Y45.99100
X60.01180 Y47.64200
X60.06260 Y47.79440
X60.29120 Y48.07380
X60.54520 Y48.20080
X61.33260 Y48.22620
X61.56120 Y48.17540
X61.84060 Y47.97220
X61.84060 Y47.92140
X61.96760 Y47.79440
X62.01840 Y47.64200
X62.01840 Y45.99100
X61.96760 Y45.83860
X61.73900 Y45.55920
X61.48500 Y45.43220
X60.69760 Y45.40680
X60.41820 Y45.48300
G04 P0 ( dwell for no time -- G64 should not smooth over this point )
G00 Z3.00000 ( retract )

G00 X57.87820 Y45.48300 ( rapid move to begin. )
F254.00000
G01 Z-0.10000
G04 P0 ( dwell for no time -- G64 should not smooth over this point )
F500.00000
X57.87820 Y45.48300
X57.64960 Y45.66080
X57.64960 Y45.71160
X57.52260 Y45.83860
X57.47180 Y45.99100
X57.47180 Y47.64200
X57.52260 Y47.79440
X57.75120 Y48.07380
X58.00520 Y48.20080
X58.79260 Y48.22620
X59.02120 Y48.17540
X59.30060 Y47.97220
X59.30060 Y47.92140
X59.42760 Y47.79440
X59.47840 Y47.64200
X59.47840 Y45.99100
X59.42760 Y45.83860
X59.19900 Y45.55920
X58.94500 Y45.43220
X58.15760 Y45.40680
X57.87820 Y45.48300
G04 P0 ( dwell for no time -- G64 should not smooth over this point )
G00 Z3.00000 ( retract )

G00 X58.03060 Y45.55920 ( rapid move to begin. )
F254.00000
G01 Z-0.10000
G04 P0 ( dwell for no time -- G64 should not smooth over this point )
F500.00000
X58.03060 Y45.55920
X57.75120 Y45.76240
X57.75120 Y45.81320
X57.62420 Y45.94020
X57.57340 Y46.09260
X57.57340 Y47.54040
X57.62420 Y47.69280
X57.85280 Y47.97220
X58.10680 Y48.09920
X58.69100 Y48.12460
X58.91960 Y48.07380
X59.19900 Y47.87060
X59.19900 Y47.81980
X59.32600 Y47.69280
X59.37680 Y47.54040
X59.37680 Y46.09260
X59.32600 Y45.94020
X59.09740 Y45.66080
X58.84340 Y45.53380
X58.25920 Y45.50840
X58.03060 Y45.55920
G04 P0 ( dwell for no time -- G64 should not smooth over this point )
G00 Z3.00000 ( retract )

G00 X55.33820 Y45.48300 ( rapid move to begin. )
F254.00000
G01 Z-0.10000
G04 P0 ( dwell for no time -- G64 should not smooth over this point )
F500.00000
X55.33820 Y45.48300
X55.10960 Y45.66080
X55.10960 Y45.71160
X54.98260 Y45.83860
X54.93180 Y45.99100
X54.93180 Y47.64200
X54.98260 Y47.79440
X55.21120 Y48.07380
X55.46520 Y48.20080
X56.25260 Y48.22620
X56.48120 Y48.17540
X56.76060 Y47.97220
X56.76060 Y47.92140
X56.88760 Y47.79440
X56.93840 Y47.64200
X56.93840 Y45.99100
X56.88760 Y45.83860
X56.65900 Y45.55920
X56.40500 Y45.43220
X55.61760 Y45.40680
X55.33820 Y45.48300
G04 P0 ( dwell for no time -- G64 should not smooth over this point )
G00 Z3.00000 ( retract )

G00 X55.49060 Y45.55920 ( rapid move to begin. )
F254.00000
G01 Z-0.10000
G04 P0 ( dwell for no time -- G64 should not smooth over this point )
F500.00000
X55.49060 Y45.55920
X55.21120 Y45.76240
X55.21120 Y45.81320
X55.08420 Y45.94020
X55.03340 Y46.09260
X55.03340 Y47.54040
X55.08420 Y47.69280
X55.31280 Y47.97220
X55.56680 Y48.09920
X56.15100 Y48.12460
X56.37960 Y48.07380
X56.65900 Y47.87060
X56.65900 Y47.81980
X56.78600 Y47.69280
X56.83680 Y47.54040
X56.83680 Y46.09260
X56.78600 Y45.94020
X56.55740 Y45.66080
X56.30340 Y45.53380
X55.71920 Y45.50840
X55.49060 Y45.55920
G04 P0 ( dwell for no time -- G64 should not smooth over this point )
G00 Z3.00000 ( retract )

G00 X52.79820 Y45.48300 ( rapid move to begin. )
F254.00000
G01 Z-0.10000
G04 P0 ( dwell for no time -- G64 should not smooth over this point )
F500.00000
X52.79820 Y45.48300
X52.56960 Y45.66080
X52.56960 Y45.71160
X52.44260 Y45.83860
X52.39180 Y45.99100
X52.39180 Y47.64200
X52.44260 Y47.79440
X52.67120 Y48.07380
X52.92520 Y48.20080
X53.71260 Y48.22620
X53.94120 Y48.17540
X54.22060 Y47.97220
X54.22060 Y47.92140
X54.34760 Y47.79440
X54.39840 Y47.64200
X54.39840 Y45.99100
X54.34760 Y45.83860
X54.11900 Y45.55920
X53.86500 Y45.43220
X53.07760 Y45.40680
X52.79820 Y45.48300
G04 P0 ( dwell for no time -- G64 should not smooth over this point )
G00 Z3.00000 ( retract )

G00 X52.95060 Y45.55920 ( rapid move to begin. )
F254.00000
G01 Z-0.10000
G04 P0 ( dwell for no time -- G64 should not smooth over this point )
F500.00000
X52.95060 Y45.55920
X52.67120 Y45.76240
X52.67120 Y45.81320
X52.54420 Y45.94020
X52.49340 Y46.09260
X52.49340 Y47.54040
X52.54420 Y47.69280
X52.77280 Y47.97220
X53.02680 Y48.09920
X53.61100 Y48.12460
X53.83960 Y48.07380
X54.11900 Y47.87060
X54.11900 Y47.81980
X54.24600 Y47.69280
X54.29680 Y47.54040
X54.29680 Y46.09260
X54.24600 Y45.94020
X54.01740 Y45.66080
X53.76340 Y45.53380
X53.17920 Y45.50840
X52.95060 Y45.55920
G04 P0 ( dwell for no time -- G64 should not smooth over this point )
G00 Z3.00000 ( retract )

G00 X50.25820 Y45.48300 ( rapid move to begin. )
F254.00000
G01 Z-0.10000
G04 P0 ( dwell for no time -- G64 should not smooth over this point )
F500.00000
X50.25820 Y45.48300
X50.02960 Y45.66080
X50.02960 Y45.71160
X49.90260 Y45.83860
X49.85180 Y45.99100
X49.85180 Y47.64200
X49.90260 Y47.79440
X50.13120 Y48.07380
X50.38520 Y48.20080
X51.17260 Y48.22620
X51.40120 Y48.17540
X51.68060 Y47.97220
X51.68060 Y47.92140
X51.80760 Y47.79440
X51.85840 Y47.64200
X51.85840 Y45.99100
X51.80760 Y45.83860
X51.57900 Y45.55920
X51.32500 Y45.43220
X50.53760 Y45.40680
X50.25820 Y45.48300
G04 P0 ( dwell for no time -- G64 should not smooth over this point )
G00 Z3.00000 ( retract )

G00 X50.41060 Y45.55920 ( rapid move to begin. )
F254.00000
G01 Z-0.10000
G04 P0 ( dwell for no time -- G64 should not smooth over this point )
F500.00000
X50.41060 Y45.55920
X50.13120 Y45.76240
X50.13120 Y45.81320
X50.00420 Y45.94020
X49.95340 Y46.09260
X49.95340 Y47.54040
X50.00420 Y47.69280
X50.23280 Y47.97220
X50.48680 Y48.09920
X51.07100 Y48.12460
X51.29960 Y48.07380
X51.57900 Y47.87060
X51.57900 Y47.81980
X51.70600 Y47.69280
X51.75680 Y47.54040
X51.75680 Y46.09260
X51.70600 Y45.94020
X51.47740 Y45.66080
X51.22340 Y45.53380
X50.63920 Y45.50840
X50.41060 Y45.55920
G04 P0 ( dwell for no time -- G64 should not smooth over this point )
G00 Z3.00000 ( retract )

G00 X78.22360 Y43.65420 ( rapid move to begin. )
F254.00000
G01 Z-0.10000
G04 P0 ( dwell for no time -- G64 should not smooth over this point )
F500.00000
X78.22360 Y43.65420
X77.84260 Y44.03520
X77.79180 Y44.18760
X77.69020 Y44.31460
X77.66480 Y44.49240
X77.61400 Y44.56860
X77.58860 Y45.48300
X77.69020 Y45.91480
X77.79180 Y46.04180
X77.84260 Y46.19420
X78.22360 Y46.57520
X78.37600 Y46.62600
X78.50300 Y46.72760
X78.60460 Y46.72760
X78.75700 Y46.80380
X78.96020 Y46.82920
X79.84920 Y46.80380
X80.00160 Y46.72760
X80.10320 Y46.72760
X80.23020 Y46.62600
X80.38260 Y46.57520
X80.76360 Y46.19420
X80.81440 Y46.04180
X80.91600 Y45.91480
X80.91600 Y45.81320
X80.99220 Y45.66080
X81.01760 Y45.45760
X80.99220 Y44.56860
X80.91600 Y44.41620
X80.91600 Y44.31460
X80.81440 Y44.18760
X80.76360 Y44.03520
X80.38260 Y43.65420
X80.23020 Y43.60340
X80.10320 Y43.50180
X80.00160 Y43.50180
X79.84920 Y43.42560
X78.93480 Y43.40020
X78.50300 Y43.50180
X78.37600 Y43.60340
X78.22360 Y43.65420
G04 P0 ( dwell for no time -- G64 should not smooth over this point )
G00 Z3.00000 ( retract )

G00 X78.60460 Y43.60340 ( rapid move to begin. )
F254.00000
G01 Z-0.10000
G04 P0 ( dwell for no time -- G64 should not smooth over this point )
F500.00000
X78.60460 Y43.60340
X78.47760 Y43.70500
X78.32520 Y43.75580
X78.22360 Y43.88280
X78.14740 Y43.90820
X78.07120 Y43.98440
X78.07120 Y44.03520
X77.94420 Y44.13680
X77.89340 Y44.28920
X77.79180 Y44.41620
X77.69020 Y44.84800
X77.69020 Y45.38140
X77.79180 Y45.81320
X77.89340 Y45.94020
X77.94420 Y46.09260
X78.07120 Y46.19420
X78.07120 Y46.24500
X78.14740 Y46.32120
X78.22360 Y46.34660
X78.32520 Y46.47360
X78.47760 Y46.52440
X78.60460 Y46.62600
X79.06180 Y46.72760
X79.54440 Y46.72760
X80.00160 Y46.62600
X80.12860 Y46.52440
X80.28100 Y46.47360
X80.38260 Y46.34660
X80.43340 Y46.34660
X80.53500 Y46.24500
X80.53500 Y46.19420
X80.66200 Y46.09260
X80.71280 Y45.94020
X80.81440 Y45.81320
X80.91600 Y45.35600
X80.91600 Y44.87340
X80.81440 Y44.41620
X80.71280 Y44.28920
X80.66200 Y44.13680
X80.53500 Y44.03520
X80.48420 Y43.93360
X80.38260 Y43.88280
X80.28100 Y43.75580
X80.12860 Y43.70500
X80.00160 Y43.60340
X79.56980 Y43.50180
X79.03640 Y43.50180
X78.60460 Y43.60340
G04 P0 ( dwell for no time -- G64 should not smooth over this point )
G00 Z3.00000 ( retract )

G00 X78.22360 Y33.67200 ( rapid move to begin. )
F254.00000
G01 Z-0.10000
G04 P0 ( dwell for no time -- G64 should not smooth over this point )
F500.00000
X78.22360 Y33.67200
X77.84260 Y34.05300
X77.79180 Y34.20540
X77.69020 Y34.33240
X77.66480 Y34.51020
X77.61400 Y34.58640
X77.58860 Y35.50080
X77.69020 Y35.93260
X77.79180 Y36.05960
X77.84260 Y36.21200
X78.22360 Y36.59300
X78.37600 Y36.64380
X78.50300 Y36.74540
X78.60460 Y36.74540
X78.75700 Y36.82160
X79.84920 Y36.82160
X80.00160 Y36.74540
X80.10320 Y36.74540
X80.23020 Y36.64380
X80.38260 Y36.59300
X80.76360 Y36.21200
X80.81440 Y36.05960
X80.91600 Y35.93260
X80.91600 Y35.83100
X80.99220 Y35.67860
X81.01760 Y35.47540
X80.99220 Y34.58640
X80.91600 Y34.43400
X80.91600 Y34.33240
X80.81440 Y34.20540
X80.76360 Y34.05300
X80.38260 Y33.67200
X80.23020 Y33.62120
X80.10320 Y33.51960
X80.00160 Y33.51960
X79.84920 Y33.44340
X78.93480 Y33.41800
X78.50300 Y33.51960
X78.37600 Y33.62120
X78.22360 Y33.67200
G04 P0 ( dwell for no time -- G64 should not smooth over this point )
G00 Z3.00000 ( retract )

G00 X78.60460 Y33.62120 ( rapid move to begin. )
F254.00000
G01 Z-0.10000
G04 P0 ( dwell for no time -- G64 should not smooth over this point )
F500.00000
X78.60460 Y33.62120
X78.47760 Y33.72280
X78.32520 Y33.77360
X78.22360 Y33.90060
X78.17280 Y33.90060
X78.07120 Y34.00220
X78.07120 Y34.05300
X77.94420 Y34.15460
X77.89340 Y34.30700
X77.79180 Y34.43400
X77.69020 Y34.86580
X77.69020 Y35.39920
X77.79180 Y35.83100
X77.89340 Y35.95800
X77.94420 Y36.11040
X78.07120 Y36.21200
X78.09660 Y36.28820
X78.17280 Y36.36440
X78.22360 Y36.36440
X78.32520 Y36.49140
X78.47760 Y36.54220
X78.60460 Y36.64380
X79.06180 Y36.74540
X79.54440 Y36.74540
X80.00160 Y36.64380
X80.12860 Y36.54220
X80.28100 Y36.49140
X80.38260 Y36.36440
X80.43340 Y36.36440
X80.53500 Y36.26280
X80.53500 Y36.21200
X80.66200 Y36.11040
X80.71280 Y35.95800
X80.81440 Y35.83100
X80.91600 Y35.37380
X80.91600 Y34.89120
X80.81440 Y34.43400
X80.71280 Y34.30700
X80.66200 Y34.15460
X80.53500 Y34.05300
X80.53500 Y34.00220
X80.43340 Y33.90060
X80.38260 Y33.90060
X80.28100 Y33.77360
X80.12860 Y33.72280
X80.00160 Y33.62120
X79.56980 Y33.51960
X79.03640 Y33.51960
X78.60460 Y33.62120
G04 P0 ( dwell for no time -- G64 should not smooth over this point )
G00 Z3.00000 ( retract )

G00 X29.25240 Y22.49600 ( rapid move to begin. )
F254.00000
G01 Z-0.10000
G04 P0 ( dwell for no time -- G64 should not smooth over this point )
F500.00000
X29.25240 Y22.49600
X28.89680 Y22.80080
X28.87140 Y22.90240
X28.82060 Y22.92780
X28.74440 Y23.08020
X28.69360 Y23.25800
X28.66820 Y24.50260
X28.71900 Y24.75660
X28.82060 Y24.98520
X28.87140 Y25.01060
X28.89680 Y25.11220
X29.17620 Y25.36620
X29.60800 Y25.54400
X30.31920 Y25.56940
X30.80180 Y25.41700
X31.15740 Y25.11220
X31.18280 Y25.01060
X31.23360 Y24.98520
X31.30980 Y24.83280
X31.30980 Y24.73120
X31.36060 Y24.65500
X31.38600 Y23.41040
X31.30980 Y23.08020
X31.23360 Y22.92780
X31.18280 Y22.90240
X31.15740 Y22.80080
X30.87800 Y22.54680
X30.44620 Y22.36900
X29.73500 Y22.34360
X29.25240 Y22.49600
G04 P0 ( dwell for no time -- G64 should not smooth over this point )
G00 Z3.00000 ( retract )

G00 X29.15080 Y22.39440 ( rapid move to begin. )
F254.00000
G01 Z-0.10000
G04 P0 ( dwell for no time -- G64 should not smooth over this point )
F500.00000
X29.15080 Y22.39440
X28.79520 Y22.69920
X28.76980 Y22.80080
X28.71900 Y22.82620
X28.64280 Y22.97860
X28.56660 Y23.30880
X28.56660 Y24.60420
X28.61740 Y24.85820
X28.71900 Y25.08680
X28.76980 Y25.11220
X28.79520 Y25.21380
X29.15080 Y25.51860
X29.63340 Y25.67100
X30.42080 Y25.67100
X30.90340 Y25.51860
X31.25900 Y25.21380
X31.28440 Y25.11220
X31.33520 Y25.08680
X31.41140 Y24.93440
X31.48760 Y24.60420
X31.48760 Y23.30880
X31.41140 Y22.97860
X31.33520 Y22.82620
X31.28440 Y22.80080
X31.20820 Y22.64840
X30.90340 Y22.39440
X30.42080 Y22.24200
X29.63340 Y22.24200
X29.15080 Y22.39440
G04 P0 ( dwell for no time -- G64 should not smooth over this point )
G00 Z3.00000 ( retract )

G00 X26.10280 Y8.52600 ( rapid move to begin. )
F254.00000
G01 Z-0.10000
G04 P0 ( dwell for no time -- G64 should not smooth over this point )
F500.00000
X26.10280 Y8.52600
X26.02660 Y8.62760
X25.97580 Y8.62760
X25.87420 Y8.75460
X25.77260 Y8.80540
X25.77260 Y8.85620
X25.54400 Y9.08480
X25.44240 Y9.33880
X25.36620 Y9.41500
X25.34080 Y9.59280
X25.26460 Y9.74520
X25.21380 Y10.15160
X25.23920 Y10.93900
X25.36620 Y11.42160
X25.44240 Y11.49780
X25.54400 Y11.75180
X25.77260 Y11.98040
X25.77260 Y12.03120
X25.87420 Y12.08200
X25.97580 Y12.20900
X26.02660 Y12.20900
X26.10280 Y12.31060
X26.35680 Y12.41220
X26.43300 Y12.48840
X26.61080 Y12.51380
X26.76320 Y12.59000
X27.16960 Y12.64080
X27.95700 Y12.61540
X28.43960 Y12.48840
X28.51580 Y12.41220
X28.76980 Y12.31060
X28.99840 Y12.08200
X29.04920 Y12.08200
X29.10000 Y11.98040
X29.22700 Y11.87880
X29.22700 Y11.82800
X29.32860 Y11.75180
X29.43020 Y11.49780
X29.50640 Y11.42160
X29.53180 Y11.24380
X29.60800 Y11.09140
X29.65880 Y10.68500
X29.63340 Y9.89760
X29.50640 Y9.41500
X29.43020 Y9.33880
X29.32860 Y9.08480
X29.10000 Y8.85620
X29.10000 Y8.80540
X28.99840 Y8.75460
X28.89680 Y8.62760
X28.84600 Y8.62760
X28.76980 Y8.52600
X28.51580 Y8.42440
X28.43960 Y8.34820
X28.26180 Y8.32280
X28.10940 Y8.24660
X27.70300 Y8.19580
X26.91560 Y8.22120
X26.43300 Y8.34820
X26.35680 Y8.42440
X26.10280 Y8.52600
G04 P0 ( dwell for no time -- G64 should not smooth over this point )
G00 Z3.00000 ( retract )

G00 X26.53460 Y8.44980 ( rapid move to begin. )
F254.00000
G01 Z-0.10000
G04 P0 ( dwell for no time -- G64 should not smooth over this point )
F500.00000
X26.53460 Y8.44980
X26.45840 Y8.52600
X26.20440 Y8.62760
X25.97580 Y8.85620
X25.92500 Y8.85620
X25.87420 Y8.95780
X25.74720 Y9.05940
X25.74720 Y9.11020
X25.64560 Y9.18640
X25.54400 Y9.44040
X25.46780 Y9.51660
X25.44240 Y9.69440
X25.36620 Y9.84680
X25.31540 Y10.25320
X25.34080 Y10.83740
X25.46780 Y11.32000
X25.54400 Y11.39620
X25.64560 Y11.65020
X25.87420 Y11.87880
X25.87420 Y11.92960
X25.97580 Y11.98040
X26.07740 Y12.10740
X26.12820 Y12.10740
X26.20440 Y12.20900
X26.45840 Y12.31060
X26.53460 Y12.38680
X26.71240 Y12.41220
X26.86480 Y12.48840
X27.27120 Y12.53920
X27.85540 Y12.51380
X28.33800 Y12.38680
X28.41420 Y12.31060
X28.66820 Y12.20900
X28.74440 Y12.10740
X28.79520 Y12.10740
X28.89680 Y11.98040
X28.97300 Y11.95500
X28.99840 Y11.87880
X29.22700 Y11.65020
X29.32860 Y11.39620
X29.40480 Y11.32000
X29.43020 Y11.14220
X29.50640 Y10.98980
X29.55720 Y10.58340
X29.53180 Y9.99920
X29.40480 Y9.51660
X29.32860 Y9.44040
X29.22700 Y9.18640
X28.99840 Y8.95780
X28.99840 Y8.90700
X28.89680 Y8.85620
X28.79520 Y8.72920
X28.74440 Y8.72920
X28.66820 Y8.62760
X28.41420 Y8.52600
X28.33800 Y8.44980
X28.16020 Y8.42440
X28.00780 Y8.34820
X27.60140 Y8.29740
X27.01720 Y8.32280
X26.53460 Y8.44980
G04 P0 ( dwell for no time -- G64 should not smooth over this point )
G00 Z3.00000 ( retract )

G00 X19.04160 Y8.44980 ( rapid move to begin. )
F254.00000
G01 Z-0.10000
G04 P0 ( dwell for no time -- G64 should not smooth over this point )
F500.00000
X19.04160 Y8.44980
X18.96540 Y8.52600
X18.71140 Y8.62760
X18.48280 Y8.85620
X18.43200 Y8.85620
X18.38120 Y8.95780
X18.25420 Y9.05940
X18.25420 Y9.11020
X18.15260 Y9.18640
X18.05100 Y9.44040
X17.97480 Y9.51660
X17.94940 Y9.69440
X17.87320 Y9.84680
X17.82240 Y10.25320
X17.84780 Y10.83740
X17.97480 Y11.32000
X18.05100 Y11.39620
X18.15260 Y11.65020
X18.38120 Y11.87880
X18.38120 Y11.92960
X18.48280 Y11.98040
X18.58440 Y12.10740
X18.63520 Y12.10740
X18.71140 Y12.20900
X18.96540 Y12.31060
X19.04160 Y12.38680
X19.21940 Y12.41220
X19.37180 Y12.48840
X19.77820 Y12.53920
X20.36240 Y12.51380
X20.84500 Y12.38680
X20.92120 Y12.31060
X21.17520 Y12.20900
X21.40380 Y11.98040
X21.45460 Y11.98040
X21.50540 Y11.87880
X21.63240 Y11.77720
X21.63240 Y11.72640
X21.73400 Y11.65020
X21.83560 Y11.39620
X21.91180 Y11.32000
X21.93720 Y11.14220
X22.01340 Y10.98980
X22.06420 Y10.58340
X22.03880 Y9.99920
X21.91180 Y9.51660
X21.83560 Y9.44040
X21.73400 Y9.18640
X21.63240 Y9.11020
X21.63240 Y9.05940
X21.50540 Y8.95780
X21.48000 Y8.88160
X21.40380 Y8.85620
X21.17520 Y8.62760
X20.92120 Y8.52600
X20.84500 Y8.44980
X20.66720 Y8.42440
X20.51480 Y8.34820
X20.10840 Y8.29740
X19.52420 Y8.32280
X19.04160 Y8.44980
G04 P0 ( dwell for no time -- G64 should not smooth over this point )
G00 Z3.00000 ( retract )

G00 X18.60980 Y8.52600 ( rapid move to begin. )
F254.00000
G01 Z-0.10000
G04 P0 ( dwell for no time -- G64 should not smooth over this point )
F500.00000
X18.60980 Y8.52600
X18.53360 Y8.62760
X18.48280 Y8.62760
X18.38120 Y8.75460
X18.27960 Y8.80540
X18.27960 Y8.85620
X18.05100 Y9.08480
X17.94940 Y9.33880
X17.87320 Y9.41500
X17.84780 Y9.59280
X17.77160 Y9.74520
X17.72080 Y10.15160
X17.74620 Y10.93900
X17.87320 Y11.42160
X17.94940 Y11.49780
X18.05100 Y11.75180
X18.27960 Y11.98040
X18.27960 Y12.03120
X18.38120 Y12.08200
X18.48280 Y12.20900
X18.53360 Y12.20900
X18.60980 Y12.31060
X18.86380 Y12.41220
X18.94000 Y12.48840
X19.11780 Y12.51380
X19.27020 Y12.59000
X19.67660 Y12.64080
X20.46400 Y12.61540
X20.94660 Y12.48840
X21.02280 Y12.41220
X21.27680 Y12.31060
X21.50540 Y12.08200
X21.55620 Y12.08200
X21.60700 Y11.98040
X21.73400 Y11.87880
X21.73400 Y11.82800
X21.83560 Y11.75180
X21.93720 Y11.49780
X22.01340 Y11.42160
X22.03880 Y11.24380
X22.11500 Y11.09140
X22.16580 Y10.68500
X22.14040 Y9.89760
X22.01340 Y9.41500
X21.93720 Y9.33880
X21.83560 Y9.08480
X21.60700 Y8.85620
X21.60700 Y8.80540
X21.50540 Y8.75460
X21.40380 Y8.62760
X21.35300 Y8.62760
X21.27680 Y8.52600
X21.02280 Y8.42440
X20.94660 Y8.34820
X20.76880 Y8.32280
X20.61640 Y8.24660
X20.21000 Y8.19580
X19.42260 Y8.22120
X18.94000 Y8.34820
X18.86380 Y8.42440
X18.60980 Y8.52600
G04 P0 ( dwell for no time -- G64 should not smooth over this point )
G00 Z3.00000 ( retract )

G00 X11.59940 Y8.44980 ( rapid move to begin. )
F254.00000
G01 Z-0.10000
G04 P0 ( dwell for no time -- G64 should not smooth over this point )
F500.00000
X11.59940 Y8.44980
X11.52320 Y8.52600
X11.26920 Y8.62760
X11.04060 Y8.85620
X10.98980 Y8.85620
X10.93900 Y8.95780
X10.81200 Y9.05940
X10.81200 Y9.11020
X10.71040 Y9.18640
X10.60880 Y9.44040
X10.53260 Y9.51660
X10.50720 Y9.69440
X10.43100 Y9.84680
X10.38020 Y10.25320
X10.40560 Y10.83740
X10.53260 Y11.32000
X10.60880 Y11.39620
X10.71040 Y11.65020
X10.93900 Y11.87880
X10.93900 Y11.92960
X11.04060 Y11.98040
X11.14220 Y12.10740
X11.19300 Y12.10740
X11.26920 Y12.20900
X11.52320 Y12.31060
X11.59940 Y12.38680
X11.77720 Y12.41220
X11.92960 Y12.48840
X12.33600 Y12.53920
X12.92020 Y12.51380
X13.40280 Y12.38680
X13.47900 Y12.31060
X13.73300 Y12.20900
X13.96160 Y11.98040
X14.01240 Y11.98040
X14.06320 Y11.87880
X14.19020 Y11.77720
X14.19020 Y11.72640
X14.29180 Y11.65020
X14.39340 Y11.39620
X14.46960 Y11.32000
X14.49500 Y11.14220
X14.57120 Y10.98980
X14.62200 Y10.58340
X14.59660 Y9.99920
X14.46960 Y9.51660
X14.39340 Y9.44040
X14.29180 Y9.18640
X14.06320 Y8.95780
X14.06320 Y8.90700
X13.96160 Y8.85620
X13.86000 Y8.72920
X13.80920 Y8.72920
X13.73300 Y8.62760
X13.47900 Y8.52600
X13.40280 Y8.44980
X13.22500 Y8.42440
X13.07260 Y8.34820
X12.66620 Y8.29740
X12.08200 Y8.32280
X11.59940 Y8.44980
G04 P0 ( dwell for no time -- G64 should not smooth over this point )
G00 Z3.00000 ( retract )

G00 X11.16760 Y8.52600 ( rapid move to begin. )
F254.00000
G01 Z-0.10000
G04 P0 ( dwell for no time -- G64 should not smooth over this point )
F500.00000
X11.16760 Y8.52600
X10.93900 Y8.75460
X10.88820 Y8.75460
X10.83740 Y8.85620
X10.71040 Y8.95780
X10.71040 Y9.00860
X10.60880 Y9.08480
X10.50720 Y9.33880
X10.43100 Y9.41500
X10.40560 Y9.59280
X10.32940 Y9.74520
X10.27860 Y10.15160
X10.30400 Y10.93900
X10.43100 Y11.42160
X10.50720 Y11.49780
X10.60880 Y11.75180
X10.71040 Y11.82800
X10.71040 Y11.87880
X10.83740 Y11.98040
X10.88820 Y12.08200
X10.93900 Y12.08200
X11.16760 Y12.31060
X11.42160 Y12.41220
X11.49780 Y12.48840
X11.67560 Y12.51380
X11.82800 Y12.59000
X12.23440 Y12.64080
X13.02180 Y12.61540
X13.50440 Y12.48840
X13.58060 Y12.41220
X13.83460 Y12.31060
X14.06320 Y12.08200
X14.11400 Y12.08200
X14.16480 Y11.98040
X14.29180 Y11.87880
X14.29180 Y11.82800
X14.39340 Y11.75180
X14.49500 Y11.49780
X14.57120 Y11.42160
X14.59660 Y11.24380
X14.67280 Y11.09140
X14.72360 Y10.68500
X14.69820 Y9.89760
X14.57120 Y9.41500
X14.49500 Y9.33880
X14.39340 Y9.08480
X14.16480 Y8.85620
X14.16480 Y8.80540
X14.06320 Y8.75460
X13.96160 Y8.62760
X13.91080 Y8.62760
X13.83460 Y8.52600
X13.58060 Y8.42440
X13.50440 Y8.34820
X13.32660 Y8.32280
X13.17420 Y8.24660
X12.76780 Y8.19580
X11.98040 Y8.22120
X11.49780 Y8.34820
X11.42160 Y8.42440
X11.16760 Y8.52600

G04 P0 ( dwell for no time -- G64 should not smooth over this point )
G00 Z10.000 ( retract )

M5 ( Spindle off. )
M9 ( Coolant off. )
M2 ( Program end. )

